; Code generated by text2laser.py 
; Engraving: "HI i am doing wellkl"
; Fontfile: cursive.cxf 

    G90         ; 
    M03 S40 ;
    
;character 'H'
M03 S40; 
G00 X2.329346 Y8.693340; 
M05 S10
G01 X0.000000 Y0.000000 S0 F2000
M03 S40; 
G00 X5.000000 Y0.000000; 
M05 S10
G01 X7.329346 Y8.693340 S0 F2000
M03 S40; 
G00 X1.294067 Y4.829630; 
M05 S10
G01 X6.294067 Y4.829630 S0 F2000

;character 'I'
M03 S40; 
G00 X11.979786 Y8.693340; 
M05 S10
G01 X9.650440 Y0.000000 S0 F2000

;character 'i'
M03 S40; 
G00 X23.585256 Y0.000000; 
M05 S10
G01 X25.138235 Y5.795560 S0 F2000
M03 S40; 
G00 X25.914602 Y8.693340; 
M05 S10
G01 X25.785207 Y8.210370 S0 F2000

;character 'a'
M03 S40; 
G00 X39.573051 Y5.795560; 
M05 S10
G01 X41.769828 Y5.795560 S0 F2000
G01 X42.070534 Y5.749277 S0 F2000
G01 X42.343404 Y5.614712 S0 F2000
G01 X42.563181 Y5.404321 S0 F2000
G01 X42.709521 Y5.137580 S0 F2000
G01 X42.768876 Y4.839179 S0 F2000
G01 X42.735754 Y4.536741 S0 F2000
G01 X41.520072 Y0.000000 S0 F2000
G01 X38.823295 Y0.000000 S0 F2000
G01 X38.522589 Y0.046283 S0 F2000
G01 X38.249719 Y0.180848 S0 F2000
G01 X38.029942 Y0.391239 S0 F2000
G01 X37.883602 Y0.657980 S0 F2000
G01 X37.824247 Y0.956381 S0 F2000
G01 X37.857369 Y1.258819 S0 F2000
G01 X38.097953 Y2.156590 S0 F2000
G01 X38.232425 Y2.453340 S0 F2000
G01 X38.455134 Y2.691123 S0 F2000
G01 X38.742456 Y2.844700 S0 F2000
G01 X39.063895 Y2.897770 S0 F2000
G01 X42.296561 Y2.897770 S0 F2000

;character 'm'
M03 S40; 
G00 X45.089970 Y0.000000; 
M05 S10
G01 X46.642949 Y5.795560 S0 F2000
G01 X51.339604 Y5.795560 S0 F2000
G01 X51.640310 Y5.749277 S0 F2000
G01 X51.913181 Y5.614712 S0 F2000
G01 X52.132958 Y5.404321 S0 F2000
G01 X52.279297 Y5.137580 S0 F2000
G01 X52.338652 Y4.839179 S0 F2000
G01 X52.305530 Y4.536741 S0 F2000
G01 X51.089970 Y0.000000 S0 F2000
M03 S40; 
G00 X49.642949 Y5.795560; 
M05 S10
G01 X48.089970 Y0.000000 S0 F2000

;character 'd'
M03 S40; 
G00 X70.273468 Y8.693340; 
M05 S10
G01 X67.944122 Y0.000000 S0 F2000
G01 X65.247345 Y0.000000 S0 F2000
G01 X64.946640 Y0.046283 S0 F2000
G01 X64.673769 Y0.180848 S0 F2000
G01 X64.453992 Y0.391239 S0 F2000
G01 X64.307653 Y0.657980 S0 F2000
G01 X64.248297 Y0.956381 S0 F2000
G01 X64.281420 Y1.258819 S0 F2000
G01 X65.298492 Y5.054380 S0 F2000
G01 X65.432965 Y5.351130 S0 F2000
G01 X65.655673 Y5.588913 S0 F2000
G01 X65.942995 Y5.742490 S0 F2000
G01 X66.264434 Y5.795560 S0 F2000
G01 X69.497101 Y5.795560 S0 F2000

;character 'o'
M03 S40; 
G00 X76.192584 Y5.795560; 
M05 S10
G01 X75.298419 Y5.795560 S0 F2000
G01 X74.816260 Y5.715955 S0 F2000
G01 X74.385277 Y5.485590 S0 F2000
G01 X74.051215 Y5.128915 S0 F2000
G01 X73.849531 Y4.683789 S0 F2000
G01 X73.100543 Y1.888230 S0 F2000
G01 X73.050824 Y1.434571 S0 F2000
G01 X73.139858 Y0.986970 S0 F2000
G01 X73.359366 Y0.586858 S0 F2000
G01 X73.689032 Y0.271272 S0 F2000
G01 X74.098338 Y0.069425 S0 F2000
G01 X74.549396 Y0.000000 S0 F2000
G01 X75.443561 Y0.000000 S0 F2000
G01 X75.925721 Y0.079605 S0 F2000
G01 X76.356704 Y0.309970 S0 F2000
G01 X76.690766 Y0.666645 S0 F2000
G01 X76.892450 Y1.111771 S0 F2000
G01 X77.641559 Y3.907330 S0 F2000
G01 X77.691157 Y4.360989 S0 F2000
G01 X77.602123 Y4.808590 S0 F2000
G01 X77.382614 Y5.208702 S0 F2000
G01 X77.052949 Y5.524288 S0 F2000
G01 X76.643643 Y5.726135 S0 F2000
G01 X76.192584 Y5.795560 S0 F2000

;character 'i'
M03 S40; 
G00 X80.012251 Y0.000000; 
M05 S10
G01 X81.565230 Y5.795560 S0 F2000
M03 S40; 
G00 X82.341597 Y8.693340; 
M05 S10
G01 X82.212202 Y8.210370 S0 F2000

;character 'n'
M03 S40; 
G00 X84.662691 Y0.000000; 
M05 S10
G01 X86.215670 Y5.795560 S0 F2000
G01 X88.912325 Y5.795560 S0 F2000
G01 X89.213031 Y5.749277 S0 F2000
G01 X89.485901 Y5.614712 S0 F2000
G01 X89.705678 Y5.404321 S0 F2000
G01 X89.852017 Y5.137580 S0 F2000
G01 X89.911373 Y4.839179 S0 F2000
G01 X89.878251 Y4.536741 S0 F2000
G01 X88.662691 Y0.000000 S0 F2000

;character 'g'
M03 S40; 
G00 X91.455978 Y-2.897780; 
M05 S10
G01 X94.688644 Y-2.897780 S0 F2000
G01 X95.010090 Y-2.844709 S0 F2000
G01 X95.297418 Y-2.691129 S0 F2000
G01 X95.520130 Y-2.453341 S0 F2000
G01 X95.654589 Y-2.156584 S0 F2000
G01 X97.785323 Y5.795560 S0 F2000
G01 X94.552657 Y5.795560 S0 F2000
G01 X94.231218 Y5.742480 S0 F2000
G01 X93.943896 Y5.588903 S0 F2000
G01 X93.721187 Y5.351120 S0 F2000
G01 X93.586731 Y5.054369 S0 F2000
G01 X92.569747 Y1.258820 S0 F2000
G01 X92.536642 Y0.956381 S0 F2000
G01 X92.595997 Y0.657980 S0 F2000
G01 X92.742337 Y0.391239 S0 F2000
G01 X92.962114 Y0.180848 S0 F2000
G01 X93.234984 Y0.046283 S0 F2000
G01 X93.535690 Y0.000000 S0 F2000
G01 X96.232467 Y0.000000 S0 F2000

;character 'w'
M03 S40; 
G00 X110.943649 Y5.795560; 
M05 S10
G01 X110.890793 Y0.000000 S0 F2000
G01 X113.426071 Y3.863700 S0 F2000
G01 X113.890793 Y0.000000 S0 F2000
G01 X116.943649 Y5.795560 S0 F2000

;character 'e'
M03 S40; 
G00 X123.264743 Y0.000000; 
M05 S10
G01 X120.567966 Y0.000000 S0 F2000
G01 X120.267260 Y0.046283 S0 F2000
G01 X119.994390 Y0.180848 S0 F2000
G01 X119.774613 Y0.391239 S0 F2000
G01 X119.628273 Y0.657980 S0 F2000
G01 X119.568918 Y0.956381 S0 F2000
G01 X119.602040 Y1.258819 S0 F2000
G01 X120.619113 Y5.054380 S0 F2000
G01 X120.753585 Y5.351120 S0 F2000
G01 X120.976294 Y5.588903 S0 F2000
G01 X121.263616 Y5.742480 S0 F2000
G01 X121.585055 Y5.795550 S0 F2000
G01 X123.514499 Y5.795560 S0 F2000
G01 X123.815205 Y5.749267 S0 F2000
G01 X124.088075 Y5.614702 S0 F2000
G01 X124.307852 Y5.404311 S0 F2000
G01 X124.454192 Y5.137570 S0 F2000
G01 X124.513547 Y4.839169 S0 F2000
G01 X124.480425 Y4.536731 S0 F2000
G01 X124.041232 Y2.897770 S0 F2000
G01 X120.041232 Y2.897770 S0 F2000

;character 'l'
M03 S40; 
G00 X129.163987 Y8.693340; 
M05 S10
G01 X127.171921 Y1.258820 S0 F2000
G01 X127.138816 Y0.956381 S0 F2000
G01 X127.198172 Y0.657980 S0 F2000
G01 X127.344511 Y0.391239 S0 F2000
G01 X127.564288 Y0.180848 S0 F2000
G01 X127.837158 Y0.046283 S0 F2000
G01 X128.137864 Y0.000000 S0 F2000

;character 'l'
M03 S40; 
G00 X133.814427 Y8.693340; 
M05 S10
G01 X131.822361 Y1.258820 S0 F2000
G01 X131.789256 Y0.956381 S0 F2000
G01 X131.848612 Y0.657980 S0 F2000
G01 X131.994951 Y0.391239 S0 F2000
G01 X132.214728 Y0.180848 S0 F2000
G01 X132.487598 Y0.046283 S0 F2000
G01 X132.788304 Y0.000000 S0 F2000

;character 'k'
M03 S40; 
G00 X138.464867 Y8.693340; 
M05 S10
G01 X136.135521 Y0.000000 S0 F2000
M03 S40; 
G00 X136.912010 Y2.897770; 
M05 S10
G01 X141.688500 Y5.795560 S0 F2000
M03 S40; 
G00 X140.135521 Y0.000000; 
M05 S10
G01 X138.504173 Y3.863700 S0 F2000

;character 'l'
M03 S40; 
G00 X146.338940 Y8.693340; 
M05 S10
G01 X144.346874 Y1.258820 S0 F2000
G01 X144.313769 Y0.956381 S0 F2000
G01 X144.373125 Y0.657980 S0 F2000
G01 X144.519464 Y0.391239 S0 F2000
G01 X144.739241 Y0.180848 S0 F2000
G01 X145.012111 Y0.046283 S0 F2000
G01 X145.312817 Y0.000000 S0 F2000


    M5          ; Disable Laser/Spindle
    
