; Code generated by text2laser.py 
; Engraving: "  GOOD"
; Fontfile: cursive.cxf 

    G90         ; 
    M03 S40 ;
    
;character 'G'
M03 S40; 
G00 X25.898098 Y8.693340; 
M05 S10
G01 X22.432766 Y8.693340 S0 F2000
G01 X21.789887 Y8.587190 S0 F2000
G01 X21.215243 Y8.280037 S0 F2000
G01 X20.769827 Y7.804470 S0 F2000
G01 X20.500914 Y7.210968 S0 F2000
G01 X19.243374 Y2.517640 S0 F2000
G01 X19.177101 Y1.912761 S0 F2000
G01 X19.295812 Y1.315960 S0 F2000
G01 X19.588490 Y0.782477 S0 F2000
G01 X20.028044 Y0.361696 S0 F2000
G01 X20.573785 Y0.092566 S0 F2000
G01 X21.175197 Y0.000000 S0 F2000
G01 X23.568752 Y0.000000 S0 F2000
G01 X24.862880 Y4.829630 S0 F2000
G01 X22.862880 Y4.829630 S0 F2000

;character 'O'
M03 S40; 
G00 X32.942092 Y8.693340; 
M05 S10
G01 X32.466873 Y8.693340 S0 F2000
G01 X31.663274 Y8.560665 S0 F2000
G01 X30.944969 Y8.176723 S0 F2000
G01 X30.388199 Y7.582266 S0 F2000
G01 X30.052058 Y6.840388 S0 F2000
G01 X28.893814 Y2.517640 S0 F2000
G01 X28.827541 Y1.912761 S0 F2000
G01 X28.946252 Y1.315960 S0 F2000
G01 X29.238930 Y0.782477 S0 F2000
G01 X29.678484 Y0.361696 S0 F2000
G01 X30.224225 Y0.092566 S0 F2000
G01 X30.825637 Y0.000000 S0 F2000
G01 X31.300857 Y0.000000 S0 F2000
G01 X32.104456 Y0.132675 S0 F2000
G01 X32.822761 Y0.516617 S0 F2000
G01 X33.379531 Y1.111074 S0 F2000
G01 X33.715672 Y1.852952 S0 F2000
G01 X34.873977 Y6.175700 S0 F2000
G01 X34.940188 Y6.780569 S0 F2000
G01 X34.821477 Y7.377370 S0 F2000
G01 X34.528799 Y7.910853 S0 F2000
G01 X34.089245 Y8.331634 S0 F2000
G01 X33.543504 Y8.600764 S0 F2000
G01 X32.942092 Y8.693330 S0 F2000

;character 'O'
M03 S40; 
G00 X41.984182 Y8.693340; 
M05 S10
G01 X41.508963 Y8.693340 S0 F2000
G01 X40.705365 Y8.560665 S0 F2000
G01 X39.987060 Y8.176723 S0 F2000
G01 X39.430289 Y7.582266 S0 F2000
G01 X39.094149 Y6.840388 S0 F2000
G01 X37.935904 Y2.517640 S0 F2000
G01 X37.869631 Y1.912761 S0 F2000
G01 X37.988342 Y1.315960 S0 F2000
G01 X38.281021 Y0.782477 S0 F2000
G01 X38.720575 Y0.361696 S0 F2000
G01 X39.266316 Y0.092566 S0 F2000
G01 X39.867727 Y0.000000 S0 F2000
G01 X40.342947 Y0.000000 S0 F2000
G01 X41.146546 Y0.132675 S0 F2000
G01 X41.864851 Y0.516617 S0 F2000
G01 X42.421621 Y1.111074 S0 F2000
G01 X42.757762 Y1.852952 S0 F2000
G01 X43.916067 Y6.175700 S0 F2000
G01 X43.982279 Y6.780569 S0 F2000
G01 X43.863568 Y7.377370 S0 F2000
G01 X43.570889 Y7.910853 S0 F2000
G01 X43.131335 Y8.331634 S0 F2000
G01 X42.585594 Y8.600764 S0 F2000
G01 X41.984182 Y8.693330 S0 F2000

;character 'D'
M03 S40; 
G00 X48.632719 Y8.693340; 
M05 S10
G01 X46.303373 Y0.000000 S0 F2000
G01 X49.385038 Y0.000000 S0 F2000
G01 X50.188637 Y0.132675 S0 F2000
G01 X50.906941 Y0.516617 S0 F2000
G01 X51.463712 Y1.111074 S0 F2000
G01 X51.799852 Y1.852952 S0 F2000
G01 X52.958158 Y6.175700 S0 F2000
G01 X53.024369 Y6.780569 S0 F2000
G01 X52.905658 Y7.377370 S0 F2000
G01 X52.612980 Y7.910853 S0 F2000
G01 X52.173426 Y8.331634 S0 F2000
G01 X51.627684 Y8.600764 S0 F2000
G01 X51.026273 Y8.693330 S0 F2000
G01 X48.632719 Y8.693340 S0 F2000


    M5          ; Disable Laser/Spindle
    
