; Code generated by text2laser.py 
; Engraving: "HI i am doing wellkl"
; Fontfile: courier.cxf 

    G90         ; 
    M03 S40 ;
    
;character 'H'
M03 S40; 
G00 X2.000000 Y0.000000; 
M05 S10
G01 X2.000000 Y9.000000 S0 F2000
M03 S40; 
G00 X7.000000 Y9.000000; 
M05 S10
G01 X7.000000 Y0.000000 S0 F2000
M03 S40; 
G00 X2.000000 Y4.000000; 
M05 S10
G01 X7.000000 Y4.000000 S0 F2000
M03 S40; 
G00 X0.500000 Y0.000000; 
M05 S10
G01 X3.500000 Y0.000000 S0 F2000
M03 S40; 
G00 X3.500000 Y9.000000; 
M05 S10
G01 X0.500000 Y9.000000 S0 F2000
M03 S40; 
G00 X5.500000 Y9.000000; 
M05 S10
G01 X8.500000 Y9.000000 S0 F2000
M03 S40; 
G00 X8.500000 Y0.000000; 
M05 S10
G01 X5.500000 Y0.000000 S0 F2000

;character 'I'
M03 S40; 
G00 X11.750000 Y9.000000; 
M05 S10
G01 X18.750000 Y9.000000 S0 F2000
M03 S40; 
G00 X11.750000 Y0.000000; 
M05 S10
G01 X18.750000 Y0.000000 S0 F2000
M03 S40; 
G00 X15.250000 Y0.000000; 
M05 S10
G01 X15.250000 Y9.000000 S0 F2000

;character 'i'
M03 S40; 
G00 X37.500000 Y0.000000; 
M05 S10
G01 X31.500000 Y0.000000 S0 F2000
M03 S40; 
G00 X34.500000 Y0.000000; 
M05 S10
G01 X34.500000 Y6.000000 S0 F2000
G01 X32.500000 Y6.000000 S0 F2000
M03 S40; 
G00 X34.500000 Y8.000000; 
M05 S10
G01 X34.500000 Y9.000000 S0 F2000

;character 'a'
M03 S40; 
G00 X57.250000 Y0.000000; 
M05 S10
G01 X55.250000 Y0.000000 S0 F2000
M03 S40; 
G00 X51.049534 Y3.968957; 
M05 S10
G01 X50.449531 Y3.766952 S0 F2000
G01 X49.942727 Y3.387532 S0 F2000
G01 X49.579905 Y2.868716 S0 F2000
G01 X49.397421 Y2.262490 S0 F2000
G01 X49.413560 Y1.629600 S0 F2000
G01 X49.626705 Y1.033463 S0 F2000
G01 X50.015498 Y0.533814 S0 F2000
G01 X50.540982 Y0.180718 S0 F2000
G01 X51.150501 Y0.009556 S0 F2000
M03 S40; 
G00 X55.250001 Y3.743581; 
M05 S10
G01 X53.162154 Y4.087349 S0 F2000
G01 X51.049530 Y3.968614 S0 F2000
M03 S40; 
G00 X51.150481 Y0.010456; 
M05 S10
G01 X52.643660 Y0.064892 S0 F2000
G01 X54.052810 Y0.561724 S0 F2000
G01 X55.249943 Y1.455825 S0 F2000
M03 S40; 
G00 X55.250000 Y4.588459; 
M05 S10
G01 X55.152113 Y5.206493 S0 F2000
G01 X54.868034 Y5.764030 S0 F2000
G01 X54.425571 Y6.206493 S0 F2000
G01 X53.868034 Y6.490572 S0 F2000
G01 X53.250000 Y6.588459 S0 F2000
G01 X52.171229 Y6.460456 S0 F2000
G01 X51.152368 Y6.083555 S0 F2000
G01 X50.250001 Y5.478687 S0 F2000
M03 S40; 
G00 X55.250000 Y4.588459; 
M05 S10
G01 X55.250000 Y0.000000 S0 F2000

;character 'm'
M03 S40; 
G00 X62.500000 Y0.000000; 
M05 S10
G01 X59.500000 Y0.000000 S0 F2000
M03 S40; 
G00 X59.500000 Y6.000000; 
M05 S10
G01 X61.000000 Y6.000000 S0 F2000
G01 X61.000000 Y0.000000 S0 F2000
M03 S40; 
G00 X64.000000 Y0.000000; 
M05 S10
G01 X64.000000 Y5.000000 S0 F2000
M03 S40; 
G00 X67.000000 Y5.000000; 
M05 S10
G01 X67.000000 Y0.000000 S0 F2000
M03 S40; 
G00 X65.500000 Y0.000000; 
M05 S10
G01 X64.000000 Y0.000000 S0 F2000
M03 S40; 
G00 X68.500000 Y0.000000; 
M05 S10
G01 X67.000000 Y0.000000 S0 F2000
M03 S40; 
G00 X64.000000 Y4.558050; 
M05 S10
G01 X65.334961 Y5.746819 S0 F2000
M03 S40; 
G00 X61.000000 Y4.558050; 
M05 S10
G01 X62.334961 Y5.746819 S0 F2000
M03 S40; 
G00 X64.000000 Y5.000000; 
M05 S10
G01 X63.946579 Y5.322471 S0 F2000
G01 X63.792025 Y5.610489 S0 F2000
G01 X63.552849 Y5.833282 S0 F2000
G01 X63.254606 Y5.967045 S0 F2000
G01 X62.929160 Y5.997488 S0 F2000
G01 X62.611284 Y5.921357 S0 F2000
G01 X62.334938 Y5.746788 S0 F2000
M03 S40; 
G00 X67.000000 Y5.000000; 
M05 S10
G01 X66.946579 Y5.322471 S0 F2000
G01 X66.792025 Y5.610489 S0 F2000
G01 X66.552849 Y5.833282 S0 F2000
G01 X66.254606 Y5.967045 S0 F2000
G01 X65.929160 Y5.997488 S0 F2000
G01 X65.611284 Y5.921357 S0 F2000
G01 X65.334938 Y5.746788 S0 F2000

;character 'd'
M03 S40; 
G00 X88.250000 Y0.000000; 
M05 S10
G01 X86.250000 Y0.000000 S0 F2000
G01 X86.250000 Y9.000000 S0 F2000
M03 S40; 
G00 X86.250000 Y3.000000; 
M05 S10
G01 X86.103170 Y3.927051 S0 F2000
G01 X85.677051 Y4.763356 S0 F2000
G01 X85.013356 Y5.427051 S0 F2000
G01 X84.177051 Y5.853170 S0 F2000
G01 X83.250000 Y6.000000 S0 F2000
G01 X82.322949 Y5.853170 S0 F2000
G01 X81.486644 Y5.427051 S0 F2000
G01 X80.822949 Y4.763356 S0 F2000
G01 X80.396830 Y3.927051 S0 F2000
G01 X80.250000 Y3.000000 S0 F2000
G01 X80.396830 Y2.072949 S0 F2000
G01 X80.822949 Y1.236644 S0 F2000
G01 X81.486644 Y0.572949 S0 F2000
G01 X82.322949 Y0.146830 S0 F2000
G01 X83.250000 Y0.000000 S0 F2000
G01 X84.177051 Y0.146830 S0 F2000
G01 X85.013356 Y0.572949 S0 F2000
G01 X85.677051 Y1.236644 S0 F2000
G01 X86.103170 Y2.072949 S0 F2000
G01 X86.250000 Y3.000000 S0 F2000
M03 S40; 
G00 X86.250000 Y9.000000; 
M05 S10
G01 X84.250000 Y9.000000 S0 F2000

;character 'o'
M03 S40; 
G00 X98.000000 Y3.000000; 
M05 S10
G01 X97.853170 Y3.927051 S0 F2000
G01 X97.427051 Y4.763356 S0 F2000
G01 X96.763356 Y5.427051 S0 F2000
G01 X95.927051 Y5.853170 S0 F2000
G01 X95.000000 Y6.000000 S0 F2000
G01 X94.072949 Y5.853170 S0 F2000
G01 X93.236644 Y5.427051 S0 F2000
G01 X92.572949 Y4.763356 S0 F2000
G01 X92.146830 Y3.927051 S0 F2000
G01 X92.000000 Y3.000000 S0 F2000
G01 X92.146830 Y2.072949 S0 F2000
G01 X92.572949 Y1.236644 S0 F2000
G01 X93.236644 Y0.572949 S0 F2000
G01 X94.072949 Y0.146830 S0 F2000
G01 X95.000000 Y0.000000 S0 F2000
G01 X95.927051 Y0.146830 S0 F2000
G01 X96.763356 Y0.572949 S0 F2000
G01 X97.427051 Y1.236644 S0 F2000
G01 X97.853170 Y2.072949 S0 F2000
G01 X98.000000 Y3.000000 S0 F2000

;character 'i'
M03 S40; 
G00 X107.750000 Y0.000000; 
M05 S10
G01 X101.750000 Y0.000000 S0 F2000
M03 S40; 
G00 X104.750000 Y0.000000; 
M05 S10
G01 X104.750000 Y6.000000 S0 F2000
G01 X102.750000 Y6.000000 S0 F2000
M03 S40; 
G00 X104.750000 Y8.000000; 
M05 S10
G01 X104.750000 Y9.000000 S0 F2000

;character 'n'
M03 S40; 
G00 X112.000000 Y6.000000; 
M05 S10
G01 X112.000000 Y0.000000 S0 F2000
M03 S40; 
G00 X110.500000 Y6.000000; 
M05 S10
G01 X112.000000 Y6.000000 S0 F2000
M03 S40; 
G00 X110.500000 Y0.000000; 
M05 S10
G01 X113.500000 Y0.000000 S0 F2000
M03 S40; 
G00 X118.500000 Y0.000000; 
M05 S10
G01 X115.500000 Y0.000000 S0 F2000
M03 S40; 
G00 X117.000000 Y3.500000; 
M05 S10
G01 X117.000000 Y0.000000 S0 F2000
M03 S40; 
G00 X112.000000 Y4.629692; 
M05 S10
G01 X112.847900 Y5.376266 S0 F2000
M03 S40; 
G00 X117.000000 Y3.500000; 
M05 S10
G01 X116.867093 Y4.304282 S0 F2000
G01 X116.482504 Y5.023049 S0 F2000
G01 X115.887124 Y5.579876 S0 F2000
G01 X115.144258 Y5.915560 S0 F2000
G01 X114.332891 Y5.994409 S0 F2000
G01 X113.539291 Y5.808038 S0 F2000
G01 X112.847840 Y5.376264 S0 F2000

;character 'g'
M03 S40; 
G00 X127.250000 Y3.000000; 
M05 S10
G01 X127.103170 Y3.927051 S0 F2000
G01 X126.677051 Y4.763356 S0 F2000
G01 X126.013356 Y5.427051 S0 F2000
G01 X125.177051 Y5.853170 S0 F2000
G01 X124.250000 Y6.000000 S0 F2000
G01 X123.322949 Y5.853170 S0 F2000
G01 X122.486644 Y5.427051 S0 F2000
G01 X121.822949 Y4.763356 S0 F2000
G01 X121.396830 Y3.927051 S0 F2000
G01 X121.250000 Y3.000000 S0 F2000
G01 X121.396830 Y2.072949 S0 F2000
G01 X121.822949 Y1.236644 S0 F2000
G01 X122.486644 Y0.572949 S0 F2000
G01 X123.322949 Y0.146830 S0 F2000
G01 X124.250000 Y0.000000 S0 F2000
G01 X125.177051 Y0.146830 S0 F2000
G01 X126.013356 Y0.572949 S0 F2000
G01 X126.677051 Y1.236644 S0 F2000
G01 X127.103170 Y2.072949 S0 F2000
G01 X127.250000 Y3.000000 S0 F2000
M03 S40; 
G00 X129.250000 Y6.000000; 
M05 S10
G01 X127.250000 Y6.000000 S0 F2000
G01 X127.250000 Y-1.000000 S0 F2000
M03 S40; 
G00 X125.250000 Y-3.000000; 
M05 S10
G01 X125.868034 Y-2.902113 S0 F2000
G01 X126.425571 Y-2.618034 S0 F2000
G01 X126.868034 Y-2.175571 S0 F2000
G01 X127.152113 Y-1.618034 S0 F2000
G01 X127.250000 Y-1.000000 S0 F2000
M03 S40; 
G00 X125.250000 Y-3.000000; 
M05 S10
G01 X122.250000 Y-3.000000 S0 F2000

;character 'w'
M03 S40; 
G00 X140.500000 Y6.000000; 
M05 S10
G01 X143.500000 Y6.000000 S0 F2000
M03 S40; 
G00 X146.500000 Y6.000000; 
M05 S10
G01 X149.500000 Y6.000000 S0 F2000
M03 S40; 
G00 X141.500000 Y6.000000; 
M05 S10
G01 X143.500000 Y0.000000 S0 F2000
M03 S40; 
G00 X145.000000 Y5.000000; 
M05 S10
G01 X143.500000 Y0.000000 S0 F2000
M03 S40; 
G00 X145.000000 Y5.000000; 
M05 S10
G01 X146.500000 Y0.000000 S0 F2000
G01 X148.500000 Y6.000000 S0 F2000

;character 'e'
M03 S40; 
G00 X153.250000 Y3.000000; 
M05 S10
G01 X159.250000 Y3.000000 S0 F2000
M03 S40; 
G00 X159.250000 Y1.000000; 
M05 S10
G01 X157.403809 Y0.230770 S0 F2000
M03 S40; 
G00 X159.250000 Y3.000000; 
M05 S10
G01 X159.077785 Y4.001815 S0 F2000
G01 X158.580912 Y4.888611 S0 F2000
G01 X157.816426 Y5.558575 S0 F2000
G01 X156.872099 Y5.934790 S0 F2000
G01 X155.856349 Y5.974061 S0 F2000
G01 X154.885794 Y5.671880 S0 F2000
G01 X154.071864 Y5.062940 S0 F2000
G01 X153.508005 Y4.217154 S0 F2000
G01 X153.258955 Y3.231627 S0 F2000
G01 X153.353307 Y2.219506 S0 F2000
G01 X153.780229 Y1.296994 S0 F2000
G01 X154.490705 Y0.570004 S0 F2000
G01 X155.403166 Y0.122002 S0 F2000
G01 X156.412852 Y0.004423 S0 F2000
G01 X157.403841 Y0.230767 S0 F2000

;character 'l'
M03 S40; 
G00 X163.000000 Y0.000000; 
M05 S10
G01 X169.000000 Y0.000000 S0 F2000
M03 S40; 
G00 X166.000000 Y0.000000; 
M05 S10
G01 X166.000000 Y9.000000 S0 F2000
G01 X164.000000 Y9.000000 S0 F2000

;character 'l'
M03 S40; 
G00 X172.750000 Y0.000000; 
M05 S10
G01 X178.750000 Y0.000000 S0 F2000
M03 S40; 
G00 X175.750000 Y0.000000; 
M05 S10
G01 X175.750000 Y9.000000 S0 F2000
G01 X173.750000 Y9.000000 S0 F2000

;character 'k'
M03 S40; 
G00 X181.000000 Y0.000000; 
M05 S10
G01 X183.000000 Y0.000000 S0 F2000
G01 X183.000000 Y9.000000 S0 F2000
G01 X181.000000 Y9.000000 S0 F2000
M03 S40; 
G00 X189.000000 Y6.000000; 
M05 S10
G01 X186.000000 Y6.000000 S0 F2000
M03 S40; 
G00 X187.500000 Y6.000000; 
M05 S10
G01 X183.000000 Y2.696379 S0 F2000
M03 S40; 
G00 X189.500000 Y0.000000; 
M05 S10
G01 X186.500000 Y0.000000 S0 F2000
M03 S40; 
G00 X188.000000 Y0.000000; 
M05 S10
G01 X184.569214 Y3.848392 S0 F2000

;character 'l'
M03 S40; 
G00 X193.250000 Y0.000000; 
M05 S10
G01 X199.250000 Y0.000000 S0 F2000
M03 S40; 
G00 X196.250000 Y0.000000; 
M05 S10
G01 X196.250000 Y9.000000 S0 F2000
G01 X194.250000 Y9.000000 S0 F2000


    M5          ; Disable Laser/Spindle
    
