; Code generated by text2laser.py 
; Engraving: "hello how are you"
; Fontfile: courier.cxf 

    G90         ; 
    M3 S40 ;
    
;character 'h'
M3 S40; 
G0 X0.200000 Y0.000000; 
; M5 S10
G1 X1.400000 Y0.000000 F2000
M3 S40; 
G0 X0.200000 Y3.600000; 
; M5 S10
G1 X1.000000 Y3.600000 F2000
M3 S40; 
G0 X3.400000 Y0.000000; 
; M5 S10
G1 X2.200000 Y0.000000 F2000
M3 S40; 
G0 X0.800000 Y3.600000; 
; M5 S10
G1 X0.800000 Y0.000000 F2000
M3 S40; 
G0 X2.800000 Y1.600000; 
; M5 S10
G1 X2.763836 Y1.837813 F2000
G1 X2.658612 Y2.054126 F2000
G1 X2.493843 Y2.229380 F2000
G1 X2.284424 Y2.347732 F2000
G1 X2.049291 Y2.398480 F2000
G1 X1.809701 Y2.377037 F2000
G1 X1.587316 Y2.285341 F2000
M3 S40; 
G0 X2.800000 Y1.600000; 
; M5 S10
G1 X2.800000 Y0.000000 F2000
M3 S40; 
G0 X0.800000 Y1.811250; 
; M5 S10
G1 X1.587305 Y2.285339 F2000

;character 'e'
M3 S40; 
G0 X4.900000 Y1.200000; 
; M5 S10
G1 X7.300000 Y1.200000 F2000
M3 S40; 
G0 X7.300000 Y0.400000; 
; M5 S10
G1 X6.561524 Y0.092308 F2000
M3 S40; 
G0 X7.300000 Y1.200000; 
; M5 S10
G1 X7.231114 Y1.600726 F2000
G1 X7.032365 Y1.955444 F2000
G1 X6.726571 Y2.223430 F2000
G1 X6.348840 Y2.373916 F2000
G1 X5.942540 Y2.389624 F2000
G1 X5.554318 Y2.268752 F2000
G1 X5.228745 Y2.025176 F2000
G1 X5.003202 Y1.686862 F2000
G1 X4.903582 Y1.292651 F2000
G1 X4.941323 Y0.887802 F2000
G1 X5.112091 Y0.518798 F2000
G1 X5.396282 Y0.228002 F2000
G1 X5.761266 Y0.048801 F2000
G1 X6.165141 Y0.001769 F2000
G1 X6.561536 Y0.092307 F2000

;character 'l'
M3 S40; 
G0 X8.800000 Y0.000000; 
; M5 S10
G1 X11.200000 Y0.000000 F2000
M3 S40; 
G0 X10.000000 Y0.000000; 
; M5 S10
G1 X10.000000 Y3.600000 F2000
G1 X9.200000 Y3.600000 F2000

;character 'l'
M3 S40; 
G0 X12.700000 Y0.000000; 
; M5 S10
G1 X15.100000 Y0.000000 F2000
M3 S40; 
G0 X13.900000 Y0.000000; 
; M5 S10
G1 X13.900000 Y3.600000 F2000
G1 X13.100000 Y3.600000 F2000

;character 'o'
M3 S40; 
G0 X19.000000 Y1.200000; 
; M5 S10
G1 X18.941268 Y1.570820 F2000
G1 X18.770820 Y1.905342 F2000
G1 X18.505342 Y2.170820 F2000
G1 X18.170820 Y2.341268 F2000
G1 X17.800000 Y2.400000 F2000
G1 X17.429180 Y2.341268 F2000
G1 X17.094658 Y2.170820 F2000
G1 X16.829180 Y1.905342 F2000
G1 X16.658732 Y1.570820 F2000
G1 X16.600000 Y1.200000 F2000
G1 X16.658732 Y0.829180 F2000
G1 X16.829180 Y0.494658 F2000
G1 X17.094658 Y0.229180 F2000
G1 X17.429180 Y0.058732 F2000
G1 X17.800000 Y0.000000 F2000
G1 X18.170820 Y0.058732 F2000
G1 X18.505342 Y0.229180 F2000
G1 X18.770820 Y0.494658 F2000
G1 X18.941268 Y0.829180 F2000
G1 X19.000000 Y1.200000 F2000

;character 'h'
M3 S40; 
G0 X23.700000 Y0.000000; 
; M5 S10
G1 X24.900000 Y0.000000 F2000
M3 S40; 
G0 X23.700000 Y3.600000; 
; M5 S10
G1 X24.500000 Y3.600000 F2000
M3 S40; 
G0 X26.900000 Y0.000000; 
; M5 S10
G1 X25.700000 Y0.000000 F2000
M3 S40; 
G0 X24.300000 Y3.600000; 
; M5 S10
G1 X24.300000 Y0.000000 F2000
M3 S40; 
G0 X26.300000 Y1.600000; 
; M5 S10
G1 X26.263836 Y1.837813 F2000
G1 X26.158612 Y2.054126 F2000
G1 X25.993843 Y2.229380 F2000
G1 X25.784424 Y2.347732 F2000
G1 X25.549291 Y2.398480 F2000
G1 X25.309701 Y2.377037 F2000
G1 X25.087316 Y2.285341 F2000
M3 S40; 
G0 X26.300000 Y1.600000; 
; M5 S10
G1 X26.300000 Y0.000000 F2000
M3 S40; 
G0 X24.300000 Y1.811250; 
; M5 S10
G1 X25.087305 Y2.285339 F2000

;character 'o'
M3 S40; 
G0 X30.800000 Y1.200000; 
; M5 S10
G1 X30.741268 Y1.570820 F2000
G1 X30.570820 Y1.905342 F2000
G1 X30.305342 Y2.170820 F2000
G1 X29.970820 Y2.341268 F2000
G1 X29.600000 Y2.400000 F2000
G1 X29.229180 Y2.341268 F2000
G1 X28.894658 Y2.170820 F2000
G1 X28.629180 Y1.905342 F2000
G1 X28.458732 Y1.570820 F2000
G1 X28.400000 Y1.200000 F2000
G1 X28.458732 Y0.829180 F2000
G1 X28.629180 Y0.494658 F2000
G1 X28.894658 Y0.229180 F2000
G1 X29.229180 Y0.058732 F2000
G1 X29.600000 Y0.000000 F2000
G1 X29.970820 Y0.058732 F2000
G1 X30.305342 Y0.229180 F2000
G1 X30.570820 Y0.494658 F2000
G1 X30.741268 Y0.829180 F2000
G1 X30.800000 Y1.200000 F2000

;character 'w'
M3 S40; 
G0 X31.700000 Y2.400000; 
; M5 S10
G1 X32.900000 Y2.400000 F2000
M3 S40; 
G0 X34.100000 Y2.400000; 
; M5 S10
G1 X35.300000 Y2.400000 F2000
M3 S40; 
G0 X32.100000 Y2.400000; 
; M5 S10
G1 X32.900000 Y0.000000 F2000
M3 S40; 
G0 X33.500000 Y2.000000; 
; M5 S10
G1 X32.900000 Y0.000000 F2000
M3 S40; 
G0 X33.500000 Y2.000000; 
; M5 S10
G1 X34.100000 Y0.000000 F2000
G1 X34.900000 Y2.400000 F2000

;character 'a'
M3 S40; 
G0 X43.200000 Y0.000000; 
; M5 S10
G1 X42.400000 Y0.000000 F2000
M3 S40; 
G0 X40.719814 Y1.587583; 
; M5 S10
G1 X40.479812 Y1.506781 F2000
G1 X40.277091 Y1.355013 F2000
G1 X40.131962 Y1.147486 F2000
G1 X40.058968 Y0.904996 F2000
G1 X40.065424 Y0.651840 F2000
G1 X40.150682 Y0.413385 F2000
G1 X40.306199 Y0.213526 F2000
G1 X40.516393 Y0.072287 F2000
G1 X40.760200 Y0.003823 F2000
M3 S40; 
G0 X42.400000 Y1.497432; 
; M5 S10
G1 X41.564862 Y1.634939 F2000
G1 X40.719812 Y1.587445 F2000
M3 S40; 
G0 X40.760193 Y0.004182; 
; M5 S10
G1 X41.357464 Y0.025957 F2000
G1 X41.921124 Y0.224689 F2000
G1 X42.399977 Y0.582330 F2000
M3 S40; 
G0 X42.400000 Y1.835384; 
; M5 S10
G1 X42.360845 Y2.082597 F2000
G1 X42.247214 Y2.305612 F2000
G1 X42.070228 Y2.482597 F2000
G1 X41.847214 Y2.596229 F2000
G1 X41.600000 Y2.635384 F2000
G1 X41.168492 Y2.584182 F2000
G1 X40.760947 Y2.433422 F2000
G1 X40.400000 Y2.191475 F2000
M3 S40; 
G0 X42.400000 Y1.835384; 
; M5 S10
G1 X42.400000 Y0.000000 F2000

;character 'r'
M3 S40; 
G0 X45.100000 Y2.400000; 
; M5 S10
G1 X45.100000 Y0.000000 F2000
M3 S40; 
G0 X44.500000 Y2.400000; 
; M5 S10
G1 X45.100000 Y2.400000 F2000
M3 S40; 
G0 X45.100000 Y1.486496; 
; M5 S10
G1 X45.831690 Y2.143868 F2000
M3 S40; 
G0 X47.241705 Y2.070727; 
; M5 S10
G1 X46.998698 Y2.266776 F2000
G1 X46.707075 Y2.378325 F2000
G1 X46.395264 Y2.394500 F2000
G1 X46.093664 Y2.313724 F2000
G1 X45.831676 Y2.143871 F2000
M3 S40; 
G0 X44.500000 Y0.000000; 
; M5 S10
G1 X46.500000 Y0.000000 F2000

;character 'e'
M3 S40; 
G0 X48.741705 Y1.200000; 
; M5 S10
G1 X51.141705 Y1.200000 F2000
M3 S40; 
G0 X51.141705 Y0.400000; 
; M5 S10
G1 X50.403228 Y0.092308 F2000
M3 S40; 
G0 X51.141705 Y1.200000; 
; M5 S10
G1 X51.072819 Y1.600726 F2000
G1 X50.874069 Y1.955444 F2000
G1 X50.568275 Y2.223430 F2000
G1 X50.190544 Y2.373916 F2000
G1 X49.784244 Y2.389624 F2000
G1 X49.396022 Y2.268752 F2000
G1 X49.070450 Y2.025176 F2000
G1 X48.844907 Y1.686862 F2000
G1 X48.745287 Y1.292651 F2000
G1 X48.783028 Y0.887802 F2000
G1 X48.953796 Y0.518798 F2000
G1 X49.237987 Y0.228002 F2000
G1 X49.602971 Y0.048801 F2000
G1 X50.006845 Y0.001769 F2000
G1 X50.403241 Y0.092307 F2000

;character 'y'
M3 S40; 
G0 X55.641705 Y2.400000; 
; M5 S10
G1 X56.841705 Y2.400000 F2000
M3 S40; 
G0 X58.041705 Y2.400000; 
; M5 S10
G1 X59.241705 Y2.400000 F2000
M3 S40; 
G0 X55.641705 Y-1.200000; 
; M5 S10
G1 X57.641705 Y-1.200000 F2000
M3 S40; 
G0 X56.841705 Y-1.200000; 
; M5 S10
G1 X58.641705 Y2.400000 F2000
M3 S40; 
G0 X56.241705 Y2.400000; 
; M5 S10
G1 X57.441705 Y0.000000 F2000

;character 'o'
M3 S40; 
G0 X63.141705 Y1.200000; 
; M5 S10
G1 X63.082972 Y1.570820 F2000
G1 X62.912525 Y1.905342 F2000
G1 X62.647047 Y2.170820 F2000
G1 X62.312525 Y2.341268 F2000
G1 X61.941705 Y2.400000 F2000
G1 X61.570884 Y2.341268 F2000
G1 X61.236362 Y2.170820 F2000
G1 X60.970884 Y1.905342 F2000
G1 X60.800437 Y1.570820 F2000
G1 X60.741705 Y1.200000 F2000
G1 X60.800437 Y0.829180 F2000
G1 X60.970884 Y0.494658 F2000
G1 X61.236362 Y0.229180 F2000
G1 X61.570884 Y0.058732 F2000
G1 X61.941705 Y0.000000 F2000
G1 X62.312525 Y0.058732 F2000
G1 X62.647047 Y0.229180 F2000
G1 X62.912525 Y0.494658 F2000
G1 X63.082972 Y0.829180 F2000
G1 X63.141705 Y1.200000 F2000

;character 'u'
M3 S40; 
G0 X64.841705 Y2.400000; 
; M5 S10
G1 X64.841705 Y0.800000 F2000
M3 S40; 
G0 X66.841705 Y2.400000; 
; M5 S10
G1 X66.841705 Y0.000000 F2000
G1 X67.641705 Y0.000000 F2000
M3 S40; 
G0 X66.841705 Y0.400000; 
; M5 S10
G1 X65.925738 Y0.052122 F2000
M3 S40; 
G0 X64.841705 Y0.800000; 
; M5 S10
G1 X64.882896 Y0.546605 F2000
G1 X65.002228 Y0.319303 F2000
G1 X65.187412 Y0.141503 F2000
G1 X65.419378 Y0.031514 F2000
G1 X65.674238 Y0.000662 F2000
G1 X65.925749 Y0.052124 F2000
M3 S40; 
G0 X64.241705 Y2.400000; 
; M5 S10
G1 X64.841705 Y2.400000 F2000
M3 S40; 
G0 X66.241705 Y2.400000; 
; M5 S10
G1 X66.841705 Y2.400000 F2000

; ===================================================================
; Engraving: "" 
; Line 1 

    M5          ; Disable Laser/Spindle
    
