; Code generated by text2laser.py 
; Engraving: "how are you doing i am very"
; Fontfile: courier.cxf 

    G90         ; 
    M3 S40 ;
    
;character 'h'
M3 S40; 
G0 X0.500000 Y0.000000; 
; M5 S10
G1 X3.500000 Y0.000000 F2000
M3 S40; 
G0 X0.500000 Y9.000000; 
; M5 S10
G1 X2.500000 Y9.000000 F2000
M3 S40; 
G0 X8.500000 Y0.000000; 
; M5 S10
G1 X5.500000 Y0.000000 F2000
M3 S40; 
G0 X2.000000 Y9.000000; 
; M5 S10
G1 X2.000000 Y0.000000 F2000
M3 S40; 
G0 X7.000000 Y4.000000; 
; M5 S10
G1 X6.909589 Y4.594534 F2000
G1 X6.646530 Y5.135315 F2000
G1 X6.234606 Y5.573451 F2000
G1 X5.711061 Y5.869329 F2000
G1 X5.123227 Y5.996200 F2000
G1 X4.524253 Y5.942592 F2000
G1 X3.968291 Y5.713352 F2000
M3 S40; 
G0 X7.000000 Y4.000000; 
; M5 S10
G1 X7.000000 Y0.000000 F2000
M3 S40; 
G0 X2.000000 Y4.528125; 
; M5 S10
G1 X3.968262 Y5.713347 F2000

;character 'o'
M3 S40; 
G0 X18.250000 Y3.000000; 
; M5 S10
G1 X18.103170 Y3.927051 F2000
G1 X17.677051 Y4.763356 F2000
G1 X17.013356 Y5.427051 F2000
G1 X16.177051 Y5.853170 F2000
G1 X15.250000 Y6.000000 F2000
G1 X14.322949 Y5.853170 F2000
G1 X13.486644 Y5.427051 F2000
G1 X12.822949 Y4.763356 F2000
G1 X12.396830 Y3.927051 F2000
G1 X12.250000 Y3.000000 F2000
G1 X12.396830 Y2.072949 F2000
G1 X12.822949 Y1.236644 F2000
G1 X13.486644 Y0.572949 F2000
G1 X14.322949 Y0.146830 F2000
G1 X15.250000 Y0.000000 F2000
G1 X16.177051 Y0.146830 F2000
G1 X17.013356 Y0.572949 F2000
G1 X17.677051 Y1.236644 F2000
G1 X18.103170 Y2.072949 F2000
G1 X18.250000 Y3.000000 F2000

;character 'w'
M3 S40; 
G0 X20.500000 Y6.000000; 
; M5 S10
G1 X23.500000 Y6.000000 F2000
M3 S40; 
G0 X26.500000 Y6.000000; 
; M5 S10
G1 X29.500000 Y6.000000 F2000
M3 S40; 
G0 X21.500000 Y6.000000; 
; M5 S10
G1 X23.500000 Y0.000000 F2000
M3 S40; 
G0 X25.000000 Y5.000000; 
; M5 S10
G1 X23.500000 Y0.000000 F2000
M3 S40; 
G0 X25.000000 Y5.000000; 
; M5 S10
G1 X26.500000 Y0.000000 F2000
G1 X28.500000 Y6.000000 F2000

;character 'a'
M3 S40; 
G0 X49.250000 Y0.000000; 
; M5 S10
G1 X47.250000 Y0.000000 F2000
M3 S40; 
G0 X43.049534 Y3.968957; 
; M5 S10
G1 X42.449531 Y3.766952 F2000
G1 X41.942727 Y3.387532 F2000
G1 X41.579905 Y2.868716 F2000
G1 X41.397421 Y2.262490 F2000
G1 X41.413560 Y1.629600 F2000
G1 X41.626705 Y1.033463 F2000
G1 X42.015498 Y0.533814 F2000
G1 X42.540982 Y0.180718 F2000
G1 X43.150501 Y0.009556 F2000
M3 S40; 
G0 X47.250001 Y3.743581; 
; M5 S10
G1 X45.162154 Y4.087349 F2000
G1 X43.049530 Y3.968614 F2000
M3 S40; 
G0 X43.150481 Y0.010456; 
; M5 S10
G1 X44.643660 Y0.064892 F2000
G1 X46.052810 Y0.561724 F2000
G1 X47.249943 Y1.455825 F2000
M3 S40; 
G0 X47.250000 Y4.588459; 
; M5 S10
G1 X47.152113 Y5.206493 F2000
G1 X46.868034 Y5.764030 F2000
G1 X46.425571 Y6.206493 F2000
G1 X45.868034 Y6.490572 F2000
G1 X45.250000 Y6.588459 F2000
G1 X44.171229 Y6.460456 F2000
G1 X43.152368 Y6.083555 F2000
G1 X42.250001 Y5.478687 F2000
M3 S40; 
G0 X47.250000 Y4.588459; 
; M5 S10
G1 X47.250000 Y0.000000 F2000

;character 'r'
M3 S40; 
G0 X54.000000 Y6.000000; 
; M5 S10
G1 X54.000000 Y0.000000 F2000
M3 S40; 
G0 X52.500000 Y6.000000; 
; M5 S10
G1 X54.000000 Y6.000000 F2000
M3 S40; 
G0 X54.000000 Y3.716239; 
; M5 S10
G1 X55.829224 Y5.359669 F2000
M3 S40; 
G0 X59.354262 Y5.176817; 
; M5 S10
G1 X58.746745 Y5.666939 F2000
G1 X58.017686 Y5.945813 F2000
G1 X57.238160 Y5.986250 F2000
G1 X56.484159 Y5.784309 F2000
G1 X55.829191 Y5.359676 F2000
M3 S40; 
G0 X52.500000 Y0.000000; 
; M5 S10
G1 X57.500000 Y0.000000 F2000

;character 'e'
M3 S40; 
G0 X63.104262 Y3.000000; 
; M5 S10
G1 X69.104262 Y3.000000 F2000
M3 S40; 
G0 X69.104262 Y1.000000; 
; M5 S10
G1 X67.258071 Y0.230770 F2000
M3 S40; 
G0 X69.104262 Y3.000000; 
; M5 S10
G1 X68.932047 Y4.001815 F2000
G1 X68.435173 Y4.888611 F2000
G1 X67.670688 Y5.558575 F2000
G1 X66.726361 Y5.934790 F2000
G1 X65.710611 Y5.974061 F2000
G1 X64.740056 Y5.671880 F2000
G1 X63.926125 Y5.062940 F2000
G1 X63.362267 Y4.217154 F2000
G1 X63.113217 Y3.231627 F2000
G1 X63.207569 Y2.219506 F2000
G1 X63.634490 Y1.296994 F2000
G1 X64.344967 Y0.570004 F2000
G1 X65.257427 Y0.122002 F2000
G1 X66.267113 Y0.004423 F2000
G1 X67.258102 Y0.230767 F2000

;character 'y'
M3 S40; 
G0 X80.354262 Y6.000000; 
; M5 S10
G1 X83.354262 Y6.000000 F2000
M3 S40; 
G0 X86.354262 Y6.000000; 
; M5 S10
G1 X89.354262 Y6.000000 F2000
M3 S40; 
G0 X80.354262 Y-3.000000; 
; M5 S10
G1 X85.354262 Y-3.000000 F2000
M3 S40; 
G0 X83.354262 Y-3.000000; 
; M5 S10
G1 X87.854262 Y6.000000 F2000
M3 S40; 
G0 X81.854262 Y6.000000; 
; M5 S10
G1 X84.854262 Y0.000000 F2000

;character 'o'
M3 S40; 
G0 X99.104262 Y3.000000; 
; M5 S10
G1 X98.957431 Y3.927051 F2000
G1 X98.531313 Y4.763356 F2000
G1 X97.867617 Y5.427051 F2000
G1 X97.031313 Y5.853170 F2000
G1 X96.104262 Y6.000000 F2000
G1 X95.177211 Y5.853170 F2000
G1 X94.340906 Y5.427051 F2000
G1 X93.677211 Y4.763356 F2000
G1 X93.251092 Y3.927051 F2000
G1 X93.104262 Y3.000000 F2000
G1 X93.251092 Y2.072949 F2000
G1 X93.677211 Y1.236644 F2000
G1 X94.340906 Y0.572949 F2000
G1 X95.177211 Y0.146830 F2000
G1 X96.104262 Y0.000000 F2000
G1 X97.031313 Y0.146830 F2000
G1 X97.867617 Y0.572949 F2000
G1 X98.531313 Y1.236644 F2000
G1 X98.957431 Y2.072949 F2000
G1 X99.104262 Y3.000000 F2000

;character 'u'
M3 S40; 
G0 X103.354262 Y6.000000; 
; M5 S10
G1 X103.354262 Y2.000000 F2000
M3 S40; 
G0 X108.354262 Y6.000000; 
; M5 S10
G1 X108.354262 Y0.000000 F2000
G1 X110.354262 Y0.000000 F2000
M3 S40; 
G0 X108.354262 Y1.000000; 
; M5 S10
G1 X106.064345 Y0.130306 F2000
M3 S40; 
G0 X103.354262 Y2.000000; 
; M5 S10
G1 X103.457240 Y1.366512 F2000
G1 X103.755569 Y0.798259 F2000
G1 X104.218529 Y0.353759 F2000
G1 X104.798444 Y0.078785 F2000
G1 X105.435596 Y0.001655 F2000
G1 X106.064373 Y0.130310 F2000
M3 S40; 
G0 X101.854262 Y6.000000; 
; M5 S10
G1 X103.354262 Y6.000000 F2000
M3 S40; 
G0 X106.854262 Y6.000000; 
; M5 S10
G1 X108.354262 Y6.000000 F2000

;character 'd'
M3 S40; 
G0 X130.104262 Y0.000000; 
; M5 S10
G1 X128.104262 Y0.000000 F2000
G1 X128.104262 Y9.000000 F2000
M3 S40; 
G0 X128.104262 Y3.000000; 
; M5 S10
G1 X127.957431 Y3.927051 F2000
G1 X127.531313 Y4.763356 F2000
G1 X126.867617 Y5.427051 F2000
G1 X126.031313 Y5.853170 F2000
G1 X125.104262 Y6.000000 F2000
G1 X124.177211 Y5.853170 F2000
G1 X123.340906 Y5.427051 F2000
G1 X122.677211 Y4.763356 F2000
G1 X122.251092 Y3.927051 F2000
G1 X122.104262 Y3.000000 F2000
G1 X122.251092 Y2.072949 F2000
G1 X122.677211 Y1.236644 F2000
G1 X123.340906 Y0.572949 F2000
G1 X124.177211 Y0.146830 F2000
G1 X125.104262 Y0.000000 F2000
G1 X126.031313 Y0.146830 F2000
G1 X126.867617 Y0.572949 F2000
G1 X127.531313 Y1.236644 F2000
G1 X127.957431 Y2.072949 F2000
G1 X128.104262 Y3.000000 F2000
M3 S40; 
G0 X128.104262 Y9.000000; 
; M5 S10
G1 X126.104262 Y9.000000 F2000

;character 'o'
M3 S40; 
G0 X139.854262 Y3.000000; 
; M5 S10
G1 X139.707431 Y3.927051 F2000
G1 X139.281313 Y4.763356 F2000
G1 X138.617617 Y5.427051 F2000
G1 X137.781313 Y5.853170 F2000
G1 X136.854262 Y6.000000 F2000
G1 X135.927211 Y5.853170 F2000
G1 X135.090906 Y5.427051 F2000
G1 X134.427211 Y4.763356 F2000
G1 X134.001092 Y3.927051 F2000
G1 X133.854262 Y3.000000 F2000
G1 X134.001092 Y2.072949 F2000
G1 X134.427211 Y1.236644 F2000
G1 X135.090906 Y0.572949 F2000
G1 X135.927211 Y0.146830 F2000
G1 X136.854262 Y0.000000 F2000
G1 X137.781313 Y0.146830 F2000
G1 X138.617617 Y0.572949 F2000
G1 X139.281313 Y1.236644 F2000
G1 X139.707431 Y2.072949 F2000
G1 X139.854262 Y3.000000 F2000

;character 'i'
M3 S40; 
G0 X149.604262 Y0.000000; 
; M5 S10
G1 X143.604262 Y0.000000 F2000
M3 S40; 
G0 X146.604262 Y0.000000; 
; M5 S10
G1 X146.604262 Y6.000000 F2000
G1 X144.604262 Y6.000000 F2000
M3 S40; 
G0 X146.604262 Y8.000000; 
; M5 S10
G1 X146.604262 Y9.000000 F2000

;character 'n'
M3 S40; 
G0 X153.854262 Y6.000000; 
; M5 S10
G1 X153.854262 Y0.000000 F2000
M3 S40; 
G0 X152.354262 Y6.000000; 
; M5 S10
G1 X153.854262 Y6.000000 F2000
M3 S40; 
G0 X152.354262 Y0.000000; 
; M5 S10
G1 X155.354262 Y0.000000 F2000
M3 S40; 
G0 X160.354262 Y0.000000; 
; M5 S10
G1 X157.354262 Y0.000000 F2000
M3 S40; 
G0 X158.854262 Y3.500000; 
; M5 S10
G1 X158.854262 Y0.000000 F2000
M3 S40; 
G0 X153.854262 Y4.629692; 
; M5 S10
G1 X154.702162 Y5.376266 F2000
M3 S40; 
G0 X158.854262 Y3.500000; 
; M5 S10
G1 X158.721355 Y4.304282 F2000
G1 X158.336766 Y5.023049 F2000
G1 X157.741386 Y5.579876 F2000
G1 X156.998520 Y5.915560 F2000
G1 X156.187152 Y5.994409 F2000
G1 X155.393553 Y5.808038 F2000
G1 X154.702101 Y5.376264 F2000

;character 'g'
M3 S40; 
G0 X169.104262 Y3.000000; 
; M5 S10
G1 X168.957431 Y3.927051 F2000
G1 X168.531313 Y4.763356 F2000
G1 X167.867617 Y5.427051 F2000
G1 X167.031313 Y5.853170 F2000
G1 X166.104262 Y6.000000 F2000
G1 X165.177211 Y5.853170 F2000
G1 X164.340906 Y5.427051 F2000
G1 X163.677211 Y4.763356 F2000
G1 X163.251092 Y3.927051 F2000
G1 X163.104262 Y3.000000 F2000
G1 X163.251092 Y2.072949 F2000
G1 X163.677211 Y1.236644 F2000
G1 X164.340906 Y0.572949 F2000
G1 X165.177211 Y0.146830 F2000
G1 X166.104262 Y0.000000 F2000
G1 X167.031313 Y0.146830 F2000
G1 X167.867617 Y0.572949 F2000
G1 X168.531313 Y1.236644 F2000
G1 X168.957431 Y2.072949 F2000
G1 X169.104262 Y3.000000 F2000
M3 S40; 
G0 X171.104262 Y6.000000; 
; M5 S10
G1 X169.104262 Y6.000000 F2000
G1 X169.104262 Y-1.000000 F2000
M3 S40; 
G0 X167.104262 Y-3.000000; 
; M5 S10
G1 X167.722296 Y-2.902113 F2000
G1 X168.279832 Y-2.618034 F2000
G1 X168.722296 Y-2.175571 F2000
G1 X169.006375 Y-1.618034 F2000
G1 X169.104262 Y-1.000000 F2000
M3 S40; 
G0 X167.104262 Y-3.000000; 
; M5 S10
G1 X164.104262 Y-3.000000 F2000

;character 'i'
M3 S40; 
G0 X189.854262 Y0.000000; 
; M5 S10
G1 X183.854262 Y0.000000 F2000
M3 S40; 
G0 X186.854262 Y0.000000; 
; M5 S10
G1 X186.854262 Y6.000000 F2000
G1 X184.854262 Y6.000000 F2000
M3 S40; 
G0 X186.854262 Y8.000000; 
; M5 S10
G1 X186.854262 Y9.000000 F2000

;character 'a'
M3 S40; 
G0 X209.604262 Y0.000000; 
; M5 S10
G1 X207.604262 Y0.000000 F2000
M3 S40; 
G0 X203.403796 Y3.968957; 
; M5 S10
G1 X202.803793 Y3.766952 F2000
G1 X202.296988 Y3.387532 F2000
G1 X201.934167 Y2.868716 F2000
G1 X201.751682 Y2.262490 F2000
G1 X201.767821 Y1.629600 F2000
G1 X201.980967 Y1.033463 F2000
G1 X202.369760 Y0.533814 F2000
G1 X202.895244 Y0.180718 F2000
G1 X203.504763 Y0.009556 F2000
M3 S40; 
G0 X207.604262 Y3.743581; 
; M5 S10
G1 X205.516416 Y4.087349 F2000
G1 X203.403792 Y3.968614 F2000
M3 S40; 
G0 X203.504743 Y0.010456; 
; M5 S10
G1 X204.997922 Y0.064892 F2000
G1 X206.407072 Y0.561724 F2000
G1 X207.604205 Y1.455825 F2000
M3 S40; 
G0 X207.604262 Y4.588459; 
; M5 S10
G1 X207.506375 Y5.206493 F2000
G1 X207.222296 Y5.764030 F2000
G1 X206.779832 Y6.206493 F2000
G1 X206.222296 Y6.490572 F2000
G1 X205.604262 Y6.588459 F2000
G1 X204.525491 Y6.460456 F2000
G1 X203.506630 Y6.083555 F2000
G1 X202.604262 Y5.478687 F2000
M3 S40; 
G0 X207.604262 Y4.588459; 
; M5 S10
G1 X207.604262 Y0.000000 F2000

;character 'm'
M3 S40; 
G0 X214.854262 Y0.000000; 
; M5 S10
G1 X211.854262 Y0.000000 F2000
M3 S40; 
G0 X211.854262 Y6.000000; 
; M5 S10
G1 X213.354262 Y6.000000 F2000
G1 X213.354262 Y0.000000 F2000
M3 S40; 
G0 X216.354262 Y0.000000; 
; M5 S10
G1 X216.354262 Y5.000000 F2000
M3 S40; 
G0 X219.354262 Y5.000000; 
; M5 S10
G1 X219.354262 Y0.000000 F2000
M3 S40; 
G0 X217.854262 Y0.000000; 
; M5 S10
G1 X216.354262 Y0.000000 F2000
M3 S40; 
G0 X220.854262 Y0.000000; 
; M5 S10
G1 X219.354262 Y0.000000 F2000
M3 S40; 
G0 X216.354262 Y4.558050; 
; M5 S10
G1 X217.689223 Y5.746819 F2000
M3 S40; 
G0 X213.354262 Y4.558050; 
; M5 S10
G1 X214.689223 Y5.746819 F2000
M3 S40; 
G0 X216.354262 Y5.000000; 
; M5 S10
G1 X216.300841 Y5.322471 F2000
G1 X216.146286 Y5.610489 F2000
G1 X215.907110 Y5.833282 F2000
G1 X215.608867 Y5.967045 F2000
G1 X215.283422 Y5.997488 F2000
G1 X214.965545 Y5.921357 F2000
G1 X214.689199 Y5.746788 F2000
M3 S40; 
G0 X219.354262 Y5.000000; 
; M5 S10
G1 X219.300841 Y5.322471 F2000
G1 X219.146286 Y5.610489 F2000
G1 X218.907110 Y5.833282 F2000
G1 X218.608867 Y5.967045 F2000
G1 X218.283422 Y5.997488 F2000
G1 X217.965545 Y5.921357 F2000
G1 X217.689199 Y5.746788 F2000

;character 'v'
M3 S40; 
G0 X232.104262 Y6.000000; 
; M5 S10
G1 X235.104262 Y6.000000 F2000
M3 S40; 
G0 X238.104262 Y6.000000; 
; M5 S10
G1 X241.104262 Y6.000000 F2000
M3 S40; 
G0 X236.604262 Y0.000000; 
; M5 S10
G1 X233.604262 Y6.000000 F2000
M3 S40; 
G0 X236.604262 Y0.000000; 
; M5 S10
G1 X239.604262 Y6.000000 F2000

;character 'e'
M3 S40; 
G0 X244.854262 Y3.000000; 
; M5 S10
G1 X250.854262 Y3.000000 F2000
M3 S40; 
G0 X250.854262 Y1.000000; 
; M5 S10
G1 X249.008071 Y0.230770 F2000
M3 S40; 
G0 X250.854262 Y3.000000; 
; M5 S10
G1 X250.682047 Y4.001815 F2000
G1 X250.185173 Y4.888611 F2000
G1 X249.420688 Y5.558575 F2000
G1 X248.476361 Y5.934790 F2000
G1 X247.460611 Y5.974061 F2000
G1 X246.490056 Y5.671880 F2000
G1 X245.676125 Y5.062940 F2000
G1 X245.112267 Y4.217154 F2000
G1 X244.863217 Y3.231627 F2000
G1 X244.957569 Y2.219506 F2000
G1 X245.384490 Y1.296994 F2000
G1 X246.094967 Y0.570004 F2000
G1 X247.007427 Y0.122002 F2000
G1 X248.017113 Y0.004423 F2000
G1 X249.008102 Y0.230767 F2000

;character 'r'
M3 S40; 
G0 X255.604262 Y6.000000; 
; M5 S10
G1 X255.604262 Y0.000000 F2000
M3 S40; 
G0 X254.104262 Y6.000000; 
; M5 S10
G1 X255.604262 Y6.000000 F2000
M3 S40; 
G0 X255.604262 Y3.716239; 
; M5 S10
G1 X257.433486 Y5.359669 F2000
M3 S40; 
G0 X260.958523 Y5.176817; 
; M5 S10
G1 X260.351007 Y5.666939 F2000
G1 X259.621948 Y5.945813 F2000
G1 X258.842422 Y5.986250 F2000
G1 X258.088421 Y5.784309 F2000
G1 X257.433452 Y5.359676 F2000
M3 S40; 
G0 X254.104262 Y0.000000; 
; M5 S10
G1 X259.104262 Y0.000000 F2000

;character 'y'
M3 S40; 
G0 X263.208523 Y6.000000; 
; M5 S10
G1 X266.208523 Y6.000000 F2000
M3 S40; 
G0 X269.208523 Y6.000000; 
; M5 S10
G1 X272.208523 Y6.000000 F2000
M3 S40; 
G0 X263.208523 Y-3.000000; 
; M5 S10
G1 X268.208523 Y-3.000000 F2000
M3 S40; 
G0 X266.208523 Y-3.000000; 
; M5 S10
G1 X270.708523 Y6.000000 F2000
M3 S40; 
G0 X264.708523 Y6.000000; 
; M5 S10
G1 X267.708523 Y0.000000 F2000

; ===================================================================
; Engraving: " good glad to meet you have" 
; Line 1 
;character 'g'
M3 S40; 
G0 X15.500000 Y-8.247438; 
; M5 S10
G1 X15.353170 Y-7.320387 F2000
G1 X14.927051 Y-6.484083 F2000
G1 X14.263356 Y-5.820387 F2000
G1 X13.427051 Y-5.394269 F2000
G1 X12.500000 Y-5.247438 F2000
G1 X11.572949 Y-5.394269 F2000
G1 X10.736644 Y-5.820387 F2000
G1 X10.072949 Y-6.484083 F2000
G1 X9.646830 Y-7.320387 F2000
G1 X9.500000 Y-8.247438 F2000
G1 X9.646830 Y-9.174489 F2000
G1 X10.072949 Y-10.010794 F2000
G1 X10.736644 Y-10.674489 F2000
G1 X11.572949 Y-11.100608 F2000
G1 X12.500000 Y-11.247438 F2000
G1 X13.427051 Y-11.100608 F2000
G1 X14.263356 Y-10.674489 F2000
G1 X14.927051 Y-10.010794 F2000
G1 X15.353170 Y-9.174489 F2000
G1 X15.500000 Y-8.247438 F2000
M3 S40; 
G0 X17.500000 Y-5.247438; 
; M5 S10
G1 X15.500000 Y-5.247438 F2000
G1 X15.500000 Y-12.247438 F2000
M3 S40; 
G0 X13.500000 Y-14.247438; 
; M5 S10
G1 X14.118034 Y-14.149551 F2000
G1 X14.675571 Y-13.865472 F2000
G1 X15.118034 Y-13.423009 F2000
G1 X15.402113 Y-12.865472 F2000
G1 X15.500000 Y-12.247438 F2000
M3 S40; 
G0 X13.500000 Y-14.247438; 
; M5 S10
G1 X10.500000 Y-14.247438 F2000

;character 'o'
M3 S40; 
G0 X27.250000 Y-8.247438; 
; M5 S10
G1 X27.103170 Y-7.320387 F2000
G1 X26.677051 Y-6.484083 F2000
G1 X26.013356 Y-5.820387 F2000
G1 X25.177051 Y-5.394269 F2000
G1 X24.250000 Y-5.247438 F2000
G1 X23.322949 Y-5.394269 F2000
G1 X22.486644 Y-5.820387 F2000
G1 X21.822949 Y-6.484083 F2000
G1 X21.396830 Y-7.320387 F2000
G1 X21.250000 Y-8.247438 F2000
G1 X21.396830 Y-9.174489 F2000
G1 X21.822949 Y-10.010794 F2000
G1 X22.486644 Y-10.674489 F2000
G1 X23.322949 Y-11.100608 F2000
G1 X24.250000 Y-11.247438 F2000
G1 X25.177051 Y-11.100608 F2000
G1 X26.013356 Y-10.674489 F2000
G1 X26.677051 Y-10.010794 F2000
G1 X27.103170 Y-9.174489 F2000
G1 X27.250000 Y-8.247438 F2000

;character 'o'
M3 S40; 
G0 X37.000000 Y-8.247438; 
; M5 S10
G1 X36.853170 Y-7.320387 F2000
G1 X36.427051 Y-6.484083 F2000
G1 X35.763356 Y-5.820387 F2000
G1 X34.927051 Y-5.394269 F2000
G1 X34.000000 Y-5.247438 F2000
G1 X33.072949 Y-5.394269 F2000
G1 X32.236644 Y-5.820387 F2000
G1 X31.572949 Y-6.484083 F2000
G1 X31.146830 Y-7.320387 F2000
G1 X31.000000 Y-8.247438 F2000
G1 X31.146830 Y-9.174489 F2000
G1 X31.572949 Y-10.010794 F2000
G1 X32.236644 Y-10.674489 F2000
G1 X33.072949 Y-11.100608 F2000
G1 X34.000000 Y-11.247438 F2000
G1 X34.927051 Y-11.100608 F2000
G1 X35.763356 Y-10.674489 F2000
G1 X36.427051 Y-10.010794 F2000
G1 X36.853170 Y-9.174489 F2000
G1 X37.000000 Y-8.247438 F2000

;character 'd'
M3 S40; 
G0 X47.750000 Y-11.247438; 
; M5 S10
G1 X45.750000 Y-11.247438 F2000
G1 X45.750000 Y-2.247438 F2000
M3 S40; 
G0 X45.750000 Y-8.247438; 
; M5 S10
G1 X45.603170 Y-7.320387 F2000
G1 X45.177051 Y-6.484083 F2000
G1 X44.513356 Y-5.820387 F2000
G1 X43.677051 Y-5.394269 F2000
G1 X42.750000 Y-5.247438 F2000
G1 X41.822949 Y-5.394269 F2000
G1 X40.986644 Y-5.820387 F2000
G1 X40.322949 Y-6.484083 F2000
G1 X39.896830 Y-7.320387 F2000
G1 X39.750000 Y-8.247438 F2000
G1 X39.896830 Y-9.174489 F2000
G1 X40.322949 Y-10.010794 F2000
G1 X40.986644 Y-10.674489 F2000
G1 X41.822949 Y-11.100608 F2000
G1 X42.750000 Y-11.247438 F2000
G1 X43.677051 Y-11.100608 F2000
G1 X44.513356 Y-10.674489 F2000
G1 X45.177051 Y-10.010794 F2000
G1 X45.603170 Y-9.174489 F2000
G1 X45.750000 Y-8.247438 F2000
M3 S40; 
G0 X45.750000 Y-2.247438; 
; M5 S10
G1 X43.750000 Y-2.247438 F2000

;character 'g'
M3 S40; 
G0 X65.500000 Y-8.247438; 
; M5 S10
G1 X65.353170 Y-7.320387 F2000
G1 X64.927051 Y-6.484083 F2000
G1 X64.263356 Y-5.820387 F2000
G1 X63.427051 Y-5.394269 F2000
G1 X62.500000 Y-5.247438 F2000
G1 X61.572949 Y-5.394269 F2000
G1 X60.736644 Y-5.820387 F2000
G1 X60.072949 Y-6.484083 F2000
G1 X59.646830 Y-7.320387 F2000
G1 X59.500000 Y-8.247438 F2000
G1 X59.646830 Y-9.174489 F2000
G1 X60.072949 Y-10.010794 F2000
G1 X60.736644 Y-10.674489 F2000
G1 X61.572949 Y-11.100608 F2000
G1 X62.500000 Y-11.247438 F2000
G1 X63.427051 Y-11.100608 F2000
G1 X64.263356 Y-10.674489 F2000
G1 X64.927051 Y-10.010794 F2000
G1 X65.353170 Y-9.174489 F2000
G1 X65.500000 Y-8.247438 F2000
M3 S40; 
G0 X67.500000 Y-5.247438; 
; M5 S10
G1 X65.500000 Y-5.247438 F2000
G1 X65.500000 Y-12.247438 F2000
M3 S40; 
G0 X63.500000 Y-14.247438; 
; M5 S10
G1 X64.118034 Y-14.149551 F2000
G1 X64.675571 Y-13.865472 F2000
G1 X65.118034 Y-13.423009 F2000
G1 X65.402113 Y-12.865472 F2000
G1 X65.500000 Y-12.247438 F2000
M3 S40; 
G0 X63.500000 Y-14.247438; 
; M5 S10
G1 X60.500000 Y-14.247438 F2000

;character 'l'
M3 S40; 
G0 X71.250000 Y-11.247438; 
; M5 S10
G1 X77.250000 Y-11.247438 F2000
M3 S40; 
G0 X74.250000 Y-11.247438; 
; M5 S10
G1 X74.250000 Y-2.247438 F2000
G1 X72.250000 Y-2.247438 F2000

;character 'a'
M3 S40; 
G0 X88.000000 Y-11.247438; 
; M5 S10
G1 X86.000000 Y-11.247438 F2000
M3 S40; 
G0 X81.799534 Y-7.278482; 
; M5 S10
G1 X81.199531 Y-7.480487 F2000
G1 X80.692727 Y-7.859907 F2000
G1 X80.329905 Y-8.378723 F2000
G1 X80.147421 Y-8.984948 F2000
G1 X80.163560 Y-9.617838 F2000
G1 X80.376705 Y-10.213975 F2000
G1 X80.765498 Y-10.713624 F2000
G1 X81.290982 Y-11.066720 F2000
G1 X81.900501 Y-11.237882 F2000
M3 S40; 
G0 X86.000001 Y-7.503858; 
; M5 S10
G1 X83.912154 Y-7.160090 F2000
G1 X81.799530 Y-7.278825 F2000
M3 S40; 
G0 X81.900481 Y-11.236982; 
; M5 S10
G1 X83.393660 Y-11.182546 F2000
G1 X84.802810 Y-10.685715 F2000
G1 X85.999943 Y-9.791614 F2000
M3 S40; 
G0 X86.000000 Y-6.658979; 
; M5 S10
G1 X85.902113 Y-6.040945 F2000
G1 X85.618034 Y-5.483409 F2000
G1 X85.175571 Y-5.040945 F2000
G1 X84.618034 Y-4.756866 F2000
G1 X84.000000 Y-4.658979 F2000
G1 X82.921229 Y-4.786983 F2000
G1 X81.902368 Y-5.163884 F2000
G1 X81.000001 Y-5.768751 F2000
M3 S40; 
G0 X86.000000 Y-6.658979; 
; M5 S10
G1 X86.000000 Y-11.247438 F2000

;character 'd'
M3 S40; 
G0 X98.750000 Y-11.247438; 
; M5 S10
G1 X96.750000 Y-11.247438 F2000
G1 X96.750000 Y-2.247438 F2000
M3 S40; 
G0 X96.750000 Y-8.247438; 
; M5 S10
G1 X96.603170 Y-7.320387 F2000
G1 X96.177051 Y-6.484083 F2000
G1 X95.513356 Y-5.820387 F2000
G1 X94.677051 Y-5.394269 F2000
G1 X93.750000 Y-5.247438 F2000
G1 X92.822949 Y-5.394269 F2000
G1 X91.986644 Y-5.820387 F2000
G1 X91.322949 Y-6.484083 F2000
G1 X90.896830 Y-7.320387 F2000
G1 X90.750000 Y-8.247438 F2000
G1 X90.896830 Y-9.174489 F2000
G1 X91.322949 Y-10.010794 F2000
G1 X91.986644 Y-10.674489 F2000
G1 X92.822949 Y-11.100608 F2000
G1 X93.750000 Y-11.247438 F2000
G1 X94.677051 Y-11.100608 F2000
G1 X95.513356 Y-10.674489 F2000
G1 X96.177051 Y-10.010794 F2000
G1 X96.603170 Y-9.174489 F2000
G1 X96.750000 Y-8.247438 F2000
M3 S40; 
G0 X96.750000 Y-2.247438; 
; M5 S10
G1 X94.750000 Y-2.247438 F2000

;character 't'
M3 S40; 
G0 X111.500000 Y-5.247438; 
; M5 S10
G1 X116.500000 Y-5.247438 F2000
M3 S40; 
G0 X112.500000 Y-3.247438; 
; M5 S10
G1 X112.500000 Y-9.247438 F2000
G1 X112.602978 Y-9.880927 F2000
G1 X112.901308 Y-10.449180 F2000
G1 X113.364267 Y-10.893680 F2000
G1 X113.944182 Y-11.168653 F2000
G1 X114.581334 Y-11.245784 F2000
G1 X115.210111 Y-11.117129 F2000
M3 S40; 
G0 X117.500000 Y-10.247438; 
; M5 S10
G1 X115.210083 Y-11.117134 F2000

;character 'o'
M3 S40; 
G0 X127.250000 Y-8.247438; 
; M5 S10
G1 X127.103170 Y-7.320387 F2000
G1 X126.677051 Y-6.484083 F2000
G1 X126.013356 Y-5.820387 F2000
G1 X125.177051 Y-5.394269 F2000
G1 X124.250000 Y-5.247438 F2000
G1 X123.322949 Y-5.394269 F2000
G1 X122.486644 Y-5.820387 F2000
G1 X121.822949 Y-6.484083 F2000
G1 X121.396830 Y-7.320387 F2000
G1 X121.250000 Y-8.247438 F2000
G1 X121.396830 Y-9.174489 F2000
G1 X121.822949 Y-10.010794 F2000
G1 X122.486644 Y-10.674489 F2000
G1 X123.322949 Y-11.100608 F2000
G1 X124.250000 Y-11.247438 F2000
G1 X125.177051 Y-11.100608 F2000
G1 X126.013356 Y-10.674489 F2000
G1 X126.677051 Y-10.010794 F2000
G1 X127.103170 Y-9.174489 F2000
G1 X127.250000 Y-8.247438 F2000

;character 'm'
M3 S40; 
G0 X141.500000 Y-11.247438; 
; M5 S10
G1 X138.500000 Y-11.247438 F2000
M3 S40; 
G0 X138.500000 Y-5.247438; 
; M5 S10
G1 X140.000000 Y-5.247438 F2000
G1 X140.000000 Y-11.247438 F2000
M3 S40; 
G0 X143.000000 Y-11.247438; 
; M5 S10
G1 X143.000000 Y-6.247438 F2000
M3 S40; 
G0 X146.000000 Y-6.247438; 
; M5 S10
G1 X146.000000 Y-11.247438 F2000
M3 S40; 
G0 X144.500000 Y-11.247438; 
; M5 S10
G1 X143.000000 Y-11.247438 F2000
M3 S40; 
G0 X147.500000 Y-11.247438; 
; M5 S10
G1 X146.000000 Y-11.247438 F2000
M3 S40; 
G0 X143.000000 Y-6.689388; 
; M5 S10
G1 X144.334961 Y-5.500619 F2000
M3 S40; 
G0 X140.000000 Y-6.689388; 
; M5 S10
G1 X141.334961 Y-5.500619 F2000
M3 S40; 
G0 X143.000000 Y-6.247438; 
; M5 S10
G1 X142.946579 Y-5.924967 F2000
G1 X142.792025 Y-5.636949 F2000
G1 X142.552849 Y-5.414157 F2000
G1 X142.254606 Y-5.280393 F2000
G1 X141.929160 Y-5.249951 F2000
G1 X141.611284 Y-5.326081 F2000
G1 X141.334938 Y-5.500650 F2000
M3 S40; 
G0 X146.000000 Y-6.247438; 
; M5 S10
G1 X145.946579 Y-5.924967 F2000
G1 X145.792025 Y-5.636949 F2000
G1 X145.552849 Y-5.414157 F2000
G1 X145.254606 Y-5.280393 F2000
G1 X144.929160 Y-5.249951 F2000
G1 X144.611284 Y-5.326081 F2000
G1 X144.334938 Y-5.500650 F2000

;character 'e'
M3 S40; 
G0 X151.250000 Y-8.247438; 
; M5 S10
G1 X157.250000 Y-8.247438 F2000
M3 S40; 
G0 X157.250000 Y-10.247438; 
; M5 S10
G1 X155.403809 Y-11.016668 F2000
M3 S40; 
G0 X157.250000 Y-8.247438; 
; M5 S10
G1 X157.077785 Y-7.245624 F2000
G1 X156.580912 Y-6.358828 F2000
G1 X155.816426 Y-5.688863 F2000
G1 X154.872099 Y-5.312648 F2000
G1 X153.856349 Y-5.273377 F2000
G1 X152.885794 Y-5.575558 F2000
G1 X152.071864 Y-6.184498 F2000
G1 X151.508005 Y-7.030284 F2000
G1 X151.258955 Y-8.015812 F2000
G1 X151.353307 Y-9.027932 F2000
G1 X151.780229 Y-9.950445 F2000
G1 X152.490705 Y-10.677434 F2000
G1 X153.403166 Y-11.125436 F2000
G1 X154.412852 Y-11.243015 F2000
G1 X155.403841 Y-11.016671 F2000

;character 'e'
M3 S40; 
G0 X161.000000 Y-8.247438; 
; M5 S10
G1 X167.000000 Y-8.247438 F2000
M3 S40; 
G0 X167.000000 Y-10.247438; 
; M5 S10
G1 X165.153809 Y-11.016668 F2000
M3 S40; 
G0 X167.000000 Y-8.247438; 
; M5 S10
G1 X166.827785 Y-7.245624 F2000
G1 X166.330912 Y-6.358828 F2000
G1 X165.566426 Y-5.688863 F2000
G1 X164.622099 Y-5.312648 F2000
G1 X163.606349 Y-5.273377 F2000
G1 X162.635794 Y-5.575558 F2000
G1 X161.821864 Y-6.184498 F2000
G1 X161.258005 Y-7.030284 F2000
G1 X161.008955 Y-8.015812 F2000
G1 X161.103307 Y-9.027932 F2000
G1 X161.530229 Y-9.950445 F2000
G1 X162.240705 Y-10.677434 F2000
G1 X163.153166 Y-11.125436 F2000
G1 X164.162852 Y-11.243015 F2000
G1 X165.153841 Y-11.016671 F2000

;character 't'
M3 S40; 
G0 X170.750000 Y-5.247438; 
; M5 S10
G1 X175.750000 Y-5.247438 F2000
M3 S40; 
G0 X171.750000 Y-3.247438; 
; M5 S10
G1 X171.750000 Y-9.247438 F2000
G1 X171.852978 Y-9.880927 F2000
G1 X172.151308 Y-10.449180 F2000
G1 X172.614267 Y-10.893680 F2000
G1 X173.194182 Y-11.168653 F2000
G1 X173.831334 Y-11.245784 F2000
G1 X174.460111 Y-11.117129 F2000
M3 S40; 
G0 X176.750000 Y-10.247438; 
; M5 S10
G1 X174.460083 Y-11.117134 F2000

;character 'y'
M3 S40; 
G0 X188.000000 Y-5.247438; 
; M5 S10
G1 X191.000000 Y-5.247438 F2000
M3 S40; 
G0 X194.000000 Y-5.247438; 
; M5 S10
G1 X197.000000 Y-5.247438 F2000
M3 S40; 
G0 X188.000000 Y-14.247438; 
; M5 S10
G1 X193.000000 Y-14.247438 F2000
M3 S40; 
G0 X191.000000 Y-14.247438; 
; M5 S10
G1 X195.500000 Y-5.247438 F2000
M3 S40; 
G0 X189.500000 Y-5.247438; 
; M5 S10
G1 X192.500000 Y-11.247438 F2000

;character 'o'
M3 S40; 
G0 X206.750000 Y-8.247438; 
; M5 S10
G1 X206.603170 Y-7.320387 F2000
G1 X206.177051 Y-6.484083 F2000
G1 X205.513356 Y-5.820387 F2000
G1 X204.677051 Y-5.394269 F2000
G1 X203.750000 Y-5.247438 F2000
G1 X202.822949 Y-5.394269 F2000
G1 X201.986644 Y-5.820387 F2000
G1 X201.322949 Y-6.484083 F2000
G1 X200.896830 Y-7.320387 F2000
G1 X200.750000 Y-8.247438 F2000
G1 X200.896830 Y-9.174489 F2000
G1 X201.322949 Y-10.010794 F2000
G1 X201.986644 Y-10.674489 F2000
G1 X202.822949 Y-11.100608 F2000
G1 X203.750000 Y-11.247438 F2000
G1 X204.677051 Y-11.100608 F2000
G1 X205.513356 Y-10.674489 F2000
G1 X206.177051 Y-10.010794 F2000
G1 X206.603170 Y-9.174489 F2000
G1 X206.750000 Y-8.247438 F2000

;character 'u'
M3 S40; 
G0 X211.000000 Y-5.247438; 
; M5 S10
G1 X211.000000 Y-9.247438 F2000
M3 S40; 
G0 X216.000000 Y-5.247438; 
; M5 S10
G1 X216.000000 Y-11.247438 F2000
G1 X218.000000 Y-11.247438 F2000
M3 S40; 
G0 X216.000000 Y-10.247438; 
; M5 S10
G1 X213.710083 Y-11.117132 F2000
M3 S40; 
G0 X211.000000 Y-9.247438; 
; M5 S10
G1 X211.102978 Y-9.880927 F2000
G1 X211.401308 Y-10.449180 F2000
G1 X211.864267 Y-10.893680 F2000
G1 X212.444182 Y-11.168653 F2000
G1 X213.081334 Y-11.245784 F2000
G1 X213.710111 Y-11.117129 F2000
M3 S40; 
G0 X209.500000 Y-5.247438; 
; M5 S10
G1 X211.000000 Y-5.247438 F2000
M3 S40; 
G0 X214.500000 Y-5.247438; 
; M5 S10
G1 X216.000000 Y-5.247438 F2000

;character 'h'
M3 S40; 
G0 X229.750000 Y-11.247438; 
; M5 S10
G1 X232.750000 Y-11.247438 F2000
M3 S40; 
G0 X229.750000 Y-2.247438; 
; M5 S10
G1 X231.750000 Y-2.247438 F2000
M3 S40; 
G0 X237.750000 Y-11.247438; 
; M5 S10
G1 X234.750000 Y-11.247438 F2000
M3 S40; 
G0 X231.250000 Y-2.247438; 
; M5 S10
G1 X231.250000 Y-11.247438 F2000
M3 S40; 
G0 X236.250000 Y-7.247438; 
; M5 S10
G1 X236.159589 Y-6.652905 F2000
G1 X235.896530 Y-6.112124 F2000
G1 X235.484606 Y-5.673988 F2000
G1 X234.961061 Y-5.378109 F2000
G1 X234.373227 Y-5.251238 F2000
G1 X233.774253 Y-5.304846 F2000
G1 X233.218291 Y-5.534086 F2000
M3 S40; 
G0 X236.250000 Y-7.247438; 
; M5 S10
G1 X236.250000 Y-11.247438 F2000
M3 S40; 
G0 X231.250000 Y-6.719313; 
; M5 S10
G1 X233.218262 Y-5.534091 F2000

;character 'a'
M3 S40; 
G0 X248.500000 Y-11.247438; 
; M5 S10
G1 X246.500000 Y-11.247438 F2000
M3 S40; 
G0 X242.299534 Y-7.278482; 
; M5 S10
G1 X241.699531 Y-7.480487 F2000
G1 X241.192727 Y-7.859907 F2000
G1 X240.829905 Y-8.378723 F2000
G1 X240.647421 Y-8.984948 F2000
G1 X240.663560 Y-9.617838 F2000
G1 X240.876705 Y-10.213975 F2000
G1 X241.265498 Y-10.713624 F2000
G1 X241.790982 Y-11.066720 F2000
G1 X242.400501 Y-11.237882 F2000
M3 S40; 
G0 X246.500001 Y-7.503858; 
; M5 S10
G1 X244.412154 Y-7.160090 F2000
G1 X242.299530 Y-7.278825 F2000
M3 S40; 
G0 X242.400481 Y-11.236982; 
; M5 S10
G1 X243.893660 Y-11.182546 F2000
G1 X245.302810 Y-10.685715 F2000
G1 X246.499943 Y-9.791614 F2000
M3 S40; 
G0 X246.500000 Y-6.658979; 
; M5 S10
G1 X246.402113 Y-6.040945 F2000
G1 X246.118034 Y-5.483409 F2000
G1 X245.675571 Y-5.040945 F2000
G1 X245.118034 Y-4.756866 F2000
G1 X244.500000 Y-4.658979 F2000
G1 X243.421229 Y-4.786983 F2000
G1 X242.402368 Y-5.163884 F2000
G1 X241.500001 Y-5.768751 F2000
M3 S40; 
G0 X246.500000 Y-6.658979; 
; M5 S10
G1 X246.500000 Y-11.247438 F2000

;character 'v'
M3 S40; 
G0 X250.750000 Y-5.247438; 
; M5 S10
G1 X253.750000 Y-5.247438 F2000
M3 S40; 
G0 X256.750000 Y-5.247438; 
; M5 S10
G1 X259.750000 Y-5.247438 F2000
M3 S40; 
G0 X255.250000 Y-11.247438; 
; M5 S10
G1 X252.250000 Y-5.247438 F2000
M3 S40; 
G0 X255.250000 Y-11.247438; 
; M5 S10
G1 X258.250000 Y-5.247438 F2000

;character 'e'
M3 S40; 
G0 X263.500000 Y-8.247438; 
; M5 S10
G1 X269.500000 Y-8.247438 F2000
M3 S40; 
G0 X269.500000 Y-10.247438; 
; M5 S10
G1 X267.653809 Y-11.016668 F2000
M3 S40; 
G0 X269.500000 Y-8.247438; 
; M5 S10
G1 X269.327785 Y-7.245624 F2000
G1 X268.830912 Y-6.358828 F2000
G1 X268.066426 Y-5.688863 F2000
G1 X267.122099 Y-5.312648 F2000
G1 X266.106349 Y-5.273377 F2000
G1 X265.135794 Y-5.575558 F2000
G1 X264.321864 Y-6.184498 F2000
G1 X263.758005 Y-7.030284 F2000
G1 X263.508955 Y-8.015812 F2000
G1 X263.603307 Y-9.027932 F2000
G1 X264.030229 Y-9.950445 F2000
G1 X264.740705 Y-10.677434 F2000
G1 X265.653166 Y-11.125436 F2000
G1 X266.662852 Y-11.243015 F2000
G1 X267.653841 Y-11.016671 F2000

; ===================================================================
; Engraving: " would you i am very fine" 
; Line 2 
;character 'w'
M3 S40; 
G0 X9.000000 Y-16.494877; 
; M5 S10
G1 X12.000000 Y-16.494877 F2000
M3 S40; 
G0 X15.000000 Y-16.494877; 
; M5 S10
G1 X18.000000 Y-16.494877 F2000
M3 S40; 
G0 X10.000000 Y-16.494877; 
; M5 S10
G1 X12.000000 Y-22.494877 F2000
M3 S40; 
G0 X13.500000 Y-17.494877; 
; M5 S10
G1 X12.000000 Y-22.494877 F2000
M3 S40; 
G0 X13.500000 Y-17.494877; 
; M5 S10
G1 X15.000000 Y-22.494877 F2000
G1 X17.000000 Y-16.494877 F2000

;character 'o'
M3 S40; 
G0 X27.750000 Y-19.494877; 
; M5 S10
G1 X27.603170 Y-18.567826 F2000
G1 X27.177051 Y-17.731521 F2000
G1 X26.513356 Y-17.067826 F2000
G1 X25.677051 Y-16.641707 F2000
G1 X24.750000 Y-16.494877 F2000
G1 X23.822949 Y-16.641707 F2000
G1 X22.986644 Y-17.067826 F2000
G1 X22.322949 Y-17.731521 F2000
G1 X21.896830 Y-18.567826 F2000
G1 X21.750000 Y-19.494877 F2000
G1 X21.896830 Y-20.421928 F2000
G1 X22.322949 Y-21.258232 F2000
G1 X22.986644 Y-21.921928 F2000
G1 X23.822949 Y-22.348046 F2000
G1 X24.750000 Y-22.494877 F2000
G1 X25.677051 Y-22.348046 F2000
G1 X26.513356 Y-21.921928 F2000
G1 X27.177051 Y-21.258232 F2000
G1 X27.603170 Y-20.421928 F2000
G1 X27.750000 Y-19.494877 F2000

;character 'u'
M3 S40; 
G0 X32.000000 Y-16.494877; 
; M5 S10
G1 X32.000000 Y-20.494877 F2000
M3 S40; 
G0 X37.000000 Y-16.494877; 
; M5 S10
G1 X37.000000 Y-22.494877 F2000
G1 X39.000000 Y-22.494877 F2000
M3 S40; 
G0 X37.000000 Y-21.494877; 
; M5 S10
G1 X34.710083 Y-22.364571 F2000
M3 S40; 
G0 X32.000000 Y-20.494877; 
; M5 S10
G1 X32.102978 Y-21.128365 F2000
G1 X32.401308 Y-21.696618 F2000
G1 X32.864267 Y-22.141118 F2000
G1 X33.444182 Y-22.416092 F2000
G1 X34.081334 Y-22.493222 F2000
G1 X34.710111 Y-22.364567 F2000
M3 S40; 
G0 X30.500000 Y-16.494877; 
; M5 S10
G1 X32.000000 Y-16.494877 F2000
M3 S40; 
G0 X35.500000 Y-16.494877; 
; M5 S10
G1 X37.000000 Y-16.494877 F2000

;character 'l'
M3 S40; 
G0 X42.750000 Y-22.494877; 
; M5 S10
G1 X48.750000 Y-22.494877 F2000
M3 S40; 
G0 X45.750000 Y-22.494877; 
; M5 S10
G1 X45.750000 Y-13.494877 F2000
G1 X43.750000 Y-13.494877 F2000

;character 'd'
M3 S40; 
G0 X59.500000 Y-22.494877; 
; M5 S10
G1 X57.500000 Y-22.494877 F2000
G1 X57.500000 Y-13.494877 F2000
M3 S40; 
G0 X57.500000 Y-19.494877; 
; M5 S10
G1 X57.353170 Y-18.567826 F2000
G1 X56.927051 Y-17.731521 F2000
G1 X56.263356 Y-17.067826 F2000
G1 X55.427051 Y-16.641707 F2000
G1 X54.500000 Y-16.494877 F2000
G1 X53.572949 Y-16.641707 F2000
G1 X52.736644 Y-17.067826 F2000
G1 X52.072949 Y-17.731521 F2000
G1 X51.646830 Y-18.567826 F2000
G1 X51.500000 Y-19.494877 F2000
G1 X51.646830 Y-20.421928 F2000
G1 X52.072949 Y-21.258232 F2000
G1 X52.736644 Y-21.921928 F2000
G1 X53.572949 Y-22.348046 F2000
G1 X54.500000 Y-22.494877 F2000
G1 X55.427051 Y-22.348046 F2000
G1 X56.263356 Y-21.921928 F2000
G1 X56.927051 Y-21.258232 F2000
G1 X57.353170 Y-20.421928 F2000
G1 X57.500000 Y-19.494877 F2000
M3 S40; 
G0 X57.500000 Y-13.494877; 
; M5 S10
G1 X55.500000 Y-13.494877 F2000

;character 'y'
M3 S40; 
G0 X70.750000 Y-16.494877; 
; M5 S10
G1 X73.750000 Y-16.494877 F2000
M3 S40; 
G0 X76.750000 Y-16.494877; 
; M5 S10
G1 X79.750000 Y-16.494877 F2000
M3 S40; 
G0 X70.750000 Y-25.494877; 
; M5 S10
G1 X75.750000 Y-25.494877 F2000
M3 S40; 
G0 X73.750000 Y-25.494877; 
; M5 S10
G1 X78.250000 Y-16.494877 F2000
M3 S40; 
G0 X72.250000 Y-16.494877; 
; M5 S10
G1 X75.250000 Y-22.494877 F2000

;character 'o'
M3 S40; 
G0 X89.500000 Y-19.494877; 
; M5 S10
G1 X89.353170 Y-18.567826 F2000
G1 X88.927051 Y-17.731521 F2000
G1 X88.263356 Y-17.067826 F2000
G1 X87.427051 Y-16.641707 F2000
G1 X86.500000 Y-16.494877 F2000
G1 X85.572949 Y-16.641707 F2000
G1 X84.736644 Y-17.067826 F2000
G1 X84.072949 Y-17.731521 F2000
G1 X83.646830 Y-18.567826 F2000
G1 X83.500000 Y-19.494877 F2000
G1 X83.646830 Y-20.421928 F2000
G1 X84.072949 Y-21.258232 F2000
G1 X84.736644 Y-21.921928 F2000
G1 X85.572949 Y-22.348046 F2000
G1 X86.500000 Y-22.494877 F2000
G1 X87.427051 Y-22.348046 F2000
G1 X88.263356 Y-21.921928 F2000
G1 X88.927051 Y-21.258232 F2000
G1 X89.353170 Y-20.421928 F2000
G1 X89.500000 Y-19.494877 F2000

;character 'u'
M3 S40; 
G0 X93.750000 Y-16.494877; 
; M5 S10
G1 X93.750000 Y-20.494877 F2000
M3 S40; 
G0 X98.750000 Y-16.494877; 
; M5 S10
G1 X98.750000 Y-22.494877 F2000
G1 X100.750000 Y-22.494877 F2000
M3 S40; 
G0 X98.750000 Y-21.494877; 
; M5 S10
G1 X96.460083 Y-22.364571 F2000
M3 S40; 
G0 X93.750000 Y-20.494877; 
; M5 S10
G1 X93.852978 Y-21.128365 F2000
G1 X94.151308 Y-21.696618 F2000
G1 X94.614267 Y-22.141118 F2000
G1 X95.194182 Y-22.416092 F2000
G1 X95.831334 Y-22.493222 F2000
G1 X96.460111 Y-22.364567 F2000
M3 S40; 
G0 X92.250000 Y-16.494877; 
; M5 S10
G1 X93.750000 Y-16.494877 F2000
M3 S40; 
G0 X97.250000 Y-16.494877; 
; M5 S10
G1 X98.750000 Y-16.494877 F2000

;character 'i'
M3 S40; 
G0 X119.500000 Y-22.494877; 
; M5 S10
G1 X113.500000 Y-22.494877 F2000
M3 S40; 
G0 X116.500000 Y-22.494877; 
; M5 S10
G1 X116.500000 Y-16.494877 F2000
G1 X114.500000 Y-16.494877 F2000
M3 S40; 
G0 X116.500000 Y-14.494877; 
; M5 S10
G1 X116.500000 Y-13.494877 F2000

;character 'a'
M3 S40; 
G0 X139.250000 Y-22.494877; 
; M5 S10
G1 X137.250000 Y-22.494877 F2000
M3 S40; 
G0 X133.049534 Y-18.525920; 
; M5 S10
G1 X132.449531 Y-18.727925 F2000
G1 X131.942727 Y-19.107345 F2000
G1 X131.579905 Y-19.626161 F2000
G1 X131.397421 Y-20.232387 F2000
G1 X131.413560 Y-20.865277 F2000
G1 X131.626705 Y-21.461413 F2000
G1 X132.015498 Y-21.961063 F2000
G1 X132.540982 Y-22.314159 F2000
G1 X133.150501 Y-22.485320 F2000
M3 S40; 
G0 X137.250001 Y-18.751296; 
; M5 S10
G1 X135.162154 Y-18.407528 F2000
G1 X133.049530 Y-18.526263 F2000
M3 S40; 
G0 X133.150481 Y-22.484421; 
; M5 S10
G1 X134.643660 Y-22.429984 F2000
G1 X136.052810 Y-21.933153 F2000
G1 X137.249943 Y-21.039052 F2000
M3 S40; 
G0 X137.250000 Y-17.906418; 
; M5 S10
G1 X137.152113 Y-17.288384 F2000
G1 X136.868034 Y-16.730847 F2000
G1 X136.425571 Y-16.288384 F2000
G1 X135.868034 Y-16.004305 F2000
G1 X135.250000 Y-15.906418 F2000
G1 X134.171229 Y-16.034421 F2000
G1 X133.152368 Y-16.411322 F2000
G1 X132.250001 Y-17.016190 F2000
M3 S40; 
G0 X137.250000 Y-17.906418; 
; M5 S10
G1 X137.250000 Y-22.494877 F2000

;character 'm'
M3 S40; 
G0 X144.500000 Y-22.494877; 
; M5 S10
G1 X141.500000 Y-22.494877 F2000
M3 S40; 
G0 X141.500000 Y-16.494877; 
; M5 S10
G1 X143.000000 Y-16.494877 F2000
G1 X143.000000 Y-22.494877 F2000
M3 S40; 
G0 X146.000000 Y-22.494877; 
; M5 S10
G1 X146.000000 Y-17.494877 F2000
M3 S40; 
G0 X149.000000 Y-17.494877; 
; M5 S10
G1 X149.000000 Y-22.494877 F2000
M3 S40; 
G0 X147.500000 Y-22.494877; 
; M5 S10
G1 X146.000000 Y-22.494877 F2000
M3 S40; 
G0 X150.500000 Y-22.494877; 
; M5 S10
G1 X149.000000 Y-22.494877 F2000
M3 S40; 
G0 X146.000000 Y-17.936827; 
; M5 S10
G1 X147.334961 Y-16.748058 F2000
M3 S40; 
G0 X143.000000 Y-17.936827; 
; M5 S10
G1 X144.334961 Y-16.748058 F2000
M3 S40; 
G0 X146.000000 Y-17.494877; 
; M5 S10
G1 X145.946579 Y-17.172405 F2000
G1 X145.792025 Y-16.884388 F2000
G1 X145.552849 Y-16.661595 F2000
G1 X145.254606 Y-16.527832 F2000
G1 X144.929160 Y-16.497389 F2000
G1 X144.611284 Y-16.573519 F2000
G1 X144.334938 Y-16.748089 F2000
M3 S40; 
G0 X149.000000 Y-17.494877; 
; M5 S10
G1 X148.946579 Y-17.172405 F2000
G1 X148.792025 Y-16.884388 F2000
G1 X148.552849 Y-16.661595 F2000
G1 X148.254606 Y-16.527832 F2000
G1 X147.929160 Y-16.497389 F2000
G1 X147.611284 Y-16.573519 F2000
G1 X147.334938 Y-16.748089 F2000

;character 'v'
M3 S40; 
G0 X161.750000 Y-16.494877; 
; M5 S10
G1 X164.750000 Y-16.494877 F2000
M3 S40; 
G0 X167.750000 Y-16.494877; 
; M5 S10
G1 X170.750000 Y-16.494877 F2000
M3 S40; 
G0 X166.250000 Y-22.494877; 
; M5 S10
G1 X163.250000 Y-16.494877 F2000
M3 S40; 
G0 X166.250000 Y-22.494877; 
; M5 S10
G1 X169.250000 Y-16.494877 F2000

;character 'e'
M3 S40; 
G0 X174.500000 Y-19.494877; 
; M5 S10
G1 X180.500000 Y-19.494877 F2000
M3 S40; 
G0 X180.500000 Y-21.494877; 
; M5 S10
G1 X178.653809 Y-22.264107 F2000
M3 S40; 
G0 X180.500000 Y-19.494877; 
; M5 S10
G1 X180.327785 Y-18.493062 F2000
G1 X179.830912 Y-17.606266 F2000
G1 X179.066426 Y-16.936301 F2000
G1 X178.122099 Y-16.560087 F2000
G1 X177.106349 Y-16.520816 F2000
G1 X176.135794 Y-16.822997 F2000
G1 X175.321864 Y-17.431936 F2000
G1 X174.758005 Y-18.277723 F2000
G1 X174.508955 Y-19.263250 F2000
G1 X174.603307 Y-20.275371 F2000
G1 X175.030229 Y-21.197883 F2000
G1 X175.740705 Y-21.924873 F2000
G1 X176.653166 Y-22.372875 F2000
G1 X177.662852 Y-22.490453 F2000
G1 X178.653841 Y-22.264110 F2000

;character 'r'
M3 S40; 
G0 X185.250000 Y-16.494877; 
; M5 S10
G1 X185.250000 Y-22.494877 F2000
M3 S40; 
G0 X183.750000 Y-16.494877; 
; M5 S10
G1 X185.250000 Y-16.494877 F2000
M3 S40; 
G0 X185.250000 Y-18.778638; 
; M5 S10
G1 X187.079224 Y-17.135208 F2000
M3 S40; 
G0 X190.604262 Y-17.318060; 
; M5 S10
G1 X189.996745 Y-16.827937 F2000
G1 X189.267686 Y-16.549064 F2000
G1 X188.488160 Y-16.508627 F2000
G1 X187.734159 Y-16.710568 F2000
G1 X187.079191 Y-17.135200 F2000
M3 S40; 
G0 X183.750000 Y-22.494877; 
; M5 S10
G1 X188.750000 Y-22.494877 F2000

;character 'y'
M3 S40; 
G0 X192.854262 Y-16.494877; 
; M5 S10
G1 X195.854262 Y-16.494877 F2000
M3 S40; 
G0 X198.854262 Y-16.494877; 
; M5 S10
G1 X201.854262 Y-16.494877 F2000
M3 S40; 
G0 X192.854262 Y-25.494877; 
; M5 S10
G1 X197.854262 Y-25.494877 F2000
M3 S40; 
G0 X195.854262 Y-25.494877; 
; M5 S10
G1 X200.354262 Y-16.494877 F2000
M3 S40; 
G0 X194.354262 Y-16.494877; 
; M5 S10
G1 X197.354262 Y-22.494877 F2000

;character 'f'
M3 S40; 
G0 X213.604262 Y-22.494877; 
; M5 S10
G1 X217.604262 Y-22.494877 F2000
M3 S40; 
G0 X215.604262 Y-22.494877; 
; M5 S10
G1 X215.604262 Y-15.494877 F2000
M3 S40; 
G0 X213.604262 Y-16.494877; 
; M5 S10
G1 X218.604262 Y-16.494877 F2000
M3 S40; 
G0 X220.604262 Y-14.494877; 
; M5 S10
G1 X218.314345 Y-13.625183 F2000
G1 X217.685596 Y-13.496531 F2000
G1 X217.048444 Y-13.573662 F2000
G1 X216.468529 Y-13.848635 F2000
G1 X216.005569 Y-14.293135 F2000
G1 X215.707240 Y-14.861388 F2000
G1 X215.604262 Y-15.494877 F2000

;character 'i'
M3 S40; 
G0 X230.354262 Y-22.494877; 
; M5 S10
G1 X224.354262 Y-22.494877 F2000
M3 S40; 
G0 X227.354262 Y-22.494877; 
; M5 S10
G1 X227.354262 Y-16.494877 F2000
G1 X225.354262 Y-16.494877 F2000
M3 S40; 
G0 X227.354262 Y-14.494877; 
; M5 S10
G1 X227.354262 Y-13.494877 F2000

;character 'n'
M3 S40; 
G0 X234.604262 Y-16.494877; 
; M5 S10
G1 X234.604262 Y-22.494877 F2000
M3 S40; 
G0 X233.104262 Y-16.494877; 
; M5 S10
G1 X234.604262 Y-16.494877 F2000
M3 S40; 
G0 X233.104262 Y-22.494877; 
; M5 S10
G1 X236.104262 Y-22.494877 F2000
M3 S40; 
G0 X241.104262 Y-22.494877; 
; M5 S10
G1 X238.104262 Y-22.494877 F2000
M3 S40; 
G0 X239.604262 Y-18.994877; 
; M5 S10
G1 X239.604262 Y-22.494877 F2000
M3 S40; 
G0 X234.604262 Y-17.865185; 
; M5 S10
G1 X235.452162 Y-17.118611 F2000
M3 S40; 
G0 X239.604262 Y-18.994877; 
; M5 S10
G1 X239.471355 Y-18.190595 F2000
G1 X239.086766 Y-17.471828 F2000
G1 X238.491386 Y-16.915000 F2000
G1 X237.748520 Y-16.579316 F2000
G1 X236.937152 Y-16.500468 F2000
G1 X236.143553 Y-16.686839 F2000
G1 X235.452101 Y-17.118613 F2000

;character 'e'
M3 S40; 
G0 X244.854262 Y-19.494877; 
; M5 S10
G1 X250.854262 Y-19.494877 F2000
M3 S40; 
G0 X250.854262 Y-21.494877; 
; M5 S10
G1 X249.008071 Y-22.264107 F2000
M3 S40; 
G0 X250.854262 Y-19.494877; 
; M5 S10
G1 X250.682047 Y-18.493062 F2000
G1 X250.185173 Y-17.606266 F2000
G1 X249.420688 Y-16.936301 F2000
G1 X248.476361 Y-16.560087 F2000
G1 X247.460611 Y-16.520816 F2000
G1 X246.490056 Y-16.822997 F2000
G1 X245.676125 Y-17.431936 F2000
G1 X245.112267 Y-18.277723 F2000
G1 X244.863217 Y-19.263250 F2000
G1 X244.957569 Y-20.275371 F2000
G1 X245.384490 Y-21.197883 F2000
G1 X246.094967 Y-21.924873 F2000
G1 X247.007427 Y-22.372875 F2000
G1 X248.017113 Y-22.490453 F2000
G1 X249.008102 Y-22.264110 F2000

; ===================================================================
; Engraving: " all are doing good" 
; Line 3 
;character 'a'
M3 S40; 
G0 X17.500000 Y-33.742315; 
; M5 S10
G1 X15.500000 Y-33.742315 F2000
M3 S40; 
G0 X11.299534 Y-29.773359; 
; M5 S10
G1 X10.699531 Y-29.975364 F2000
G1 X10.192727 Y-30.354784 F2000
G1 X9.829905 Y-30.873600 F2000
G1 X9.647421 Y-31.479825 F2000
G1 X9.663560 Y-32.112715 F2000
G1 X9.876705 Y-32.708852 F2000
G1 X10.265498 Y-33.208501 F2000
G1 X10.790982 Y-33.561597 F2000
G1 X11.400501 Y-33.732759 F2000
M3 S40; 
G0 X15.500001 Y-29.998735; 
; M5 S10
G1 X13.412154 Y-29.654966 F2000
G1 X11.299530 Y-29.773701 F2000
M3 S40; 
G0 X11.400481 Y-33.731859; 
; M5 S10
G1 X12.893660 Y-33.677423 F2000
G1 X14.302810 Y-33.180591 F2000
G1 X15.499943 Y-32.286491 F2000
M3 S40; 
G0 X15.500000 Y-29.153856; 
; M5 S10
G1 X15.402113 Y-28.535822 F2000
G1 X15.118034 Y-27.978286 F2000
G1 X14.675571 Y-27.535822 F2000
G1 X14.118034 Y-27.251743 F2000
G1 X13.500000 Y-27.153856 F2000
G1 X12.421229 Y-27.281859 F2000
G1 X11.402368 Y-27.658760 F2000
G1 X10.500001 Y-28.263628 F2000
M3 S40; 
G0 X15.500000 Y-29.153856; 
; M5 S10
G1 X15.500000 Y-33.742315 F2000

;character 'l'
M3 S40; 
G0 X21.250000 Y-33.742315; 
; M5 S10
G1 X27.250000 Y-33.742315 F2000
M3 S40; 
G0 X24.250000 Y-33.742315; 
; M5 S10
G1 X24.250000 Y-24.742315 F2000
G1 X22.250000 Y-24.742315 F2000

;character 'l'
M3 S40; 
G0 X31.000000 Y-33.742315; 
; M5 S10
G1 X37.000000 Y-33.742315 F2000
M3 S40; 
G0 X34.000000 Y-33.742315; 
; M5 S10
G1 X34.000000 Y-24.742315 F2000
G1 X32.000000 Y-24.742315 F2000

;character 'a'
M3 S40; 
G0 X56.750000 Y-33.742315; 
; M5 S10
G1 X54.750000 Y-33.742315 F2000
M3 S40; 
G0 X50.549534 Y-29.773359; 
; M5 S10
G1 X49.949531 Y-29.975364 F2000
G1 X49.442727 Y-30.354784 F2000
G1 X49.079905 Y-30.873600 F2000
G1 X48.897421 Y-31.479825 F2000
G1 X48.913560 Y-32.112715 F2000
G1 X49.126705 Y-32.708852 F2000
G1 X49.515498 Y-33.208501 F2000
G1 X50.040982 Y-33.561597 F2000
G1 X50.650501 Y-33.732759 F2000
M3 S40; 
G0 X54.750001 Y-29.998735; 
; M5 S10
G1 X52.662154 Y-29.654966 F2000
G1 X50.549530 Y-29.773701 F2000
M3 S40; 
G0 X50.650481 Y-33.731859; 
; M5 S10
G1 X52.143660 Y-33.677423 F2000
G1 X53.552810 Y-33.180591 F2000
G1 X54.749943 Y-32.286491 F2000
M3 S40; 
G0 X54.750000 Y-29.153856; 
; M5 S10
G1 X54.652113 Y-28.535822 F2000
G1 X54.368034 Y-27.978286 F2000
G1 X53.925571 Y-27.535822 F2000
G1 X53.368034 Y-27.251743 F2000
G1 X52.750000 Y-27.153856 F2000
G1 X51.671229 Y-27.281859 F2000
G1 X50.652368 Y-27.658760 F2000
G1 X49.750001 Y-28.263628 F2000
M3 S40; 
G0 X54.750000 Y-29.153856; 
; M5 S10
G1 X54.750000 Y-33.742315 F2000

;character 'r'
M3 S40; 
G0 X61.500000 Y-27.742315; 
; M5 S10
G1 X61.500000 Y-33.742315 F2000
M3 S40; 
G0 X60.000000 Y-27.742315; 
; M5 S10
G1 X61.500000 Y-27.742315 F2000
M3 S40; 
G0 X61.500000 Y-30.026076; 
; M5 S10
G1 X63.329224 Y-28.382646 F2000
M3 S40; 
G0 X66.854262 Y-28.565499; 
; M5 S10
G1 X66.246745 Y-28.075376 F2000
G1 X65.517686 Y-27.796502 F2000
G1 X64.738160 Y-27.756065 F2000
G1 X63.984159 Y-27.958006 F2000
G1 X63.329191 Y-28.382639 F2000
M3 S40; 
G0 X60.000000 Y-33.742315; 
; M5 S10
G1 X65.000000 Y-33.742315 F2000

;character 'e'
M3 S40; 
G0 X70.604262 Y-30.742315; 
; M5 S10
G1 X76.604262 Y-30.742315 F2000
M3 S40; 
G0 X76.604262 Y-32.742315; 
; M5 S10
G1 X74.758071 Y-33.511545 F2000
M3 S40; 
G0 X76.604262 Y-30.742315; 
; M5 S10
G1 X76.432047 Y-29.740501 F2000
G1 X75.935173 Y-28.853704 F2000
G1 X75.170688 Y-28.183740 F2000
G1 X74.226361 Y-27.807525 F2000
G1 X73.210611 Y-27.768254 F2000
G1 X72.240056 Y-28.070435 F2000
G1 X71.426125 Y-28.679375 F2000
G1 X70.862267 Y-29.525161 F2000
G1 X70.613217 Y-30.510688 F2000
G1 X70.707569 Y-31.522809 F2000
G1 X71.134490 Y-32.445321 F2000
G1 X71.844967 Y-33.172311 F2000
G1 X72.757427 Y-33.620313 F2000
G1 X73.767113 Y-33.737892 F2000
G1 X74.758102 Y-33.511548 F2000

;character 'd'
M3 S40; 
G0 X96.354262 Y-33.742315; 
; M5 S10
G1 X94.354262 Y-33.742315 F2000
G1 X94.354262 Y-24.742315 F2000
M3 S40; 
G0 X94.354262 Y-30.742315; 
; M5 S10
G1 X94.207431 Y-29.815264 F2000
G1 X93.781313 Y-28.978959 F2000
G1 X93.117617 Y-28.315264 F2000
G1 X92.281313 Y-27.889146 F2000
G1 X91.354262 Y-27.742315 F2000
G1 X90.427211 Y-27.889146 F2000
G1 X89.590906 Y-28.315264 F2000
G1 X88.927211 Y-28.978959 F2000
G1 X88.501092 Y-29.815264 F2000
G1 X88.354262 Y-30.742315 F2000
G1 X88.501092 Y-31.669366 F2000
G1 X88.927211 Y-32.505671 F2000
G1 X89.590906 Y-33.169366 F2000
G1 X90.427211 Y-33.595485 F2000
G1 X91.354262 Y-33.742315 F2000
G1 X92.281313 Y-33.595485 F2000
G1 X93.117617 Y-33.169366 F2000
G1 X93.781313 Y-32.505671 F2000
G1 X94.207431 Y-31.669366 F2000
G1 X94.354262 Y-30.742315 F2000
M3 S40; 
G0 X94.354262 Y-24.742315; 
; M5 S10
G1 X92.354262 Y-24.742315 F2000

;character 'o'
M3 S40; 
G0 X106.104262 Y-30.742315; 
; M5 S10
G1 X105.957431 Y-29.815264 F2000
G1 X105.531313 Y-28.978959 F2000
G1 X104.867617 Y-28.315264 F2000
G1 X104.031313 Y-27.889146 F2000
G1 X103.104262 Y-27.742315 F2000
G1 X102.177211 Y-27.889146 F2000
G1 X101.340906 Y-28.315264 F2000
G1 X100.677211 Y-28.978959 F2000
G1 X100.251092 Y-29.815264 F2000
G1 X100.104262 Y-30.742315 F2000
G1 X100.251092 Y-31.669366 F2000
G1 X100.677211 Y-32.505671 F2000
G1 X101.340906 Y-33.169366 F2000
G1 X102.177211 Y-33.595485 F2000
G1 X103.104262 Y-33.742315 F2000
G1 X104.031313 Y-33.595485 F2000
G1 X104.867617 Y-33.169366 F2000
G1 X105.531313 Y-32.505671 F2000
G1 X105.957431 Y-31.669366 F2000
G1 X106.104262 Y-30.742315 F2000

;character 'i'
M3 S40; 
G0 X115.854262 Y-33.742315; 
; M5 S10
G1 X109.854262 Y-33.742315 F2000
M3 S40; 
G0 X112.854262 Y-33.742315; 
; M5 S10
G1 X112.854262 Y-27.742315 F2000
G1 X110.854262 Y-27.742315 F2000
M3 S40; 
G0 X112.854262 Y-25.742315; 
; M5 S10
G1 X112.854262 Y-24.742315 F2000

;character 'n'
M3 S40; 
G0 X120.104262 Y-27.742315; 
; M5 S10
G1 X120.104262 Y-33.742315 F2000
M3 S40; 
G0 X118.604262 Y-27.742315; 
; M5 S10
G1 X120.104262 Y-27.742315 F2000
M3 S40; 
G0 X118.604262 Y-33.742315; 
; M5 S10
G1 X121.604262 Y-33.742315 F2000
M3 S40; 
G0 X126.604262 Y-33.742315; 
; M5 S10
G1 X123.604262 Y-33.742315 F2000
M3 S40; 
G0 X125.104262 Y-30.242315; 
; M5 S10
G1 X125.104262 Y-33.742315 F2000
M3 S40; 
G0 X120.104262 Y-29.112623; 
; M5 S10
G1 X120.952162 Y-28.366049 F2000
M3 S40; 
G0 X125.104262 Y-30.242315; 
; M5 S10
G1 X124.971355 Y-29.438033 F2000
G1 X124.586766 Y-28.719266 F2000
G1 X123.991386 Y-28.162439 F2000
G1 X123.248520 Y-27.826755 F2000
G1 X122.437152 Y-27.747906 F2000
G1 X121.643553 Y-27.934277 F2000
G1 X120.952101 Y-28.366051 F2000

;character 'g'
M3 S40; 
G0 X135.354262 Y-30.742315; 
; M5 S10
G1 X135.207431 Y-29.815264 F2000
G1 X134.781313 Y-28.978959 F2000
G1 X134.117617 Y-28.315264 F2000
G1 X133.281313 Y-27.889146 F2000
G1 X132.354262 Y-27.742315 F2000
G1 X131.427211 Y-27.889146 F2000
G1 X130.590906 Y-28.315264 F2000
G1 X129.927211 Y-28.978959 F2000
G1 X129.501092 Y-29.815264 F2000
G1 X129.354262 Y-30.742315 F2000
G1 X129.501092 Y-31.669366 F2000
G1 X129.927211 Y-32.505671 F2000
G1 X130.590906 Y-33.169366 F2000
G1 X131.427211 Y-33.595485 F2000
G1 X132.354262 Y-33.742315 F2000
G1 X133.281313 Y-33.595485 F2000
G1 X134.117617 Y-33.169366 F2000
G1 X134.781313 Y-32.505671 F2000
G1 X135.207431 Y-31.669366 F2000
G1 X135.354262 Y-30.742315 F2000
M3 S40; 
G0 X137.354262 Y-27.742315; 
; M5 S10
G1 X135.354262 Y-27.742315 F2000
G1 X135.354262 Y-34.742315 F2000
M3 S40; 
G0 X133.354262 Y-36.742315; 
; M5 S10
G1 X133.972296 Y-36.644428 F2000
G1 X134.529832 Y-36.360349 F2000
G1 X134.972296 Y-35.917886 F2000
G1 X135.256375 Y-35.360349 F2000
G1 X135.354262 Y-34.742315 F2000
M3 S40; 
G0 X133.354262 Y-36.742315; 
; M5 S10
G1 X130.354262 Y-36.742315 F2000

;character 'g'
M3 S40; 
G0 X155.104262 Y-30.742315; 
; M5 S10
G1 X154.957431 Y-29.815264 F2000
G1 X154.531313 Y-28.978959 F2000
G1 X153.867617 Y-28.315264 F2000
G1 X153.031313 Y-27.889146 F2000
G1 X152.104262 Y-27.742315 F2000
G1 X151.177211 Y-27.889146 F2000
G1 X150.340906 Y-28.315264 F2000
G1 X149.677211 Y-28.978959 F2000
G1 X149.251092 Y-29.815264 F2000
G1 X149.104262 Y-30.742315 F2000
G1 X149.251092 Y-31.669366 F2000
G1 X149.677211 Y-32.505671 F2000
G1 X150.340906 Y-33.169366 F2000
G1 X151.177211 Y-33.595485 F2000
G1 X152.104262 Y-33.742315 F2000
G1 X153.031313 Y-33.595485 F2000
G1 X153.867617 Y-33.169366 F2000
G1 X154.531313 Y-32.505671 F2000
G1 X154.957431 Y-31.669366 F2000
G1 X155.104262 Y-30.742315 F2000
M3 S40; 
G0 X157.104262 Y-27.742315; 
; M5 S10
G1 X155.104262 Y-27.742315 F2000
G1 X155.104262 Y-34.742315 F2000
M3 S40; 
G0 X153.104262 Y-36.742315; 
; M5 S10
G1 X153.722296 Y-36.644428 F2000
G1 X154.279832 Y-36.360349 F2000
G1 X154.722296 Y-35.917886 F2000
G1 X155.006375 Y-35.360349 F2000
G1 X155.104262 Y-34.742315 F2000
M3 S40; 
G0 X153.104262 Y-36.742315; 
; M5 S10
G1 X150.104262 Y-36.742315 F2000

;character 'o'
M3 S40; 
G0 X166.854262 Y-30.742315; 
; M5 S10
G1 X166.707431 Y-29.815264 F2000
G1 X166.281313 Y-28.978959 F2000
G1 X165.617617 Y-28.315264 F2000
G1 X164.781313 Y-27.889146 F2000
G1 X163.854262 Y-27.742315 F2000
G1 X162.927211 Y-27.889146 F2000
G1 X162.090906 Y-28.315264 F2000
G1 X161.427211 Y-28.978959 F2000
G1 X161.001092 Y-29.815264 F2000
G1 X160.854262 Y-30.742315 F2000
G1 X161.001092 Y-31.669366 F2000
G1 X161.427211 Y-32.505671 F2000
G1 X162.090906 Y-33.169366 F2000
G1 X162.927211 Y-33.595485 F2000
G1 X163.854262 Y-33.742315 F2000
G1 X164.781313 Y-33.595485 F2000
G1 X165.617617 Y-33.169366 F2000
G1 X166.281313 Y-32.505671 F2000
G1 X166.707431 Y-31.669366 F2000
G1 X166.854262 Y-30.742315 F2000

;character 'o'
M3 S40; 
G0 X176.604262 Y-30.742315; 
; M5 S10
G1 X176.457431 Y-29.815264 F2000
G1 X176.031313 Y-28.978959 F2000
G1 X175.367617 Y-28.315264 F2000
G1 X174.531313 Y-27.889146 F2000
G1 X173.604262 Y-27.742315 F2000
G1 X172.677211 Y-27.889146 F2000
G1 X171.840906 Y-28.315264 F2000
G1 X171.177211 Y-28.978959 F2000
G1 X170.751092 Y-29.815264 F2000
G1 X170.604262 Y-30.742315 F2000
G1 X170.751092 Y-31.669366 F2000
G1 X171.177211 Y-32.505671 F2000
G1 X171.840906 Y-33.169366 F2000
G1 X172.677211 Y-33.595485 F2000
G1 X173.604262 Y-33.742315 F2000
G1 X174.531313 Y-33.595485 F2000
G1 X175.367617 Y-33.169366 F2000
G1 X176.031313 Y-32.505671 F2000
G1 X176.457431 Y-31.669366 F2000
G1 X176.604262 Y-30.742315 F2000

;character 'd'
M3 S40; 
G0 X187.354262 Y-33.742315; 
; M5 S10
G1 X185.354262 Y-33.742315 F2000
G1 X185.354262 Y-24.742315 F2000
M3 S40; 
G0 X185.354262 Y-30.742315; 
; M5 S10
G1 X185.207431 Y-29.815264 F2000
G1 X184.781313 Y-28.978959 F2000
G1 X184.117617 Y-28.315264 F2000
G1 X183.281313 Y-27.889146 F2000
G1 X182.354262 Y-27.742315 F2000
G1 X181.427211 Y-27.889146 F2000
G1 X180.590906 Y-28.315264 F2000
G1 X179.927211 Y-28.978959 F2000
G1 X179.501092 Y-29.815264 F2000
G1 X179.354262 Y-30.742315 F2000
G1 X179.501092 Y-31.669366 F2000
G1 X179.927211 Y-32.505671 F2000
G1 X180.590906 Y-33.169366 F2000
G1 X181.427211 Y-33.595485 F2000
G1 X182.354262 Y-33.742315 F2000
G1 X183.281313 Y-33.595485 F2000
G1 X184.117617 Y-33.169366 F2000
G1 X184.781313 Y-32.505671 F2000
G1 X185.207431 Y-31.669366 F2000
G1 X185.354262 Y-30.742315 F2000
M3 S40; 
G0 X185.354262 Y-24.742315; 
; M5 S10
G1 X183.354262 Y-24.742315 F2000

; ===================================================================
; Engraving: "" 
; Line 4 

    M5          ; Disable Laser/Spindle
    
