; Code generated by text2laser.py 
; Engraving: "krupa"
; Fontfile: courier.cxf 

    G90         ; 
    M3 S40 ;
    
;character 'k'
M3 S40; 
G0 X0.000000 Y0.000000; 
; M5 S10
G1 X2.000000 Y0.000000 F2000
G1 X2.000000 Y9.000000 F2000
G1 X0.000000 Y9.000000 F2000
M3 S40; 
G0 X8.000000 Y6.000000; 
; M5 S10
G1 X5.000000 Y6.000000 F2000
M3 S40; 
G0 X6.500000 Y6.000000; 
; M5 S10
G1 X2.000000 Y2.696379 F2000
M3 S40; 
G0 X8.500000 Y0.000000; 
; M5 S10
G1 X5.500000 Y0.000000 F2000
M3 S40; 
G0 X7.000000 Y0.000000; 
; M5 S10
G1 X3.569214 Y3.848392 F2000

;character 'r'
M3 S40; 
G0 X13.250000 Y6.000000; 
; M5 S10
G1 X13.250000 Y0.000000 F2000
M3 S40; 
G0 X11.750000 Y6.000000; 
; M5 S10
G1 X13.250000 Y6.000000 F2000
M3 S40; 
G0 X13.250000 Y3.716239; 
; M5 S10
G1 X15.079224 Y5.359669 F2000
M3 S40; 
G0 X18.604262 Y5.176817; 
; M5 S10
G1 X17.996745 Y5.666939 F2000
G1 X17.267686 Y5.945813 F2000
G1 X16.488160 Y5.986250 F2000
G1 X15.734159 Y5.784309 F2000
G1 X15.079191 Y5.359676 F2000
M3 S40; 
G0 X11.750000 Y0.000000; 
; M5 S10
G1 X16.750000 Y0.000000 F2000

;character 'u'
M3 S40; 
G0 X22.854262 Y6.000000; 
; M5 S10
G1 X22.854262 Y2.000000 F2000
M3 S40; 
G0 X27.854262 Y6.000000; 
; M5 S10
G1 X27.854262 Y0.000000 F2000
G1 X29.854262 Y0.000000 F2000
M3 S40; 
G0 X27.854262 Y1.000000; 
; M5 S10
G1 X25.564345 Y0.130306 F2000
M3 S40; 
G0 X22.854262 Y2.000000; 
; M5 S10
G1 X22.957240 Y1.366512 F2000
G1 X23.255569 Y0.798259 F2000
G1 X23.718529 Y0.353759 F2000
G1 X24.298444 Y0.078785 F2000
G1 X24.935596 Y0.001655 F2000
G1 X25.564373 Y0.130310 F2000
M3 S40; 
G0 X21.354262 Y6.000000; 
; M5 S10
G1 X22.854262 Y6.000000 F2000
M3 S40; 
G0 X26.354262 Y6.000000; 
; M5 S10
G1 X27.854262 Y6.000000 F2000

;character 'p'
M3 S40; 
G0 X40.604262 Y3.000000; 
; M5 S10
G1 X40.457431 Y3.927051 F2000
G1 X40.031313 Y4.763356 F2000
G1 X39.367617 Y5.427051 F2000
G1 X38.531313 Y5.853170 F2000
G1 X37.604262 Y6.000000 F2000
G1 X36.677211 Y5.853170 F2000
G1 X35.840906 Y5.427051 F2000
G1 X35.177211 Y4.763356 F2000
G1 X34.751092 Y3.927051 F2000
G1 X34.604262 Y3.000000 F2000
G1 X34.751092 Y2.072949 F2000
G1 X35.177211 Y1.236644 F2000
G1 X35.840906 Y0.572949 F2000
G1 X36.677211 Y0.146830 F2000
G1 X37.604262 Y0.000000 F2000
G1 X38.531313 Y0.146830 F2000
G1 X39.367617 Y0.572949 F2000
G1 X40.031313 Y1.236644 F2000
G1 X40.457431 Y2.072949 F2000
G1 X40.604262 Y3.000000 F2000
M3 S40; 
G0 X34.604262 Y6.000000; 
; M5 S10
G1 X34.604262 Y-3.000000 F2000
M3 S40; 
G0 X34.604262 Y6.000000; 
; M5 S10
G1 X32.604262 Y6.000000 F2000
M3 S40; 
G0 X32.604262 Y-3.000000; 
; M5 S10
G1 X36.604262 Y-3.000000 F2000

;character 'a'
M3 S40; 
G0 X51.354262 Y0.000000; 
; M5 S10
G1 X49.354262 Y0.000000 F2000
M3 S40; 
G0 X45.153796 Y3.968957; 
; M5 S10
G1 X44.553793 Y3.766952 F2000
G1 X44.046988 Y3.387532 F2000
G1 X43.684167 Y2.868716 F2000
G1 X43.501682 Y2.262490 F2000
G1 X43.517821 Y1.629600 F2000
G1 X43.730967 Y1.033463 F2000
G1 X44.119760 Y0.533814 F2000
G1 X44.645244 Y0.180718 F2000
G1 X45.254763 Y0.009556 F2000
M3 S40; 
G0 X49.354262 Y3.743581; 
; M5 S10
G1 X47.266416 Y4.087349 F2000
G1 X45.153792 Y3.968614 F2000
M3 S40; 
G0 X45.254743 Y0.010456; 
; M5 S10
G1 X46.747922 Y0.064892 F2000
G1 X48.157072 Y0.561724 F2000
G1 X49.354205 Y1.455825 F2000
M3 S40; 
G0 X49.354262 Y4.588459; 
; M5 S10
G1 X49.256375 Y5.206493 F2000
G1 X48.972296 Y5.764030 F2000
G1 X48.529832 Y6.206493 F2000
G1 X47.972296 Y6.490572 F2000
G1 X47.354262 Y6.588459 F2000
G1 X46.275491 Y6.460456 F2000
G1 X45.256630 Y6.083555 F2000
G1 X44.354262 Y5.478687 F2000
M3 S40; 
G0 X49.354262 Y4.588459; 
; M5 S10
G1 X49.354262 Y0.000000 F2000


    M5          ; Disable Laser/Spindle
    
