; Code generated by text2laser.py 
; Engraving: "HI i am doing wellkl"
; Fontfile: scripts.cxf 

    G90         ; 
    M03 S40 ;
    
;character 'H'
M03 S40; 
G00 X1.548387 Y3.612903; 
M05 S10
G01 X1.032258 Y3.870968 S0 F2000
G01 X0.774194 Y4.387097 S0 F2000
G01 X0.774194 Y4.645161 S0 F2000
G01 X1.032258 Y5.161290 S0 F2000
G01 X1.548387 Y5.419355 S0 F2000
G01 X1.806452 Y5.419355 S0 F2000
G01 X2.322581 Y5.161290 S0 F2000
G01 X2.580645 Y4.645161 S0 F2000
G01 X2.580645 Y4.129032 S0 F2000
G01 X2.322581 Y3.096774 S0 F2000
G01 X1.806452 Y1.548387 S0 F2000
G01 X1.290323 Y0.516129 S0 F2000
G01 X0.774194 Y0.000000 S0 F2000
G01 X0.258065 Y0.000000 S0 F2000
G01 X0.000000 Y0.258065 S0 F2000
G01 X0.000000 Y0.774194 S0 F2000
M03 S40; 
G00 X1.548387 Y2.322581; 
M05 S10
G01 X3.870968 Y3.096774 S0 F2000
G01 X4.387097 Y3.354839 S0 F2000
G01 X5.161290 Y3.870968 S0 F2000
G01 X5.677419 Y4.387097 S0 F2000
G01 X5.935484 Y4.903226 S0 F2000
G01 X5.935484 Y5.161290 S0 F2000
G01 X5.677419 Y5.419355 S0 F2000
G01 X5.419355 Y5.419355 S0 F2000
G01 X4.903226 Y4.903226 S0 F2000
G01 X4.387097 Y3.870968 S0 F2000
G01 X3.870968 Y2.322581 S0 F2000
G01 X3.612903 Y1.032258 S0 F2000
G01 X3.612903 Y0.258065 S0 F2000
G01 X3.870968 Y0.000000 S0 F2000
G01 X4.129032 Y0.000000 S0 F2000
G01 X4.645161 Y0.258065 S0 F2000
G01 X4.903226 Y0.516129 S0 F2000
G01 X5.419355 Y1.290323 S0 F2000

;character 'I'
M03 S40; 
G00 X11.290323 Y1.290323; 
M05 S10
G01 X10.774194 Y1.806452 S0 F2000
G01 X10.258065 Y2.580645 S0 F2000
G01 X10.000000 Y3.096774 S0 F2000
G01 X9.741936 Y3.870968 S0 F2000
G01 X9.741936 Y4.645161 S0 F2000
G01 X10.000000 Y5.161290 S0 F2000
G01 X10.258065 Y5.419355 S0 F2000
G01 X10.774194 Y5.419355 S0 F2000
G01 X11.032258 Y5.161290 S0 F2000
G01 X11.290323 Y4.645161 S0 F2000
G01 X11.290323 Y3.870968 S0 F2000
G01 X11.032258 Y2.580645 S0 F2000
G01 X10.516129 Y1.290323 S0 F2000
G01 X10.258065 Y0.774194 S0 F2000
G01 X9.741936 Y0.258065 S0 F2000
G01 X9.225807 Y0.000000 S0 F2000
G01 X8.709678 Y0.000000 S0 F2000
G01 X8.193549 Y0.258065 S0 F2000
G01 X7.935484 Y0.774194 S0 F2000
G01 X7.935484 Y1.290323 S0 F2000
G01 X8.193549 Y1.548387 S0 F2000
G01 X8.709678 Y1.548387 S0 F2000
G01 X9.225807 Y1.290323 S0 F2000

;character 'i'
M03 S40; 
G00 X22.064517 Y3.612903; 
M05 S10
G01 X22.064517 Y3.354839 S0 F2000
G01 X22.322581 Y3.354839 S0 F2000
G01 X22.322581 Y3.612903 S0 F2000
G01 X22.064517 Y3.612903 S0 F2000
M03 S40; 
G00 X21.290323 Y1.290323; 
M05 S10
G01 X21.806452 Y2.322581 S0 F2000
G01 X21.290323 Y0.774194 S0 F2000
G01 X21.290323 Y0.258065 S0 F2000
G01 X21.548388 Y0.000000 S0 F2000
G01 X21.806452 Y0.000000 S0 F2000
G01 X22.322581 Y0.258065 S0 F2000
G01 X22.580646 Y0.516129 S0 F2000
G01 X23.096775 Y1.290323 S0 F2000

;character 'a'
M03 S40; 
G00 X35.419356 Y1.548387; 
M05 S10
G01 X35.161291 Y2.064516 S0 F2000
G01 X34.645162 Y2.322581 S0 F2000
G01 X34.129033 Y2.322581 S0 F2000
G01 X33.612904 Y2.064516 S0 F2000
G01 X33.354840 Y1.806452 S0 F2000
G01 X33.096775 Y1.290323 S0 F2000
G01 X33.096775 Y0.774194 S0 F2000
G01 X33.354840 Y0.258065 S0 F2000
G01 X33.870969 Y0.000000 S0 F2000
G01 X34.387098 Y0.000000 S0 F2000
G01 X34.903227 Y0.258065 S0 F2000
G01 X35.161291 Y0.774194 S0 F2000
G01 X35.677420 Y2.322581 S0 F2000
G01 X35.419356 Y1.032258 S0 F2000
G01 X35.419356 Y0.258065 S0 F2000
G01 X35.677420 Y0.000000 S0 F2000
G01 X35.935485 Y0.000000 S0 F2000
G01 X36.451614 Y0.258065 S0 F2000
G01 X36.709678 Y0.516129 S0 F2000
G01 X37.225807 Y1.290323 S0 F2000

;character 'm'
M03 S40; 
G00 X39.225807 Y1.290323; 
M05 S10
G01 X39.741936 Y2.064516 S0 F2000
G01 X40.258065 Y2.322581 S0 F2000
G01 X40.516130 Y2.064516 S0 F2000
G01 X40.516130 Y1.806452 S0 F2000
G01 X40.258065 Y0.774194 S0 F2000
G01 X40.000001 Y0.000000 S0 F2000
M03 S40; 
G00 X40.258065 Y0.774194; 
M05 S10
G01 X40.516130 Y1.290323 S0 F2000
G01 X41.032259 Y2.064516 S0 F2000
G01 X41.548388 Y2.322581 S0 F2000
G01 X42.064517 Y2.322581 S0 F2000
G01 X42.322581 Y2.064516 S0 F2000
G01 X42.322581 Y1.806452 S0 F2000
G01 X42.064517 Y0.774194 S0 F2000
G01 X41.806452 Y0.000000 S0 F2000
M03 S40; 
G00 X42.064517 Y0.774194; 
M05 S10
G01 X42.322581 Y1.290323 S0 F2000
G01 X42.838710 Y2.064516 S0 F2000
G01 X43.354839 Y2.322581 S0 F2000
G01 X43.870968 Y2.322581 S0 F2000
G01 X44.129033 Y2.064516 S0 F2000
G01 X44.129033 Y1.548387 S0 F2000
G01 X43.870968 Y0.774194 S0 F2000
G01 X43.870968 Y0.258065 S0 F2000
G01 X44.129033 Y0.000000 S0 F2000
G01 X44.387097 Y0.000000 S0 F2000
G01 X44.903226 Y0.258065 S0 F2000
G01 X45.161291 Y0.516129 S0 F2000
G01 X45.677420 Y1.290323 S0 F2000

;character 'd'
M03 S40; 
G00 X58.000001 Y1.548387; 
M05 S10
G01 X57.741936 Y2.064516 S0 F2000
G01 X57.225807 Y2.322581 S0 F2000
G01 X56.709678 Y2.322581 S0 F2000
G01 X56.193549 Y2.064516 S0 F2000
G01 X55.935485 Y1.806452 S0 F2000
G01 X55.677420 Y1.290323 S0 F2000
G01 X55.677420 Y0.774194 S0 F2000
G01 X55.935485 Y0.258065 S0 F2000
G01 X56.451614 Y0.000000 S0 F2000
G01 X56.967743 Y0.000000 S0 F2000
G01 X57.483872 Y0.258065 S0 F2000
G01 X57.741936 Y0.774194 S0 F2000
G01 X59.290323 Y5.419355 S0 F2000
M03 S40; 
G00 X58.258065 Y2.322581; 
M05 S10
G01 X58.000001 Y1.032258 S0 F2000
G01 X58.000001 Y0.258065 S0 F2000
G01 X58.258065 Y0.000000 S0 F2000
G01 X58.516130 Y0.000000 S0 F2000
G01 X59.032259 Y0.258065 S0 F2000
G01 X59.290323 Y0.516129 S0 F2000
G01 X59.806452 Y1.290323 S0 F2000

;character 'o'
M03 S40; 
G00 X63.354839 Y2.322581; 
M05 S10
G01 X62.838710 Y2.322581 S0 F2000
G01 X62.322581 Y2.064516 S0 F2000
G01 X62.064517 Y1.806452 S0 F2000
G01 X61.806452 Y1.290323 S0 F2000
G01 X61.806452 Y0.774194 S0 F2000
G01 X62.064517 Y0.258065 S0 F2000
G01 X62.580646 Y0.000000 S0 F2000
G01 X63.096775 Y0.000000 S0 F2000
G01 X63.612904 Y0.258065 S0 F2000
G01 X63.870968 Y0.516129 S0 F2000
G01 X64.129033 Y1.032258 S0 F2000
G01 X64.129033 Y1.548387 S0 F2000
G01 X63.870968 Y2.064516 S0 F2000
G01 X63.354839 Y2.322581 S0 F2000
G01 X63.096775 Y2.064516 S0 F2000
G01 X63.096775 Y1.548387 S0 F2000
G01 X63.354839 Y1.032258 S0 F2000
G01 X63.870968 Y0.774194 S0 F2000
G01 X64.645162 Y0.774194 S0 F2000
G01 X65.161291 Y1.032258 S0 F2000
G01 X65.419355 Y1.290323 S0 F2000

;character 'i'
M03 S40; 
G00 X68.193549 Y3.612903; 
M05 S10
G01 X68.193549 Y3.354839 S0 F2000
G01 X68.451613 Y3.354839 S0 F2000
G01 X68.451613 Y3.612903 S0 F2000
G01 X68.193549 Y3.612903 S0 F2000
M03 S40; 
G00 X67.419355 Y1.290323; 
M05 S10
G01 X67.935484 Y2.322581 S0 F2000
G01 X67.419355 Y0.774194 S0 F2000
G01 X67.419355 Y0.258065 S0 F2000
G01 X67.677420 Y0.000000 S0 F2000
G01 X67.935484 Y0.000000 S0 F2000
G01 X68.451613 Y0.258065 S0 F2000
G01 X68.709678 Y0.516129 S0 F2000
G01 X69.225807 Y1.290323 S0 F2000

;character 'n'
M03 S40; 
G00 X71.225807 Y1.290323; 
M05 S10
G01 X71.741936 Y2.064516 S0 F2000
G01 X72.258065 Y2.322581 S0 F2000
G01 X72.516130 Y2.064516 S0 F2000
G01 X72.516130 Y1.806452 S0 F2000
G01 X72.258065 Y0.774194 S0 F2000
G01 X72.000001 Y0.000000 S0 F2000
M03 S40; 
G00 X72.258065 Y0.774194; 
M05 S10
G01 X72.516130 Y1.290323 S0 F2000
G01 X73.032259 Y2.064516 S0 F2000
G01 X73.548388 Y2.322581 S0 F2000
G01 X74.064517 Y2.322581 S0 F2000
G01 X74.322581 Y2.064516 S0 F2000
G01 X74.322581 Y1.548387 S0 F2000
G01 X74.064517 Y0.774194 S0 F2000
G01 X74.064517 Y0.258065 S0 F2000
G01 X74.322581 Y0.000000 S0 F2000
G01 X74.580646 Y0.000000 S0 F2000
G01 X75.096775 Y0.258065 S0 F2000
G01 X75.354839 Y0.516129 S0 F2000
G01 X75.870968 Y1.290323 S0 F2000

;character 'g'
M03 S40; 
G00 X80.193549 Y1.548387; 
M05 S10
G01 X79.935484 Y2.064516 S0 F2000
G01 X79.419355 Y2.322581 S0 F2000
G01 X78.903226 Y2.322581 S0 F2000
G01 X78.387097 Y2.064516 S0 F2000
G01 X78.129033 Y1.806452 S0 F2000
G01 X77.870968 Y1.290323 S0 F2000
G01 X77.870968 Y0.774194 S0 F2000
G01 X78.129033 Y0.258065 S0 F2000
G01 X78.645162 Y0.000000 S0 F2000
G01 X79.161291 Y0.000000 S0 F2000
G01 X79.677420 Y0.258065 S0 F2000
G01 X79.935484 Y0.516129 S0 F2000
M03 S40; 
G00 X80.451613 Y2.322581; 
M05 S10
G01 X79.935484 Y0.516129 S0 F2000
G01 X78.903226 Y-2.322581 S0 F2000
G01 X78.645162 Y-2.838710 S0 F2000
G01 X78.129033 Y-3.096774 S0 F2000
G01 X77.870968 Y-2.838710 S0 F2000
G01 X77.870968 Y-2.322581 S0 F2000
G01 X78.129033 Y-1.548387 S0 F2000
G01 X78.903226 Y-0.774194 S0 F2000
G01 X79.677420 Y-0.258065 S0 F2000
G01 X80.193549 Y0.000000 S0 F2000
G01 X80.967742 Y0.516129 S0 F2000
G01 X81.741936 Y1.290323 S0 F2000

;character 'w'
M03 S40; 
G00 X92.516130 Y2.322581; 
M05 S10
G01 X92.000001 Y1.806452 S0 F2000
G01 X91.741936 Y1.032258 S0 F2000
G01 X91.741936 Y0.516129 S0 F2000
G01 X92.000001 Y0.000000 S0 F2000
G01 X92.516130 Y0.000000 S0 F2000
G01 X93.032259 Y0.258065 S0 F2000
G01 X93.548388 Y0.774194 S0 F2000
M03 S40; 
G00 X94.064517 Y2.322581; 
M05 S10
G01 X93.548388 Y0.774194 S0 F2000
G01 X93.548388 Y0.258065 S0 F2000
G01 X93.806452 Y0.000000 S0 F2000
G01 X94.322581 Y0.000000 S0 F2000
G01 X94.838710 Y0.258065 S0 F2000
G01 X95.354839 Y0.774194 S0 F2000
G01 X95.612904 Y1.548387 S0 F2000
G01 X95.612904 Y2.322581 S0 F2000
G01 X95.870968 Y1.290323 S0 F2000
G01 X96.129033 Y1.032258 S0 F2000
G01 X96.645162 Y1.032258 S0 F2000
G01 X97.161291 Y1.290323 S0 F2000

;character 'e'
M03 S40; 
G00 X99.419356 Y0.516129; 
M05 S10
G01 X99.935485 Y0.774194 S0 F2000
G01 X100.193549 Y1.032258 S0 F2000
G01 X100.451614 Y1.548387 S0 F2000
G01 X100.451614 Y2.064516 S0 F2000
G01 X100.193549 Y2.322581 S0 F2000
G01 X99.935485 Y2.322581 S0 F2000
G01 X99.419356 Y2.064516 S0 F2000
G01 X99.161291 Y1.548387 S0 F2000
G01 X99.161291 Y0.774194 S0 F2000
G01 X99.419356 Y0.258065 S0 F2000
G01 X99.935485 Y0.000000 S0 F2000
G01 X100.451614 Y0.000000 S0 F2000
G01 X100.967743 Y0.258065 S0 F2000
G01 X101.225807 Y0.516129 S0 F2000
G01 X101.741936 Y1.290323 S0 F2000

;character 'l'
M03 S40; 
G00 X103.741936 Y1.290323; 
M05 S10
G01 X104.258065 Y2.064516 S0 F2000
G01 X105.032259 Y3.354839 S0 F2000
G01 X105.290323 Y3.870968 S0 F2000
G01 X105.548388 Y4.645161 S0 F2000
G01 X105.548388 Y5.161290 S0 F2000
G01 X105.290323 Y5.419355 S0 F2000
G01 X104.774194 Y5.161290 S0 F2000
G01 X104.516130 Y4.645161 S0 F2000
G01 X104.258065 Y3.612903 S0 F2000
G01 X104.000001 Y1.806452 S0 F2000
G01 X104.000001 Y0.258065 S0 F2000
G01 X104.258065 Y0.000000 S0 F2000
G01 X104.516130 Y0.000000 S0 F2000
G01 X105.032259 Y0.258065 S0 F2000
G01 X105.290323 Y0.516129 S0 F2000
G01 X105.806452 Y1.290323 S0 F2000

;character 'l'
M03 S40; 
G00 X107.806452 Y1.290323; 
M05 S10
G01 X108.322581 Y2.064516 S0 F2000
G01 X109.096775 Y3.354839 S0 F2000
G01 X109.354839 Y3.870968 S0 F2000
G01 X109.612904 Y4.645161 S0 F2000
G01 X109.612904 Y5.161290 S0 F2000
G01 X109.354839 Y5.419355 S0 F2000
G01 X108.838710 Y5.161290 S0 F2000
G01 X108.580646 Y4.645161 S0 F2000
G01 X108.322581 Y3.612903 S0 F2000
G01 X108.064517 Y1.806452 S0 F2000
G01 X108.064517 Y0.258065 S0 F2000
G01 X108.322581 Y0.000000 S0 F2000
G01 X108.580646 Y0.000000 S0 F2000
G01 X109.096775 Y0.258065 S0 F2000
G01 X109.354839 Y0.516129 S0 F2000
G01 X109.870968 Y1.290323 S0 F2000

;character 'k'
M03 S40; 
G00 X111.870968 Y1.290323; 
M05 S10
G01 X112.387097 Y2.064516 S0 F2000
G01 X113.161291 Y3.354839 S0 F2000
G01 X113.419355 Y3.870968 S0 F2000
G01 X113.677420 Y4.645161 S0 F2000
G01 X113.677420 Y5.161290 S0 F2000
G01 X113.419355 Y5.419355 S0 F2000
G01 X112.903226 Y5.161290 S0 F2000
G01 X112.645162 Y4.645161 S0 F2000
G01 X112.387097 Y3.612903 S0 F2000
G01 X112.129033 Y2.064516 S0 F2000
G01 X111.870968 Y0.000000 S0 F2000
G01 X112.129033 Y0.774194 S0 F2000
G01 X112.387097 Y1.290323 S0 F2000
G01 X112.903226 Y2.064516 S0 F2000
G01 X113.419355 Y2.322581 S0 F2000
G01 X113.935484 Y2.322581 S0 F2000
G01 X114.193549 Y2.064516 S0 F2000
G01 X114.193549 Y1.548387 S0 F2000
G01 X113.677420 Y1.290323 S0 F2000
G01 X112.903226 Y1.290323 S0 F2000
G01 X113.419355 Y1.032258 S0 F2000
G01 X113.677420 Y0.258065 S0 F2000
G01 X113.935484 Y0.000000 S0 F2000
G01 X114.193549 Y0.000000 S0 F2000
G01 X114.709678 Y0.258065 S0 F2000
G01 X114.967742 Y0.516129 S0 F2000
G01 X115.483871 Y1.290323 S0 F2000

;character 'l'
M03 S40; 
G00 X117.483871 Y1.290323; 
M05 S10
G01 X118.000000 Y2.064516 S0 F2000
G01 X118.774194 Y3.354839 S0 F2000
G01 X119.032258 Y3.870968 S0 F2000
G01 X119.290323 Y4.645161 S0 F2000
G01 X119.290323 Y5.161290 S0 F2000
G01 X119.032258 Y5.419355 S0 F2000
G01 X118.516129 Y5.161290 S0 F2000
G01 X118.258065 Y4.645161 S0 F2000
G01 X118.000000 Y3.612903 S0 F2000
G01 X117.741936 Y1.806452 S0 F2000
G01 X117.741936 Y0.258065 S0 F2000
G01 X118.000000 Y0.000000 S0 F2000
G01 X118.258065 Y0.000000 S0 F2000
G01 X118.774194 Y0.258065 S0 F2000
G01 X119.032258 Y0.516129 S0 F2000
G01 X119.548387 Y1.290323 S0 F2000


    M5          ; Disable Laser/Spindle
    
