; Code generated by text2laser.py 
; Engraving: " Akku Boy"
; Fontfile: scripts.cxf 

    G90         ; 
    M3 S40 ;
    
;character 'A'
M3 S40; 
G0 X7.120000 Y0.000000; 
; M5 S10
G1 X7.636129 Y0.258065 F2000
G1 X8.410323 Y1.032258 F2000
G1 X9.184516 Y2.064516 F2000
G1 X10.216774 Y3.870968 F2000
G1 X10.990968 Y5.419355 F2000
G1 X10.990968 Y0.000000 F2000
G1 X10.732903 Y0.774194 F2000
G1 X10.216774 Y1.548387 F2000
G1 X9.700645 Y2.064516 F2000
G1 X8.926452 Y2.580645 F2000
G1 X8.410323 Y2.580645 F2000
G1 X8.152258 Y2.322581 F2000
G1 X8.152258 Y1.806452 F2000
G1 X8.410323 Y1.290323 F2000
G1 X8.926452 Y0.774194 F2000
G1 X9.700645 Y0.258065 F2000
G1 X10.474839 Y0.000000 F2000
G1 X11.765161 Y0.000000 F2000

;character 'k'
M3 S40; 
G0 X11.978761 Y1.290323; 
; M5 S10
G1 X12.494890 Y2.064516 F2000
G1 X13.269084 Y3.354839 F2000
G1 X13.527148 Y3.870968 F2000
G1 X13.785213 Y4.645161 F2000
G1 X13.785213 Y5.161290 F2000
G1 X13.527148 Y5.419355 F2000
G1 X13.011019 Y5.161290 F2000
G1 X12.752955 Y4.645161 F2000
G1 X12.494890 Y3.612903 F2000
G1 X12.236826 Y2.064516 F2000
G1 X11.978761 Y0.000000 F2000
G1 X12.236826 Y0.774194 F2000
G1 X12.494890 Y1.290323 F2000
G1 X13.011019 Y2.064516 F2000
G1 X13.527148 Y2.322581 F2000
G1 X14.043277 Y2.322581 F2000
G1 X14.301342 Y2.064516 F2000
G1 X14.301342 Y1.548387 F2000
G1 X13.785213 Y1.290323 F2000
G1 X13.011019 Y1.290323 F2000
G1 X13.527148 Y1.032258 F2000
G1 X13.785213 Y0.258065 F2000
G1 X14.043277 Y0.000000 F2000
G1 X14.301342 Y0.000000 F2000
G1 X14.817471 Y0.258065 F2000
G1 X15.075535 Y0.516129 F2000
G1 X15.591664 Y1.290323 F2000

;character 'k'
M3 S40; 
G0 X15.805264 Y1.290323; 
; M5 S10
G1 X16.321393 Y2.064516 F2000
G1 X17.095587 Y3.354839 F2000
G1 X17.353651 Y3.870968 F2000
G1 X17.611716 Y4.645161 F2000
G1 X17.611716 Y5.161290 F2000
G1 X17.353651 Y5.419355 F2000
G1 X16.837522 Y5.161290 F2000
G1 X16.579458 Y4.645161 F2000
G1 X16.321393 Y3.612903 F2000
G1 X16.063329 Y2.064516 F2000
G1 X15.805264 Y0.000000 F2000
G1 X16.063329 Y0.774194 F2000
G1 X16.321393 Y1.290323 F2000
G1 X16.837522 Y2.064516 F2000
G1 X17.353651 Y2.322581 F2000
G1 X17.869780 Y2.322581 F2000
G1 X18.127845 Y2.064516 F2000
G1 X18.127845 Y1.548387 F2000
G1 X17.611716 Y1.290323 F2000
G1 X16.837522 Y1.290323 F2000
G1 X17.353651 Y1.032258 F2000
G1 X17.611716 Y0.258065 F2000
G1 X17.869780 Y0.000000 F2000
G1 X18.127845 Y0.000000 F2000
G1 X18.643974 Y0.258065 F2000
G1 X18.902038 Y0.516129 F2000
G1 X19.418167 Y1.290323 F2000

;character 'u'
M3 S40; 
G0 X19.631767 Y1.290323; 
; M5 S10
G1 X20.147896 Y2.322581 F2000
G1 X19.631767 Y0.774194 F2000
G1 X19.631767 Y0.258065 F2000
G1 X19.889832 Y0.000000 F2000
G1 X20.405961 Y0.000000 F2000
G1 X20.922090 Y0.258065 F2000
G1 X21.438219 Y0.774194 F2000
G1 X21.954348 Y1.548387 F2000
M3 S40; 
G0 X22.212412 Y2.322581; 
; M5 S10
G1 X21.696283 Y0.774194 F2000
G1 X21.696283 Y0.258065 F2000
G1 X21.954348 Y0.000000 F2000
G1 X22.212412 Y0.000000 F2000
G1 X22.728541 Y0.258065 F2000
G1 X22.986606 Y0.516129 F2000
G1 X23.502735 Y1.290323 F2000

;character 'B'
M3 S40; 
G0 X33.416980 Y4.903226; 
; M5 S10
G1 X33.675045 Y4.645161 F2000
G1 X33.675045 Y3.870968 F2000
G1 X33.416980 Y2.838710 F2000
G1 X33.158916 Y2.064516 F2000
G1 X32.900851 Y1.548387 F2000
G1 X32.384722 Y0.774194 F2000
G1 X31.868593 Y0.258065 F2000
G1 X31.352464 Y0.000000 F2000
G1 X31.094400 Y0.000000 F2000
G1 X30.836335 Y0.258065 F2000
G1 X30.836335 Y1.032258 F2000
G1 X31.094400 Y2.322581 F2000
G1 X31.352464 Y3.096774 F2000
G1 X31.610529 Y3.612903 F2000
G1 X32.126658 Y4.387097 F2000
G1 X32.642787 Y4.903226 F2000
G1 X33.158916 Y5.161290 F2000
G1 X33.933109 Y5.419355 F2000
G1 X34.707303 Y5.419355 F2000
G1 X35.223432 Y5.161290 F2000
G1 X35.481496 Y4.645161 F2000
G1 X35.481496 Y4.129032 F2000
G1 X35.223432 Y3.612903 F2000
G1 X34.965367 Y3.354839 F2000
G1 X34.449238 Y3.096774 F2000
G1 X33.675045 Y2.838710 F2000
M3 S40; 
G0 X33.416980 Y2.838710; 
; M5 S10
G1 X33.675045 Y2.838710 F2000
G1 X34.449238 Y2.580645 F2000
G1 X34.707303 Y2.322581 F2000
G1 X34.965367 Y1.806452 F2000
G1 X34.965367 Y1.032258 F2000
G1 X34.707303 Y0.516129 F2000
G1 X34.449238 Y0.258065 F2000
G1 X33.933109 Y0.000000 F2000
G1 X33.158916 Y0.000000 F2000
G1 X32.642787 Y0.258065 F2000
G1 X32.384722 Y0.774194 F2000

;character 'o'
M3 S40; 
G0 X37.243483 Y2.322581; 
; M5 S10
G1 X36.727354 Y2.322581 F2000
G1 X36.211225 Y2.064516 F2000
G1 X35.953161 Y1.806452 F2000
G1 X35.695096 Y1.290323 F2000
G1 X35.695096 Y0.774194 F2000
G1 X35.953161 Y0.258065 F2000
G1 X36.469290 Y0.000000 F2000
G1 X36.985419 Y0.000000 F2000
G1 X37.501548 Y0.258065 F2000
G1 X37.759612 Y0.516129 F2000
G1 X38.017677 Y1.032258 F2000
G1 X38.017677 Y1.548387 F2000
G1 X37.759612 Y2.064516 F2000
G1 X37.243483 Y2.322581 F2000
G1 X36.985419 Y2.064516 F2000
G1 X36.985419 Y1.548387 F2000
G1 X37.243483 Y1.032258 F2000
G1 X37.759612 Y0.774194 F2000
G1 X38.533806 Y0.774194 F2000
G1 X39.049935 Y1.032258 F2000
G1 X39.307999 Y1.290323 F2000

;character 'y'
M3 S40; 
G0 X39.521599 Y1.290323; 
; M5 S10
G1 X40.037728 Y2.322581 F2000
G1 X39.521599 Y0.774194 F2000
G1 X39.521599 Y0.258065 F2000
G1 X39.779664 Y0.000000 F2000
G1 X40.295793 Y0.000000 F2000
G1 X40.811922 Y0.258065 F2000
G1 X41.328051 Y0.774194 F2000
G1 X41.844180 Y1.548387 F2000
M3 S40; 
G0 X42.102244 Y2.322581; 
; M5 S10
G1 X40.553857 Y-2.322581 F2000
G1 X40.295793 Y-2.838710 F2000
G1 X39.779664 Y-3.096774 F2000
G1 X39.521599 Y-2.838710 F2000
G1 X39.521599 Y-2.322581 F2000
G1 X39.779664 Y-1.548387 F2000
G1 X40.553857 Y-0.774194 F2000
G1 X41.328051 Y-0.258065 F2000
G1 X41.844180 Y0.000000 F2000
G1 X42.618373 Y0.516129 F2000
G1 X43.392567 Y1.290323 F2000


    M5          ; Disable Laser/Spindle
    
