; Code generated by text2laser.py 
; Engraving: "hello how are you all glad"
; Fontfile: courier.cxf 

    G90         ; 
    M03 S40 ;
    
;character 'h'
M03 S40; 
G00 X0.500000 Y0.000000; 
M05 S10
G01 X3.500000 Y0.000000 S0 F2000
M03 S40; 
G00 X0.500000 Y9.000000; 
M05 S10
G01 X2.500000 Y9.000000 S0 F2000
M03 S40; 
G00 X8.500000 Y0.000000; 
M05 S10
G01 X5.500000 Y0.000000 S0 F2000
M03 S40; 
G00 X2.000000 Y9.000000; 
M05 S10
G01 X2.000000 Y0.000000 S0 F2000
M03 S40; 
G00 X7.000000 Y4.000000; 
M05 S10
G01 X6.909589 Y4.594534 S0 F2000
G01 X6.646530 Y5.135315 S0 F2000
G01 X6.234606 Y5.573451 S0 F2000
G01 X5.711061 Y5.869329 S0 F2000
G01 X5.123227 Y5.996200 S0 F2000
G01 X4.524253 Y5.942592 S0 F2000
G01 X3.968291 Y5.713352 S0 F2000
M03 S40; 
G00 X7.000000 Y4.000000; 
M05 S10
G01 X7.000000 Y0.000000 S0 F2000
M03 S40; 
G00 X2.000000 Y4.528125; 
M05 S10
G01 X3.968262 Y5.713347 S0 F2000

;character 'e'
M03 S40; 
G00 X12.250000 Y3.000000; 
M05 S10
G01 X18.250000 Y3.000000 S0 F2000
M03 S40; 
G00 X18.250000 Y1.000000; 
M05 S10
G01 X16.403809 Y0.230770 S0 F2000
M03 S40; 
G00 X18.250000 Y3.000000; 
M05 S10
G01 X18.077785 Y4.001815 S0 F2000
G01 X17.580912 Y4.888611 S0 F2000
G01 X16.816426 Y5.558575 S0 F2000
G01 X15.872099 Y5.934790 S0 F2000
G01 X14.856349 Y5.974061 S0 F2000
G01 X13.885794 Y5.671880 S0 F2000
G01 X13.071864 Y5.062940 S0 F2000
G01 X12.508005 Y4.217154 S0 F2000
G01 X12.258955 Y3.231627 S0 F2000
G01 X12.353307 Y2.219506 S0 F2000
G01 X12.780229 Y1.296994 S0 F2000
G01 X13.490705 Y0.570004 S0 F2000
G01 X14.403166 Y0.122002 S0 F2000
G01 X15.412852 Y0.004423 S0 F2000
G01 X16.403841 Y0.230767 S0 F2000

;character 'l'
M03 S40; 
G00 X22.000000 Y0.000000; 
M05 S10
G01 X28.000000 Y0.000000 S0 F2000
M03 S40; 
G00 X25.000000 Y0.000000; 
M05 S10
G01 X25.000000 Y9.000000 S0 F2000
G01 X23.000000 Y9.000000 S0 F2000

;character 'l'
M03 S40; 
G00 X31.750000 Y0.000000; 
M05 S10
G01 X37.750000 Y0.000000 S0 F2000
M03 S40; 
G00 X34.750000 Y0.000000; 
M05 S10
G01 X34.750000 Y9.000000 S0 F2000
G01 X32.750000 Y9.000000 S0 F2000

;character 'o'
M03 S40; 
G00 X47.500000 Y3.000000; 
M05 S10
G01 X47.353170 Y3.927051 S0 F2000
G01 X46.927051 Y4.763356 S0 F2000
G01 X46.263356 Y5.427051 S0 F2000
G01 X45.427051 Y5.853170 S0 F2000
G01 X44.500000 Y6.000000 S0 F2000
G01 X43.572949 Y5.853170 S0 F2000
G01 X42.736644 Y5.427051 S0 F2000
G01 X42.072949 Y4.763356 S0 F2000
G01 X41.646830 Y3.927051 S0 F2000
G01 X41.500000 Y3.000000 S0 F2000
G01 X41.646830 Y2.072949 S0 F2000
G01 X42.072949 Y1.236644 S0 F2000
G01 X42.736644 Y0.572949 S0 F2000
G01 X43.572949 Y0.146830 S0 F2000
G01 X44.500000 Y0.000000 S0 F2000
G01 X45.427051 Y0.146830 S0 F2000
G01 X46.263356 Y0.572949 S0 F2000
G01 X46.927051 Y1.236644 S0 F2000
G01 X47.353170 Y2.072949 S0 F2000
G01 X47.500000 Y3.000000 S0 F2000

;character 'h'
M03 S40; 
G00 X59.250000 Y0.000000; 
M05 S10
G01 X62.250000 Y0.000000 S0 F2000
M03 S40; 
G00 X59.250000 Y9.000000; 
M05 S10
G01 X61.250000 Y9.000000 S0 F2000
M03 S40; 
G00 X67.250000 Y0.000000; 
M05 S10
G01 X64.250000 Y0.000000 S0 F2000
M03 S40; 
G00 X60.750000 Y9.000000; 
M05 S10
G01 X60.750000 Y0.000000 S0 F2000
M03 S40; 
G00 X65.750000 Y4.000000; 
M05 S10
G01 X65.659589 Y4.594534 S0 F2000
G01 X65.396530 Y5.135315 S0 F2000
G01 X64.984606 Y5.573451 S0 F2000
G01 X64.461061 Y5.869329 S0 F2000
G01 X63.873227 Y5.996200 S0 F2000
G01 X63.274253 Y5.942592 S0 F2000
G01 X62.718291 Y5.713352 S0 F2000
M03 S40; 
G00 X65.750000 Y4.000000; 
M05 S10
G01 X65.750000 Y0.000000 S0 F2000
M03 S40; 
G00 X60.750000 Y4.528125; 
M05 S10
G01 X62.718262 Y5.713347 S0 F2000

;character 'o'
M03 S40; 
G00 X77.000000 Y3.000000; 
M05 S10
G01 X76.853170 Y3.927051 S0 F2000
G01 X76.427051 Y4.763356 S0 F2000
G01 X75.763356 Y5.427051 S0 F2000
G01 X74.927051 Y5.853170 S0 F2000
G01 X74.000000 Y6.000000 S0 F2000
G01 X73.072949 Y5.853170 S0 F2000
G01 X72.236644 Y5.427051 S0 F2000
G01 X71.572949 Y4.763356 S0 F2000
G01 X71.146830 Y3.927051 S0 F2000
G01 X71.000000 Y3.000000 S0 F2000
G01 X71.146830 Y2.072949 S0 F2000
G01 X71.572949 Y1.236644 S0 F2000
G01 X72.236644 Y0.572949 S0 F2000
G01 X73.072949 Y0.146830 S0 F2000
G01 X74.000000 Y0.000000 S0 F2000
G01 X74.927051 Y0.146830 S0 F2000
G01 X75.763356 Y0.572949 S0 F2000
G01 X76.427051 Y1.236644 S0 F2000
G01 X76.853170 Y2.072949 S0 F2000
G01 X77.000000 Y3.000000 S0 F2000

;character 'w'
M03 S40; 
G00 X79.250000 Y6.000000; 
M05 S10
G01 X82.250000 Y6.000000 S0 F2000
M03 S40; 
G00 X85.250000 Y6.000000; 
M05 S10
G01 X88.250000 Y6.000000 S0 F2000
M03 S40; 
G00 X80.250000 Y6.000000; 
M05 S10
G01 X82.250000 Y0.000000 S0 F2000
M03 S40; 
G00 X83.750000 Y5.000000; 
M05 S10
G01 X82.250000 Y0.000000 S0 F2000
M03 S40; 
G00 X83.750000 Y5.000000; 
M05 S10
G01 X85.250000 Y0.000000 S0 F2000
G01 X87.250000 Y6.000000 S0 F2000

;character 'a'
M03 S40; 
G00 X108.000000 Y0.000000; 
M05 S10
G01 X106.000000 Y0.000000 S0 F2000
M03 S40; 
G00 X101.799534 Y3.968957; 
M05 S10
G01 X101.199531 Y3.766952 S0 F2000
G01 X100.692727 Y3.387532 S0 F2000
G01 X100.329905 Y2.868716 S0 F2000
G01 X100.147421 Y2.262490 S0 F2000
G01 X100.163560 Y1.629600 S0 F2000
G01 X100.376705 Y1.033463 S0 F2000
G01 X100.765498 Y0.533814 S0 F2000
G01 X101.290982 Y0.180718 S0 F2000
G01 X101.900501 Y0.009556 S0 F2000
M03 S40; 
G00 X106.000001 Y3.743581; 
M05 S10
G01 X103.912154 Y4.087349 S0 F2000
G01 X101.799530 Y3.968614 S0 F2000
M03 S40; 
G00 X101.900481 Y0.010456; 
M05 S10
G01 X103.393660 Y0.064892 S0 F2000
G01 X104.802810 Y0.561724 S0 F2000
G01 X105.999943 Y1.455825 S0 F2000
M03 S40; 
G00 X106.000000 Y4.588459; 
M05 S10
G01 X105.902113 Y5.206493 S0 F2000
G01 X105.618034 Y5.764030 S0 F2000
G01 X105.175571 Y6.206493 S0 F2000
G01 X104.618034 Y6.490572 S0 F2000
G01 X104.000000 Y6.588459 S0 F2000
G01 X102.921229 Y6.460456 S0 F2000
G01 X101.902368 Y6.083555 S0 F2000
G01 X101.000001 Y5.478687 S0 F2000
M03 S40; 
G00 X106.000000 Y4.588459; 
M05 S10
G01 X106.000000 Y0.000000 S0 F2000

;character 'r'
M03 S40; 
G00 X112.750000 Y6.000000; 
M05 S10
G01 X112.750000 Y0.000000 S0 F2000
M03 S40; 
G00 X111.250000 Y6.000000; 
M05 S10
G01 X112.750000 Y6.000000 S0 F2000
M03 S40; 
G00 X112.750000 Y3.716239; 
M05 S10
G01 X114.579224 Y5.359669 S0 F2000
M03 S40; 
G00 X118.104262 Y5.176817; 
M05 S10
G01 X117.496745 Y5.666939 S0 F2000
G01 X116.767686 Y5.945813 S0 F2000
G01 X115.988160 Y5.986250 S0 F2000
G01 X115.234159 Y5.784309 S0 F2000
G01 X114.579191 Y5.359676 S0 F2000
M03 S40; 
G00 X111.250000 Y0.000000; 
M05 S10
G01 X116.250000 Y0.000000 S0 F2000

;character 'e'
M03 S40; 
G00 X121.854262 Y3.000000; 
M05 S10
G01 X127.854262 Y3.000000 S0 F2000
M03 S40; 
G00 X127.854262 Y1.000000; 
M05 S10
G01 X126.008071 Y0.230770 S0 F2000
M03 S40; 
G00 X127.854262 Y3.000000; 
M05 S10
G01 X127.682047 Y4.001815 S0 F2000
G01 X127.185173 Y4.888611 S0 F2000
G01 X126.420688 Y5.558575 S0 F2000
G01 X125.476361 Y5.934790 S0 F2000
G01 X124.460611 Y5.974061 S0 F2000
G01 X123.490056 Y5.671880 S0 F2000
G01 X122.676125 Y5.062940 S0 F2000
G01 X122.112267 Y4.217154 S0 F2000
G01 X121.863217 Y3.231627 S0 F2000
G01 X121.957569 Y2.219506 S0 F2000
G01 X122.384490 Y1.296994 S0 F2000
G01 X123.094967 Y0.570004 S0 F2000
G01 X124.007427 Y0.122002 S0 F2000
G01 X125.017113 Y0.004423 S0 F2000
G01 X126.008102 Y0.230767 S0 F2000

;character 'y'
M03 S40; 
G00 X139.104262 Y6.000000; 
M05 S10
G01 X142.104262 Y6.000000 S0 F2000
M03 S40; 
G00 X145.104262 Y6.000000; 
M05 S10
G01 X148.104262 Y6.000000 S0 F2000
M03 S40; 
G00 X139.104262 Y-3.000000; 
M05 S10
G01 X144.104262 Y-3.000000 S0 F2000
M03 S40; 
G00 X142.104262 Y-3.000000; 
M05 S10
G01 X146.604262 Y6.000000 S0 F2000
M03 S40; 
G00 X140.604262 Y6.000000; 
M05 S10
G01 X143.604262 Y0.000000 S0 F2000

;character 'o'
M03 S40; 
G00 X157.854262 Y3.000000; 
M05 S10
G01 X157.707431 Y3.927051 S0 F2000
G01 X157.281313 Y4.763356 S0 F2000
G01 X156.617617 Y5.427051 S0 F2000
G01 X155.781313 Y5.853170 S0 F2000
G01 X154.854262 Y6.000000 S0 F2000
G01 X153.927211 Y5.853170 S0 F2000
G01 X153.090906 Y5.427051 S0 F2000
G01 X152.427211 Y4.763356 S0 F2000
G01 X152.001092 Y3.927051 S0 F2000
G01 X151.854262 Y3.000000 S0 F2000
G01 X152.001092 Y2.072949 S0 F2000
G01 X152.427211 Y1.236644 S0 F2000
G01 X153.090906 Y0.572949 S0 F2000
G01 X153.927211 Y0.146830 S0 F2000
G01 X154.854262 Y0.000000 S0 F2000
G01 X155.781313 Y0.146830 S0 F2000
G01 X156.617617 Y0.572949 S0 F2000
G01 X157.281313 Y1.236644 S0 F2000
G01 X157.707431 Y2.072949 S0 F2000
G01 X157.854262 Y3.000000 S0 F2000

;character 'u'
M03 S40; 
G00 X162.104262 Y6.000000; 
M05 S10
G01 X162.104262 Y2.000000 S0 F2000
M03 S40; 
G00 X167.104262 Y6.000000; 
M05 S10
G01 X167.104262 Y0.000000 S0 F2000
G01 X169.104262 Y0.000000 S0 F2000
M03 S40; 
G00 X167.104262 Y1.000000; 
M05 S10
G01 X164.814345 Y0.130306 S0 F2000
M03 S40; 
G00 X162.104262 Y2.000000; 
M05 S10
G01 X162.207240 Y1.366512 S0 F2000
G01 X162.505569 Y0.798259 S0 F2000
G01 X162.968529 Y0.353759 S0 F2000
G01 X163.548444 Y0.078785 S0 F2000
G01 X164.185596 Y0.001655 S0 F2000
G01 X164.814373 Y0.130310 S0 F2000
M03 S40; 
G00 X160.604262 Y6.000000; 
M05 S10
G01 X162.104262 Y6.000000 S0 F2000
M03 S40; 
G00 X165.604262 Y6.000000; 
M05 S10
G01 X167.104262 Y6.000000 S0 F2000

;character 'a'
M03 S40; 
G00 X188.854262 Y0.000000; 
M05 S10
G01 X186.854262 Y0.000000 S0 F2000
M03 S40; 
G00 X182.653796 Y3.968957; 
M05 S10
G01 X182.053793 Y3.766952 S0 F2000
G01 X181.546988 Y3.387532 S0 F2000
G01 X181.184167 Y2.868716 S0 F2000
G01 X181.001682 Y2.262490 S0 F2000
G01 X181.017821 Y1.629600 S0 F2000
G01 X181.230967 Y1.033463 S0 F2000
G01 X181.619760 Y0.533814 S0 F2000
G01 X182.145244 Y0.180718 S0 F2000
G01 X182.754763 Y0.009556 S0 F2000
M03 S40; 
G00 X186.854262 Y3.743581; 
M05 S10
G01 X184.766416 Y4.087349 S0 F2000
G01 X182.653792 Y3.968614 S0 F2000
M03 S40; 
G00 X182.754743 Y0.010456; 
M05 S10
G01 X184.247922 Y0.064892 S0 F2000
G01 X185.657072 Y0.561724 S0 F2000
G01 X186.854205 Y1.455825 S0 F2000
M03 S40; 
G00 X186.854262 Y4.588459; 
M05 S10
G01 X186.756375 Y5.206493 S0 F2000
G01 X186.472296 Y5.764030 S0 F2000
G01 X186.029832 Y6.206493 S0 F2000
G01 X185.472296 Y6.490572 S0 F2000
G01 X184.854262 Y6.588459 S0 F2000
G01 X183.775491 Y6.460456 S0 F2000
G01 X182.756630 Y6.083555 S0 F2000
G01 X181.854262 Y5.478687 S0 F2000
M03 S40; 
G00 X186.854262 Y4.588459; 
M05 S10
G01 X186.854262 Y0.000000 S0 F2000

;character 'l'
M03 S40; 
G00 X192.604262 Y0.000000; 
M05 S10
G01 X198.604262 Y0.000000 S0 F2000
M03 S40; 
G00 X195.604262 Y0.000000; 
M05 S10
G01 X195.604262 Y9.000000 S0 F2000
G01 X193.604262 Y9.000000 S0 F2000

;character 'l'
M03 S40; 
G00 X202.354262 Y0.000000; 
M05 S10
G01 X208.354262 Y0.000000 S0 F2000
M03 S40; 
G00 X205.354262 Y0.000000; 
M05 S10
G01 X205.354262 Y9.000000 S0 F2000
G01 X203.354262 Y9.000000 S0 F2000

;character 'g'
M03 S40; 
G00 X226.104262 Y3.000000; 
M05 S10
G01 X225.957431 Y3.927051 S0 F2000
G01 X225.531313 Y4.763356 S0 F2000
G01 X224.867617 Y5.427051 S0 F2000
G01 X224.031313 Y5.853170 S0 F2000
G01 X223.104262 Y6.000000 S0 F2000
G01 X222.177211 Y5.853170 S0 F2000
G01 X221.340906 Y5.427051 S0 F2000
G01 X220.677211 Y4.763356 S0 F2000
G01 X220.251092 Y3.927051 S0 F2000
G01 X220.104262 Y3.000000 S0 F2000
G01 X220.251092 Y2.072949 S0 F2000
G01 X220.677211 Y1.236644 S0 F2000
G01 X221.340906 Y0.572949 S0 F2000
G01 X222.177211 Y0.146830 S0 F2000
G01 X223.104262 Y0.000000 S0 F2000
G01 X224.031313 Y0.146830 S0 F2000
G01 X224.867617 Y0.572949 S0 F2000
G01 X225.531313 Y1.236644 S0 F2000
G01 X225.957431 Y2.072949 S0 F2000
G01 X226.104262 Y3.000000 S0 F2000
M03 S40; 
G00 X228.104262 Y6.000000; 
M05 S10
G01 X226.104262 Y6.000000 S0 F2000
G01 X226.104262 Y-1.000000 S0 F2000
M03 S40; 
G00 X224.104262 Y-3.000000; 
M05 S10
G01 X224.722296 Y-2.902113 S0 F2000
G01 X225.279832 Y-2.618034 S0 F2000
G01 X225.722296 Y-2.175571 S0 F2000
G01 X226.006375 Y-1.618034 S0 F2000
G01 X226.104262 Y-1.000000 S0 F2000
M03 S40; 
G00 X224.104262 Y-3.000000; 
M05 S10
G01 X221.104262 Y-3.000000 S0 F2000

;character 'l'
M03 S40; 
G00 X231.854262 Y0.000000; 
M05 S10
G01 X237.854262 Y0.000000 S0 F2000
M03 S40; 
G00 X234.854262 Y0.000000; 
M05 S10
G01 X234.854262 Y9.000000 S0 F2000
G01 X232.854262 Y9.000000 S0 F2000

;character 'a'
M03 S40; 
G00 X248.604262 Y0.000000; 
M05 S10
G01 X246.604262 Y0.000000 S0 F2000
M03 S40; 
G00 X242.403796 Y3.968957; 
M05 S10
G01 X241.803793 Y3.766952 S0 F2000
G01 X241.296988 Y3.387532 S0 F2000
G01 X240.934167 Y2.868716 S0 F2000
G01 X240.751682 Y2.262490 S0 F2000
G01 X240.767821 Y1.629600 S0 F2000
G01 X240.980967 Y1.033463 S0 F2000
G01 X241.369760 Y0.533814 S0 F2000
G01 X241.895244 Y0.180718 S0 F2000
G01 X242.504763 Y0.009556 S0 F2000
M03 S40; 
G00 X246.604262 Y3.743581; 
M05 S10
G01 X244.516416 Y4.087349 S0 F2000
G01 X242.403792 Y3.968614 S0 F2000
M03 S40; 
G00 X242.504743 Y0.010456; 
M05 S10
G01 X243.997922 Y0.064892 S0 F2000
G01 X245.407072 Y0.561724 S0 F2000
G01 X246.604205 Y1.455825 S0 F2000
M03 S40; 
G00 X246.604262 Y4.588459; 
M05 S10
G01 X246.506375 Y5.206493 S0 F2000
G01 X246.222296 Y5.764030 S0 F2000
G01 X245.779832 Y6.206493 S0 F2000
G01 X245.222296 Y6.490572 S0 F2000
G01 X244.604262 Y6.588459 S0 F2000
G01 X243.525491 Y6.460456 S0 F2000
G01 X242.506630 Y6.083555 S0 F2000
G01 X241.604262 Y5.478687 S0 F2000
M03 S40; 
G00 X246.604262 Y4.588459; 
M05 S10
G01 X246.604262 Y0.000000 S0 F2000

;character 'd'
M03 S40; 
G00 X259.354262 Y0.000000; 
M05 S10
G01 X257.354262 Y0.000000 S0 F2000
G01 X257.354262 Y9.000000 S0 F2000
M03 S40; 
G00 X257.354262 Y3.000000; 
M05 S10
G01 X257.207431 Y3.927051 S0 F2000
G01 X256.781313 Y4.763356 S0 F2000
G01 X256.117617 Y5.427051 S0 F2000
G01 X255.281313 Y5.853170 S0 F2000
G01 X254.354262 Y6.000000 S0 F2000
G01 X253.427211 Y5.853170 S0 F2000
G01 X252.590906 Y5.427051 S0 F2000
G01 X251.927211 Y4.763356 S0 F2000
G01 X251.501092 Y3.927051 S0 F2000
G01 X251.354262 Y3.000000 S0 F2000
G01 X251.501092 Y2.072949 S0 F2000
G01 X251.927211 Y1.236644 S0 F2000
G01 X252.590906 Y0.572949 S0 F2000
G01 X253.427211 Y0.146830 S0 F2000
G01 X254.354262 Y0.000000 S0 F2000
G01 X255.281313 Y0.146830 S0 F2000
G01 X256.117617 Y0.572949 S0 F2000
G01 X256.781313 Y1.236644 S0 F2000
G01 X257.207431 Y2.072949 S0 F2000
G01 X257.354262 Y3.000000 S0 F2000
M03 S40; 
G00 X257.354262 Y9.000000; 
M05 S10
G01 X255.354262 Y9.000000 S0 F2000

; ===================================================================
; Engraving: " to meet you all here" 
; Line 1 
;character 't'
M03 S40; 
G00 X10.500000 Y-5.247438; 
M05 S10
G01 X15.500000 Y-5.247438 S0 F2000
M03 S40; 
G00 X11.500000 Y-3.247438; 
M05 S10
G01 X11.500000 Y-9.247438 S0 F2000
G01 X11.602978 Y-9.880927 S0 F2000
G01 X11.901308 Y-10.449180 S0 F2000
G01 X12.364267 Y-10.893680 S0 F2000
G01 X12.944182 Y-11.168653 S0 F2000
G01 X13.581334 Y-11.245784 S0 F2000
G01 X14.210111 Y-11.117129 S0 F2000
M03 S40; 
G00 X16.500000 Y-10.247438; 
M05 S10
G01 X14.210083 Y-11.117134 S0 F2000

;character 'o'
M03 S40; 
G00 X26.250000 Y-8.247438; 
M05 S10
G01 X26.103170 Y-7.320387 S0 F2000
G01 X25.677051 Y-6.484083 S0 F2000
G01 X25.013356 Y-5.820387 S0 F2000
G01 X24.177051 Y-5.394269 S0 F2000
G01 X23.250000 Y-5.247438 S0 F2000
G01 X22.322949 Y-5.394269 S0 F2000
G01 X21.486644 Y-5.820387 S0 F2000
G01 X20.822949 Y-6.484083 S0 F2000
G01 X20.396830 Y-7.320387 S0 F2000
G01 X20.250000 Y-8.247438 S0 F2000
G01 X20.396830 Y-9.174489 S0 F2000
G01 X20.822949 Y-10.010794 S0 F2000
G01 X21.486644 Y-10.674489 S0 F2000
G01 X22.322949 Y-11.100608 S0 F2000
G01 X23.250000 Y-11.247438 S0 F2000
G01 X24.177051 Y-11.100608 S0 F2000
G01 X25.013356 Y-10.674489 S0 F2000
G01 X25.677051 Y-10.010794 S0 F2000
G01 X26.103170 Y-9.174489 S0 F2000
G01 X26.250000 Y-8.247438 S0 F2000

;character 'm'
M03 S40; 
G00 X40.500000 Y-11.247438; 
M05 S10
G01 X37.500000 Y-11.247438 S0 F2000
M03 S40; 
G00 X37.500000 Y-5.247438; 
M05 S10
G01 X39.000000 Y-5.247438 S0 F2000
G01 X39.000000 Y-11.247438 S0 F2000
M03 S40; 
G00 X42.000000 Y-11.247438; 
M05 S10
G01 X42.000000 Y-6.247438 S0 F2000
M03 S40; 
G00 X45.000000 Y-6.247438; 
M05 S10
G01 X45.000000 Y-11.247438 S0 F2000
M03 S40; 
G00 X43.500000 Y-11.247438; 
M05 S10
G01 X42.000000 Y-11.247438 S0 F2000
M03 S40; 
G00 X46.500000 Y-11.247438; 
M05 S10
G01 X45.000000 Y-11.247438 S0 F2000
M03 S40; 
G00 X42.000000 Y-6.689388; 
M05 S10
G01 X43.334961 Y-5.500619 S0 F2000
M03 S40; 
G00 X39.000000 Y-6.689388; 
M05 S10
G01 X40.334961 Y-5.500619 S0 F2000
M03 S40; 
G00 X42.000000 Y-6.247438; 
M05 S10
G01 X41.946579 Y-5.924967 S0 F2000
G01 X41.792025 Y-5.636949 S0 F2000
G01 X41.552849 Y-5.414157 S0 F2000
G01 X41.254606 Y-5.280393 S0 F2000
G01 X40.929160 Y-5.249951 S0 F2000
G01 X40.611284 Y-5.326081 S0 F2000
G01 X40.334938 Y-5.500650 S0 F2000
M03 S40; 
G00 X45.000000 Y-6.247438; 
M05 S10
G01 X44.946579 Y-5.924967 S0 F2000
G01 X44.792025 Y-5.636949 S0 F2000
G01 X44.552849 Y-5.414157 S0 F2000
G01 X44.254606 Y-5.280393 S0 F2000
G01 X43.929160 Y-5.249951 S0 F2000
G01 X43.611284 Y-5.326081 S0 F2000
G01 X43.334938 Y-5.500650 S0 F2000

;character 'e'
M03 S40; 
G00 X50.250000 Y-8.247438; 
M05 S10
G01 X56.250000 Y-8.247438 S0 F2000
M03 S40; 
G00 X56.250000 Y-10.247438; 
M05 S10
G01 X54.403809 Y-11.016668 S0 F2000
M03 S40; 
G00 X56.250000 Y-8.247438; 
M05 S10
G01 X56.077785 Y-7.245624 S0 F2000
G01 X55.580912 Y-6.358828 S0 F2000
G01 X54.816426 Y-5.688863 S0 F2000
G01 X53.872099 Y-5.312648 S0 F2000
G01 X52.856349 Y-5.273377 S0 F2000
G01 X51.885794 Y-5.575558 S0 F2000
G01 X51.071864 Y-6.184498 S0 F2000
G01 X50.508005 Y-7.030284 S0 F2000
G01 X50.258955 Y-8.015812 S0 F2000
G01 X50.353307 Y-9.027932 S0 F2000
G01 X50.780229 Y-9.950445 S0 F2000
G01 X51.490705 Y-10.677434 S0 F2000
G01 X52.403166 Y-11.125436 S0 F2000
G01 X53.412852 Y-11.243015 S0 F2000
G01 X54.403841 Y-11.016671 S0 F2000

;character 'e'
M03 S40; 
G00 X60.000000 Y-8.247438; 
M05 S10
G01 X66.000000 Y-8.247438 S0 F2000
M03 S40; 
G00 X66.000000 Y-10.247438; 
M05 S10
G01 X64.153809 Y-11.016668 S0 F2000
M03 S40; 
G00 X66.000000 Y-8.247438; 
M05 S10
G01 X65.827785 Y-7.245624 S0 F2000
G01 X65.330912 Y-6.358828 S0 F2000
G01 X64.566426 Y-5.688863 S0 F2000
G01 X63.622099 Y-5.312648 S0 F2000
G01 X62.606349 Y-5.273377 S0 F2000
G01 X61.635794 Y-5.575558 S0 F2000
G01 X60.821864 Y-6.184498 S0 F2000
G01 X60.258005 Y-7.030284 S0 F2000
G01 X60.008955 Y-8.015812 S0 F2000
G01 X60.103307 Y-9.027932 S0 F2000
G01 X60.530229 Y-9.950445 S0 F2000
G01 X61.240705 Y-10.677434 S0 F2000
G01 X62.153166 Y-11.125436 S0 F2000
G01 X63.162852 Y-11.243015 S0 F2000
G01 X64.153841 Y-11.016671 S0 F2000

;character 't'
M03 S40; 
G00 X69.750000 Y-5.247438; 
M05 S10
G01 X74.750000 Y-5.247438 S0 F2000
M03 S40; 
G00 X70.750000 Y-3.247438; 
M05 S10
G01 X70.750000 Y-9.247438 S0 F2000
G01 X70.852978 Y-9.880927 S0 F2000
G01 X71.151308 Y-10.449180 S0 F2000
G01 X71.614267 Y-10.893680 S0 F2000
G01 X72.194182 Y-11.168653 S0 F2000
G01 X72.831334 Y-11.245784 S0 F2000
G01 X73.460111 Y-11.117129 S0 F2000
M03 S40; 
G00 X75.750000 Y-10.247438; 
M05 S10
G01 X73.460083 Y-11.117134 S0 F2000

;character 'y'
M03 S40; 
G00 X87.000000 Y-5.247438; 
M05 S10
G01 X90.000000 Y-5.247438 S0 F2000
M03 S40; 
G00 X93.000000 Y-5.247438; 
M05 S10
G01 X96.000000 Y-5.247438 S0 F2000
M03 S40; 
G00 X87.000000 Y-14.247438; 
M05 S10
G01 X92.000000 Y-14.247438 S0 F2000
M03 S40; 
G00 X90.000000 Y-14.247438; 
M05 S10
G01 X94.500000 Y-5.247438 S0 F2000
M03 S40; 
G00 X88.500000 Y-5.247438; 
M05 S10
G01 X91.500000 Y-11.247438 S0 F2000

;character 'o'
M03 S40; 
G00 X105.750000 Y-8.247438; 
M05 S10
G01 X105.603170 Y-7.320387 S0 F2000
G01 X105.177051 Y-6.484083 S0 F2000
G01 X104.513356 Y-5.820387 S0 F2000
G01 X103.677051 Y-5.394269 S0 F2000
G01 X102.750000 Y-5.247438 S0 F2000
G01 X101.822949 Y-5.394269 S0 F2000
G01 X100.986644 Y-5.820387 S0 F2000
G01 X100.322949 Y-6.484083 S0 F2000
G01 X99.896830 Y-7.320387 S0 F2000
G01 X99.750000 Y-8.247438 S0 F2000
G01 X99.896830 Y-9.174489 S0 F2000
G01 X100.322949 Y-10.010794 S0 F2000
G01 X100.986644 Y-10.674489 S0 F2000
G01 X101.822949 Y-11.100608 S0 F2000
G01 X102.750000 Y-11.247438 S0 F2000
G01 X103.677051 Y-11.100608 S0 F2000
G01 X104.513356 Y-10.674489 S0 F2000
G01 X105.177051 Y-10.010794 S0 F2000
G01 X105.603170 Y-9.174489 S0 F2000
G01 X105.750000 Y-8.247438 S0 F2000

;character 'u'
M03 S40; 
G00 X110.000000 Y-5.247438; 
M05 S10
G01 X110.000000 Y-9.247438 S0 F2000
M03 S40; 
G00 X115.000000 Y-5.247438; 
M05 S10
G01 X115.000000 Y-11.247438 S0 F2000
G01 X117.000000 Y-11.247438 S0 F2000
M03 S40; 
G00 X115.000000 Y-10.247438; 
M05 S10
G01 X112.710083 Y-11.117132 S0 F2000
M03 S40; 
G00 X110.000000 Y-9.247438; 
M05 S10
G01 X110.102978 Y-9.880927 S0 F2000
G01 X110.401308 Y-10.449180 S0 F2000
G01 X110.864267 Y-10.893680 S0 F2000
G01 X111.444182 Y-11.168653 S0 F2000
G01 X112.081334 Y-11.245784 S0 F2000
G01 X112.710111 Y-11.117129 S0 F2000
M03 S40; 
G00 X108.500000 Y-5.247438; 
M05 S10
G01 X110.000000 Y-5.247438 S0 F2000
M03 S40; 
G00 X113.500000 Y-5.247438; 
M05 S10
G01 X115.000000 Y-5.247438 S0 F2000

;character 'a'
M03 S40; 
G00 X136.750000 Y-11.247438; 
M05 S10
G01 X134.750000 Y-11.247438 S0 F2000
M03 S40; 
G00 X130.549534 Y-7.278482; 
M05 S10
G01 X129.949531 Y-7.480487 S0 F2000
G01 X129.442727 Y-7.859907 S0 F2000
G01 X129.079905 Y-8.378723 S0 F2000
G01 X128.897421 Y-8.984948 S0 F2000
G01 X128.913560 Y-9.617838 S0 F2000
G01 X129.126705 Y-10.213975 S0 F2000
G01 X129.515498 Y-10.713624 S0 F2000
G01 X130.040982 Y-11.066720 S0 F2000
G01 X130.650501 Y-11.237882 S0 F2000
M03 S40; 
G00 X134.750001 Y-7.503858; 
M05 S10
G01 X132.662154 Y-7.160090 S0 F2000
G01 X130.549530 Y-7.278825 S0 F2000
M03 S40; 
G00 X130.650481 Y-11.236982; 
M05 S10
G01 X132.143660 Y-11.182546 S0 F2000
G01 X133.552810 Y-10.685715 S0 F2000
G01 X134.749943 Y-9.791614 S0 F2000
M03 S40; 
G00 X134.750000 Y-6.658979; 
M05 S10
G01 X134.652113 Y-6.040945 S0 F2000
G01 X134.368034 Y-5.483409 S0 F2000
G01 X133.925571 Y-5.040945 S0 F2000
G01 X133.368034 Y-4.756866 S0 F2000
G01 X132.750000 Y-4.658979 S0 F2000
G01 X131.671229 Y-4.786983 S0 F2000
G01 X130.652368 Y-5.163884 S0 F2000
G01 X129.750001 Y-5.768751 S0 F2000
M03 S40; 
G00 X134.750000 Y-6.658979; 
M05 S10
G01 X134.750000 Y-11.247438 S0 F2000

;character 'l'
M03 S40; 
G00 X140.500000 Y-11.247438; 
M05 S10
G01 X146.500000 Y-11.247438 S0 F2000
M03 S40; 
G00 X143.500000 Y-11.247438; 
M05 S10
G01 X143.500000 Y-2.247438 S0 F2000
G01 X141.500000 Y-2.247438 S0 F2000

;character 'l'
M03 S40; 
G00 X150.250000 Y-11.247438; 
M05 S10
G01 X156.250000 Y-11.247438 S0 F2000
M03 S40; 
G00 X153.250000 Y-11.247438; 
M05 S10
G01 X153.250000 Y-2.247438 S0 F2000
G01 X151.250000 Y-2.247438 S0 F2000

;character 'h'
M03 S40; 
G00 X168.000000 Y-11.247438; 
M05 S10
G01 X171.000000 Y-11.247438 S0 F2000
M03 S40; 
G00 X168.000000 Y-2.247438; 
M05 S10
G01 X170.000000 Y-2.247438 S0 F2000
M03 S40; 
G00 X176.000000 Y-11.247438; 
M05 S10
G01 X173.000000 Y-11.247438 S0 F2000
M03 S40; 
G00 X169.500000 Y-2.247438; 
M05 S10
G01 X169.500000 Y-11.247438 S0 F2000
M03 S40; 
G00 X174.500000 Y-7.247438; 
M05 S10
G01 X174.409589 Y-6.652905 S0 F2000
G01 X174.146530 Y-6.112124 S0 F2000
G01 X173.734606 Y-5.673988 S0 F2000
G01 X173.211061 Y-5.378109 S0 F2000
G01 X172.623227 Y-5.251238 S0 F2000
G01 X172.024253 Y-5.304846 S0 F2000
G01 X171.468291 Y-5.534086 S0 F2000
M03 S40; 
G00 X174.500000 Y-7.247438; 
M05 S10
G01 X174.500000 Y-11.247438 S0 F2000
M03 S40; 
G00 X169.500000 Y-6.719313; 
M05 S10
G01 X171.468262 Y-5.534091 S0 F2000

;character 'e'
M03 S40; 
G00 X179.750000 Y-8.247438; 
M05 S10
G01 X185.750000 Y-8.247438 S0 F2000
M03 S40; 
G00 X185.750000 Y-10.247438; 
M05 S10
G01 X183.903809 Y-11.016668 S0 F2000
M03 S40; 
G00 X185.750000 Y-8.247438; 
M05 S10
G01 X185.577785 Y-7.245624 S0 F2000
G01 X185.080912 Y-6.358828 S0 F2000
G01 X184.316426 Y-5.688863 S0 F2000
G01 X183.372099 Y-5.312648 S0 F2000
G01 X182.356349 Y-5.273377 S0 F2000
G01 X181.385794 Y-5.575558 S0 F2000
G01 X180.571864 Y-6.184498 S0 F2000
G01 X180.008005 Y-7.030284 S0 F2000
G01 X179.758955 Y-8.015812 S0 F2000
G01 X179.853307 Y-9.027932 S0 F2000
G01 X180.280229 Y-9.950445 S0 F2000
G01 X180.990705 Y-10.677434 S0 F2000
G01 X181.903166 Y-11.125436 S0 F2000
G01 X182.912852 Y-11.243015 S0 F2000
G01 X183.903841 Y-11.016671 S0 F2000

;character 'r'
M03 S40; 
G00 X190.500000 Y-5.247438; 
M05 S10
G01 X190.500000 Y-11.247438 S0 F2000
M03 S40; 
G00 X189.000000 Y-5.247438; 
M05 S10
G01 X190.500000 Y-5.247438 S0 F2000
M03 S40; 
G00 X190.500000 Y-7.531199; 
M05 S10
G01 X192.329224 Y-5.887769 S0 F2000
M03 S40; 
G00 X195.854262 Y-6.070622; 
M05 S10
G01 X195.246745 Y-5.580499 S0 F2000
G01 X194.517686 Y-5.301625 S0 F2000
G01 X193.738160 Y-5.261188 S0 F2000
G01 X192.984159 Y-5.463129 S0 F2000
G01 X192.329191 Y-5.887762 S0 F2000
M03 S40; 
G00 X189.000000 Y-11.247438; 
M05 S10
G01 X194.000000 Y-11.247438 S0 F2000

;character 'e'
M03 S40; 
G00 X199.604262 Y-8.247438; 
M05 S10
G01 X205.604262 Y-8.247438 S0 F2000
M03 S40; 
G00 X205.604262 Y-10.247438; 
M05 S10
G01 X203.758071 Y-11.016668 S0 F2000
M03 S40; 
G00 X205.604262 Y-8.247438; 
M05 S10
G01 X205.432047 Y-7.245624 S0 F2000
G01 X204.935173 Y-6.358828 S0 F2000
G01 X204.170688 Y-5.688863 S0 F2000
G01 X203.226361 Y-5.312648 S0 F2000
G01 X202.210611 Y-5.273377 S0 F2000
G01 X201.240056 Y-5.575558 S0 F2000
G01 X200.426125 Y-6.184498 S0 F2000
G01 X199.862267 Y-7.030284 S0 F2000
G01 X199.613217 Y-8.015812 S0 F2000
G01 X199.707569 Y-9.027932 S0 F2000
G01 X200.134490 Y-9.950445 S0 F2000
G01 X200.844967 Y-10.677434 S0 F2000
G01 X201.757427 Y-11.125436 S0 F2000
G01 X202.767113 Y-11.243015 S0 F2000
G01 X203.758102 Y-11.016671 S0 F2000


    M5          ; Disable Laser/Spindle
    
